%
(Header)
(Generated by gcodetools from*3.4566194262 Inkscape.*3.4566194262)
(Using default*3.4566194262 header. To add your own*3.4566194262 header create file "header*3.4566194262" in the*3.4566194262 output dir.*3.4566194262)
M3
(Header end.)
G21 (All units in mm*3.4566194262)

(Start cutting path*3.4566194262 id:*3.4566194262 rect30380)
(Change tool to Default tool)

G00 X14.524711372272973 Y120.96631870026997
M3S255
G01 X190.33760456267294 Y120.96631870026997 F6400.000000
G02 X197.15908745240446 Y118.14076736947244 I-0.0 J-9.64703422052904
G02 X199.98463878320197 Y111.31928102312149 I-6.821486346350948 J-6.821486346350948
G01 X199.98463878320197 Y33.05986864845057
G02 X197.15908745240446 Y26.238385758719044 I-9.64703422052904 J-0.0
G02 X190.33760456267294 Y23.412834427921524 I-6.821482889731521 J6.821482889731521
G01 X14.524711372272973 Y23.412834427921524
G02 X7.703225025922027 Y26.238385758719044 I-0.0 J9.647037677148464
G02 X4.877673695124508 Y33.05986864845057 I6.821482889731521 J6.821482889731521
G01 X4.877673695124508 Y111.31928102312149
G02 X7.703225025922027 Y118.14076736947244 I9.647037677148464 J0.0
G02 X14.524711372272973 Y120.96631870026997 I6.821486346350948 J-6.821486346350948
G01 X14.524711372272973 Y120.96631870026997
M3S0
(End cutting path*3.4566194262 id:*3.4566194262 rect30380)


(Start cutting path*3.4566194262 id:*3.4566194262 path3795)
(Change tool to Default tool)

G00 X161.21757690972743 Y45.58701693741969
M3S255
G01 X161.21757690972743 Y57.11732111992528 F6400.000000
G01 X162.60517801584515 Y57.11732111992528
G01 X162.60517801584515 Y46.809429657778765
G01 X167.51133771166099 Y46.809429657778765
G01 X167.51133771166099 Y45.58701693741969
G01 X161.21757690972743 Y45.58701693741969
M3S0
(End cutting path*3.4566194262 id:*3.4566194262 path3795)


(Start cutting path*3.4566194262 id:*3.4566194262 path3793)
(Change tool to Default tool)

G00 X150.44146906320498 Y57.11732111992528
M3S255
G01 X155.18244037326215 Y57.11732111992528 F6400.000000
G02 X156.52264431380783 Y56.883252678860714 I-0.0 J-3.9538264777034606
G02 X157.42902868988773 Y56.307888005511444 I-0.8345419979257447 J-2.3162910473548988
G02 X158.02321811263207 Y55.40107500862271 I-1.774797787762964 J-1.8110093328718349
G02 X158.25498444515878 Y54.143888696836065 I-3.2938161078454065 J-1.2571828551672186
G02 X158.2025164188885 Y53.50992395435443 I-3.8561908053910154 J0.0
G02 X158.07327341854287 Y53.0536329069989 I-2.114054614586215 J0.352350501209697
G02 X157.85706187343405 Y52.629820255771946 I-2.5993225025915807 J1.0590010369854679
G02 X157.61074317312304 Y52.310273072916885 I-1.713740062218567 J1.066318700310733
G02 X157.31035257512798 Y52.05779122016896 I-1.6071690286893947 J1.6071690286893947
G02 X156.99952989970467 Y51.88077428273383 I-1.0858071206356488 J1.5451918423776287
G02 X156.66468717588864 Y51.76431040440687 I-1.4389699274105028 J3.5975319737284694
G02 X156.38832699614457 Y51.699073625976204 I-0.7083339094363302 J2.3826546837185125
G01 X156.38832699614457 Y51.59995852054934
G02 X156.69616660900306 Y51.555599723452914 I-0.0901244382993126 J-1.7157345316274846
G02 X157.08212927751313 Y51.434759764932394 I-0.6729415831314683 J-2.826239198063332
G02 X157.45450051843937 Y51.24765986863104 I-0.6860801935704546 J-1.8295437262351193
G02 X157.82548565497572 Y50.95571379189419 I-1.358295886622421 J-2.1077290010362693
G02 X158.12983062559437 Y50.610833045264506 I-1.3767749740748862 J-1.5216695471823378
G02 X158.40365710329905 Y50.12975803662312 I-2.4347459384713463 J-1.7043242309015982
G02 X158.58091254747458 Y49.61753888695168 I-1.8628413411677038 J-0.9314206705838519
G02 X158.6514414102468 Y48.92387141374071 I-3.375831316970854 J-0.6936674732109636
G02 X158.59072243340617 Y48.22464915311184 I-4.0562288282046355 J-0.0
G02 X158.42017283091747 Y47.60234358795478 I-3.377058416867155 J0.5909920497751188
G02 X158.15323885234858 Y47.021880400951865 I-3.2401417213953727 J1.138416868302413
G02 X157.80896992735734 Y46.545126166593235 I-2.51883857587194 J1.4562011752501098
G02 X157.37677843064128 Y46.146332526773115 I-2.2251849291385453 J1.9779398548213116
G02 X156.86738333904103 Y45.834801244367405 I-1.848513653646105 J2.450331835464082
G02 X156.30818873136755 Y45.651959903199135 I-1.1026857932937835 J2.4259108192179792
G02 X155.67801244377702 Y45.58701693741969 I-0.630176287590522 J3.0248427238150795
G01 X150.44146906320498 Y45.58701693741969
G01 X150.44146906320498 Y57.11732111992528
M3S0
(End cutting path*3.4566194262 id:*3.4566194262 path3793)


(Start cutting path*3.4566194262 id:*3.4566194262 path3793)
(Change tool to Default tool)

G00 X151.82907016932273 Y46.809429657778765
M3S255
G01 X155.24851365359396 Y46.809429657778765 F6400.000000
G03 X156.09161078459954 Y46.9401140684251 I-0.0 J2.784870376770571
G03 X156.65263048733007 Y47.2554441755802 I-0.4797303836845932 J1.5102557898370255
G03 X157.01519184232478 Y47.784414102991015 I-0.9217144832350824 J1.0204873833387476
G03 X157.16472865532162 Y48.59348772898452 I-2.114006221914248 J0.809073625993503
G01 X157.16472865532162 Y49.155133079831195
G03 X157.01386450046513 Y49.96198064291423 I-2.233027998616593 J-0.0
G03 X156.65263048733007 Y50.47666090561713 I-1.2218838575868642 J-0.4734842723814498
G03 X156.08867265808726 Y50.8043760801763 I-1.057635672312119 J-1.1709540269612333
G03 X155.24851365359396 Y50.93919115103695 I-0.8401590044933196 J-2.5504908399576536
G01 X151.82907016932273 Y50.93919115103695
G01 X151.82907016932273 Y46.809429657778765
M3S0
(End cutting path*3.4566194262 id:*3.4566194262 path3793)


(Start cutting path*3.4566194262 id:*3.4566194262 path3793)
(Change tool to Default tool)

G00 X151.82907016932273 Y52.12856204630098
M3S255
G01 X155.01724507426462 Y52.12856204630098 F6400.000000
G03 X155.79671275487271 Y52.25042516417166 I-0.0 J2.553767715173691
G03 X156.3057310749555 Y52.54154510886565 I-0.430608365018865 J1.3434773591423017
G03 X156.63390252327892 Y53.014680262685054 I-0.8216868302797068 J0.920307639128619
G03 X156.7682716902336 Y53.730916004129675 I-1.8417248530930483 J0.7162357414446234
G01 X156.7682716902336 Y54.29256135497636
G03 X156.63390252327892 Y55.00879709642098 I-1.9760940200477208 J-0.0
G03 X156.3057310749555 Y55.481932250240384 I-1.1498582786031348 J-0.44717248530921544
G03 X155.79671275487271 Y55.77304528169552 I-0.9396163152433722 J-1.0523712409260164
G03 X155.01724507426462 Y55.89490494294677 I-0.7794711372275263 J-2.4319668164526815
G01 X151.82907016932273 Y55.89490494294677
G01 X151.82907016932273 Y52.12856204630098
M3S0
(End cutting path*3.4566194262 id:*3.4566194262 path3793)


(Start cutting path*3.4566194262 id:*3.4566194262 path3791)
(Change tool to Default tool)

G00 X141.2465468371452 Y45.58701693741969
M3S255
G01 X139.85894573102746 Y45.58701693741969 F6400.000000
G01 X139.85894573102746 Y57.11732111992528
G01 X144.45124438294434 Y57.11732111992528
G02 X145.869388178312 Y56.87200138262843 I-0.0 J-4.221683373659125
G02 X146.81347390247342 Y56.27484963703583 I-0.8543795368127064 J-2.3956204631861886
G02 X147.41854476317144 Y55.325751814706386 I-1.74680262703017 J-1.7810473556855333
G02 X147.67246111298124 Y53.84654683717492 I-4.181617697890041 J-1.4792049775314708
G02 X147.5032526788299 Y52.629156584842114 I-4.4638921534723845 J-0.0
G02 X147.07777393703952 Y51.74863117868963 I-2.718807466297036 J0.7706878672655519
G02 X146.39048047005048 Y51.102450743155806 I-1.9711199446934191 J1.4079398548215054
G02 X145.35978914616558 Y50.67488765985142 I-1.796266851019092 J2.874023505011121
G01 X148.00284479773745 Y45.58701693741969
G01 X146.4335326650038 Y45.58701693741969
G01 X143.9391565848111 Y50.54273072932951
G01 X141.2465468371452 Y50.54273072932951
G01 X141.2465468371452 Y45.58701693741969
M3S0
(End cutting path*3.4566194262 id:*3.4566194262 path3791)


(Start cutting path*3.4566194262 id:*3.4566194262 path3791)
(Change tool to Default tool)

G00 X144.45124438294434 Y51.73210508121297
M3S255
G03 X145.22589007945285 Y51.85936052538852 I-0.0 J0.700507 F6400.000000*3.4566194262
G03 X145.7232146560168 Y52.16160387139602 I-0.4257207051502182 J1.260784652609319
G03 X146.05146214996762 Y52.64965779465891 I-0.8764880746626816 J0.9438956100930078
G03 X146.18574490143664 Y53.3840165917551 I-1.9408192188033497 J0.73435879709619
G01 X146.18574490143664 Y54.243003802262926
G03 X146.05146214996762 Y54.97736259935912 I-2.0751054268917937 J0.0
G03 X145.7232146560168 Y55.465416522622 I-1.2047321119940597 J-0.455841686830125
G03 X145.2258935360723 Y55.76765295539065 I-0.9230349118558908 J-0.9585516764600959
G03 X144.45124438294434 Y55.89490494294677 I-0.7746491531279772 J-2.294189422743776
G01 X141.2465468371452 Y55.89490494294677
G01 X141.2465468371452 Y51.73210508121297
G01 X144.45124438294434 Y51.73210508121297
M3S0
(End cutting path*3.4566194262 id:*3.4566194262 path3791)


(Start cutting path*3.4566194262 id:*3.4566194262 path3789)
(Change tool to Default tool)

G00 X135.8396543380112 Y47.271959903198585
M3S255
G01 X135.79009678529778 Y47.271959903198585 F6400.000000
G02 X135.43767369508012 Y46.5624714828739 I-1.911061182163194 J0.5070100241961636
G02 X134.73287936393623 Y45.91740062217588 I-2.2671517455920394 J1.7694849637048946
G02 X133.8616384375625 Y45.543553404754654 I-1.5653128240575391 J2.4457932941574816
G02 X132.5854061527375 Y45.388786726565975 I-1.2762322848250067 J5.1846560663653305
G02 X131.54861043894593 Y45.488890425148725 I0.0 J5.41928793639636
G02 X130.6361493259148 Y45.7687279640356 I0.8704493605251102 J4.4657656412013855
G02 X129.82569650877025 Y46.251220186641724 I1.7441133771165864 J3.851552022121055
G02 X129.13292084337124 Y46.90854476320562 I2.6188143795359227 J3.453788454889942
G02 X128.59268233663101 Y47.71665053575979 I3.7101901140671796 J3.0649671621144092
G02 X128.1417767023415 Y48.77519875560042 I5.955036294501951 J3.1619599032135812
G02 X127.89130660209963 Y49.913038368458665 I6.7249740753520175 J2.0768441064631724
G02 X127.79487728996692 Y51.35217421360162 I10.690698237120458 J1.4391323885235343
G02 X127.8914103006824 Y52.774555824385786 I10.52733494641882 J-0.0
G02 X128.1417767023415 Y53.89610438988835 I6.777099896299113 J-0.9241513999305535
G02 X128.5860732802881 Y54.965330107136516 I5.875022468024273 J-1.814341513998692
G02 X129.13292084337124 Y55.76276183890257 I3.787265814032587 J-2.0109332872443906
G02 X129.8450846871318 Y56.43131697198219 I3.282419633597225 J-2.7829312132724726
G02 X130.68570687862822 Y56.919090909071556 I2.5444763221560653 J-3.4168683027987004
G02 X131.6163152436469 Y57.20986864844235 I1.7987072243339892 J-4.1220670584154675
G02 X132.70103698578276 Y57.31554787415957 I1.084721742135822 J-5.514002765293666
G02 X134.19438990662564 Y57.119253370184516 I0.0 J-5.778589699272145
G02 X135.2945247147829 Y56.62174904941041 I-0.9596163152433654 J-3.587127549255607
G02 X136.2101590044473 Y55.818185274782266 I-2.561341168336495 J-3.842011752504743
G02 X136.8968786726116 Y54.788133425491225 I-3.5905945385400857 J-3.137739370894198
G01 X135.75706533006098 Y54.09433114412264
G03 X135.25110957478984 Y54.92832008294019 I-3.2030487383328206 J-1.3727307293462323
G03 X134.56769097817755 Y55.5480055305722 I-2.4123470445895703 J-1.9737435188379047
G03 X133.74656066362547 Y55.93143449704286 I-1.5917836156233787 J-2.3379294849629106
G03 X132.70103698578276 Y56.076619426182106 I-1.0455236778427142 J-3.691994469407663
G03 X131.95707224330116 Y56.00209125473381 I0.0 J-3.750535776009786
G03 X131.313435879665 Y55.79579329413934 I0.607950224680056 J-3.0039474593837006
G03 X130.72681645346404 Y55.47257172483423 I1.2389146214997517 J-2.9424783961275858
G03 X130.22317663320842 Y55.035917732438946 I1.808140338748089 J-2.594296577945886
G03 X129.83592464565237 Y54.50528862770356 I2.389032146559851 J-2.1501278949180387
G03 X129.52937780845923 Y53.84654683717492 I3.3963567231236294 J-1.9812098167984968
G03 X129.3487729000597 Y53.14110957481774 I3.7164777048034376 J-1.3273142067053905
G03 X129.2815900448921 Y52.2937573452985 I5.310051849289588 J-0.8473522295192418
G01 X129.2815900448921 Y50.4271033529037
G03 X129.34810577251045 Y49.57938126510586 I5.435416522639009 J0.0
G03 X129.52937780845923 Y48.85778776355062 I4.110345661941222 J0.6490010369856072
G03 X129.83592464565237 Y48.19904597302198 I3.702907016936176 J1.322468026269858
G03 X130.22317663320842 Y47.66841686828659 I2.77628413411589 J1.6194987901826503
G03 X130.72765986860404 Y47.23275838228605 I2.2698340822667706 J2.118496370548882
G03 X131.34647770476005 Y46.892029035587235 I1.9828206014511058 J2.8687936398192804
G03 X132.0210300725441 Y46.69934669891257 I1.2758520566881248 J3.189536812995805
G03 X132.83319045968523 Y46.627715174543425 I0.8121603871410996 J4.568292430001903
G03 X133.42251987551631 Y46.66654683717736 I0.0 J4.491513999307149
G03 X133.9564811613786 Y46.77638783268372 I-0.5020843415138286 J3.793511925335731
G03 X134.4782371240469 Y46.9862633943843 I-0.9258278603522605 J3.0551123401303126
G03 X134.8980677496949 Y47.2554441755802 I-1.1383408226750364 J2.237414448668441
G03 X135.26526788795954 Y47.60726235739826 I-1.3507500864150264 J1.7773453162800734
G03 X135.54230902173063 Y48.03184237813783 I-1.7073556861383756 J1.4167369512611845
G03 X135.70944348422626 Y48.52556170064026 I-1.9073867957131436 J0.9208330452814014
G03 X135.7735810576794 Y49.155133079831195 I-3.057856895954716 J0.629571379190937
G01 X135.7735810576794 Y50.2949464223818
G01 X133.22964742477325 Y50.2949464223818
G01 X133.22964742477325 Y51.517359142740865
G01 X137.12814033870208 Y51.517359142740865
G01 X137.12814033870208 Y45.58701693741969
G01 X135.8396543380112 Y45.58701693741969
G01 X135.8396543380112 Y47.271959903198585
M3S0
(End cutting path*3.4566194262 id:*3.4566194262 path3789)


(Start cutting path*3.4566194262 id:*3.4566194262 path3787)
(Change tool to Default tool)

G00 X121.3627652954997 Y54.110846871741025
M3S255
G01 X122.66777739366725 Y54.110846871741025 F6400.000000
G01 X118.85187694430802 Y43.60472865536022
G02 X118.69048738329874 Y43.23104389905201 I-5.464213619078682 J2.1382060145170745
G02 X118.55453162802745 Y42.97701002418172 I-2.6569927410983016 J1.258589699273682
G02 X118.38227099892276 Y42.734189422730026 I-1.242184583476937 J0.6987106809537894
G02 X118.1911061181762 Y42.56402696161705 I-0.7906221914964474 J0.6957483581055359
G02 X117.96459039055789 Y42.443086761133166 I-0.6361113031453074 J0.9188109229170744
G02 X117.64597649494792 Y42.34928447976438 I-0.6852540615275928 J1.7395195298991666
G02 X117.33008295882634 Y42.30278949186256 I-0.5368890425162364 J2.551444866919285
G02 X116.86958866224855 Y42.283238852387974 I-0.46049429657779023 J5.413442792946656
G01 X116.19230556511778 Y42.283238852387974
G01 X116.19230556511778 Y43.439571379176385
G01 X117.5303491185221 Y43.439571379176385
G01 X118.17459039055781 Y45.25667127547718
G01 X114.98641548561592 Y54.11087798131586
G01 X116.3079329415436 Y54.11087798131586
G01 X118.35630487379315 Y48.312689249897154
G01 X118.75276183888116 Y46.92508814377942
G01 X118.83538886964504 Y46.92508814377942
G01 X119.29792948492316 Y48.312689249897154
G01 X121.3627652954997 Y54.110846871741025
M3S0
(End cutting path*3.4566194262 id:*3.4566194262 path3787)


(Start cutting path*3.4566194262 id:*3.4566194262 path3785)
(Change tool to Default tool)

G00 X106.6241617697529 Y57.81111994467444
M3S255
G01 X107.94567922568055 Y57.81111994467444 F6400.000000
G01 X107.94567922568055 Y52.72324922224271
G01 X108.01172139643752 Y52.72324922224271
G02 X108.43982025575296 Y53.44919806427495 I2.694521258208555 J-1.0997753197369229
G02 X108.96982371237222 Y53.912620117506734 I1.5816315243686292 J-1.2740891807807628
G02 X109.64500864151128 Y54.19975803662174 I1.2904355340472626 J-2.09695817490423
G02 X110.50609747663025 Y54.30907708259474 I0.8610888351189606 J-3.3367162115439744
G02 X111.2797545799829 Y54.225582440354884 I0.0 J-3.6260732803306026
G02 X111.94325613546143 Y53.99521949531521 I-0.6302765295538818 J-2.8860421707560184
G02 X112.53468717590368 Y53.61651918421959 I-1.3264880746625287 J-2.7228240580702807
G02 X113.0335119252986 Y53.10319045971233 I-1.9923297614925823 J-2.4350708606974094
G02 X113.42478396124729 Y52.488475630815195 I-2.641797442100726 J-2.113411683372942
G02 X113.72731420666717 Y51.699073625976204 I-4.082481852746625 J-2.017231247838927
G02 X113.90748012439958 Y50.86319391633252 I-5.178575872794644 J-1.5535672312473114
G02 X113.97509851361491 Y49.848931904580354 I-7.573173176630678 J-1.0142620117521612
G02 X113.907483581019 Y48.83468026268647 I-7.640677497404938 J-0.0
G02 X113.72731420666717 Y47.99880055304279 I-5.358765986863024 J0.7176944348424799
G02 X113.42478396124729 Y47.20939163496494 I-4.384987901830518 J1.227808503283371
G02 X113.0335119252986 Y46.59468371930666 I-3.0329208434141086 J1.4986242654678623
G02 X112.53468717590368 Y46.081354994799405 I-2.4911579675069304 J1.9217386795707259
G02 X111.94325613546143 Y45.702654683703784 I-1.9179191151047748 J2.344123746974661
G02 X111.2797545799829 Y45.47228482542526 I-1.2937849982712504 J2.6556100933278213
G02 X110.50609747663025 Y45.388786726565975 I-0.7736571033526578 J3.542461113030251
G02 X109.04018665741194 Y45.81531973728135 I0.0 J2.73228482543979
G02 X108.01172139643752 Y46.97461458691801 I1.510490839958007 J2.375872796404308
G01 X107.94567922568055 Y46.97461458691801
G01 X107.94567922568055 Y45.58701693741969
G01 X106.6241617697529 Y45.58701693741969
G01 X106.6241617697529 Y57.81111994467444
M3S0
(End cutting path*3.4566194262 id:*3.4566194262 path3785)


(Start cutting path*3.4566194262 id:*3.4566194262 path3785)
(Change tool to Default tool)

G00 X110.14272035945098 Y46.57815762183
M3S255
G03 X111.1803836847185 Y46.77452125819357 I0.0 J0.821589 F6400.000000*3.4566194262
G03 X111.91025233318007 Y47.271959903198585 I-0.7258486000688856 J1.8491773245759353
G03 X112.3735361216348 Y48.052125820930776 I-1.6849706187343045 J1.5282163843755605
G03 X112.55449706183522 Y49.12210162459443 I-3.072758382301064 J1.0699758036636529
G01 X112.55449706183522 Y50.57577255442456
G03 X112.37228828202196 Y51.64403733147224 I-3.2226512270988006 J-0.0
G03 X111.91025233318007 Y52.40938817834375 I-2.0692015209118444 J-0.7270169374349412
G03 X111.17734531624288 Y52.91958866227029 I-1.4758797096434666 J-1.338593155893081
G03 X110.14272035945098 Y53.11970618733071 I-1.0346249567919055 J-2.574538541305727
G03 X109.7019668164162 Y53.086000691305834 I-0.0 J-2.898765986863861
G03 X109.28372277908485 Y52.987559626667085 I0.416436225371445 J-2.7069858278594325
G03 X108.90187348769197 Y52.842032492204645 I0.7131904597301413 J-2.4450846871751106
G03 X108.58992049771628 Y52.657175941910886 I0.8622398893878852 J-1.8106844106457725
G03 X108.32113031451554 Y52.41661942618335 I1.0119979260280003 J-1.4012478396123822
G03 X108.11087452467807 Y52.12856204630098 I1.2519253370199683 J-1.13453508468679
G03 X107.9880608364652 Y51.82023505010336 I1.1359177324572702 J-0.6310888351190388
G03 X107.94567922568055 Y51.484317317645825 I1.3100276529549644 J-0.3359177324575422
G01 X107.94567922568055 Y48.31265814032232
G03 X107.98986864842509 Y47.91011752504421 I1.8555547874172742 J-0.0
G03 X108.11087452467807 Y47.56930176285974 I1.444728655374552 J0.32106463878316077
G03 X108.31946422395211 Y47.278893881767544 I1.579861735222415 J0.9146318700307985
G03 X108.58992049771628 Y47.02417213963144 I1.4805046664357222 J1.3010300725885657
G03 X108.90187348769197 Y46.83931558933769 I1.1741168337362062 J1.6257241617692364
G03 X109.28372277908485 Y46.69379882473352 I1.0949291393013907 J2.299395091599633
G03 X109.70077428271416 Y46.60777393707368 I0.8255202212233627 J2.9481645350836847
G03 X110.14272035945098 Y46.57815762183 I0.441946076736801 J3.2828724507420572
G01 X110.14272035945098 Y46.57815762183
M3S0
(End cutting path*3.4566194262 id:*3.4566194262 path3785)


(Start cutting path*3.4566194262 id:*3.4566194262 path3783)
(Change tool to Default tool)

G00 X98.58918769440132 Y46.97461458691801
M3S255
G01 X98.52314552364435 Y46.97461458691801 F6400.000000
G02 X97.48282060141864 Y45.811870031094 I-2.583764258554255 J1.2649567922567424
G02 X96.02876944345162 Y45.388786726565975 I-1.4540511579670135 J2.2870998963006395
G02 X95.25511234009896 Y45.47228482542526 I0.0 J3.6259592118895383
G02 X94.59161078462044 Y45.702654683703784 I0.6302834427927342 J2.885979951606347
G02 X93.99792948493175 Y46.07972347043024 I1.3716626339435365 J2.815551330797522
G02 X93.48483581054546 Y46.59468371930666 I2.099706187348059 J2.6051883857578426
G02 X93.10330107152038 Y47.205945385397015 I2.883992395436282 J2.224818527479368
G02 X92.79103698579631 Y47.99880055304279 I4.566940891806259 J2.256612512961556
G02 X92.62298997577217 Y48.833439336312466 I5.520335292082464 J1.5456895955750016
G02 X92.55976840646697 Y49.848931904580354 I8.12390252332942 J1.0154925682678884
G02 X92.62298997577217 Y50.8644313860871 I8.187245074314534 J-0.0
G02 X92.79103698579631 Y51.699073625976204 I5.688354649151194 J-0.711043899066471
G02 X93.10330107152038 Y52.49191842376369 I4.879249913582855 J-1.4637849982711926
G02 X93.48483581054546 Y53.10319045971233 I3.2656999654326957 J-1.6136432768746674
G02 X93.99792948493175 Y53.61815070858875 I2.6127998617343344 J-2.0902281368814184
G02 X94.59161078462044 Y53.99521949531521 I1.9653473902516652 J-2.4384825440710687
G02 X95.25511234009896 Y54.225582440354884 I1.293778085032398 J-2.6556757690969195
G02 X96.02876944345162 Y54.30907708259474 I0.7736571033526578 J-3.5425751814713156
G02 X96.88887314203411 Y54.19873487727158 I-0.0 J-3.407397165570912
G02 X97.54852402347184 Y53.912620117506734 I-0.5913619080537222 J-2.2668890425156483
G02 X98.09272035945507 Y53.44621500171014 I-1.0411925337016854 J-1.7655375043201738
G02 X98.52314552364435 Y52.72324922224271 I-2.184946422398151 J-1.7904355340470928
G01 X98.58918769440132 Y52.72324922224271
G01 X98.58918769440132 Y57.81111994467444
G01 X99.91070515032898 Y57.81111994467444
G01 X99.91070515032898 Y45.58701693741969
G01 X98.58918769440132 Y45.58701693741969
G01 X98.58918769440132 Y46.97461458691801
M3S0
(End cutting path*3.4566194262 id:*3.4566194262 path3783)


(Start cutting path*3.4566194262 id:*3.4566194262 path3783)
(Change tool to Default tool)

G00 X96.39215001725033 Y46.57815762183
M3S255
G03 X96.83385413062729 Y46.608330452801304 I0.0 J0.939681 F6400.000000*3.4566194262
G03 X97.23462150013977 Y46.69379882473352 I-0.378396128586114 J2.756740407880155
G03 X97.63243346004285 Y46.840895264415465 I-0.7051745592807834 J2.5185620463178444
G03 X97.94494642236559 Y47.02417213963144 I-0.8047874179050151 J1.7303352920837531
G03 X98.21239543722896 Y47.280473556845315 I-1.1052333218108927 J1.4209920497748365
G03 X98.40747666778542 Y47.56930176285974 I-1.2152056688554458 J1.031075008641198
G03 X98.540936743831 Y47.912080884878286 I-1.2285896992736922 J0.6757310750084118
G03 X98.58918769440132 Y48.31265814032232 I-1.6387072243340437 J0.4005807120634656
G01 X98.58918769440132 Y51.484317317645825
G03 X98.54300034562843 Y51.818223297597314 I-1.2300103698578604 J-0.0
G03 X98.40747666778542 Y52.12856204630098 I-1.19478050466603 J-0.3369961977185166
G03 X98.21077082609865 Y52.415070860680416 I-1.315260974766231 J-0.6922156930519596
G03 X97.94494642236559 Y52.657175941910886 I-1.1972485309363368 J-1.047580366401303
G03 X97.63243346004285 Y52.8404562737463 I-1.117369512616281 J-1.547148288972858
G03 X97.23462150013977 Y52.987559626667085 I-1.1030902177666488 J-2.3716280677489348
G03 X96.83259246453673 Y53.08537158657027 I-0.788368475630565 J-2.36521949533276
G03 X96.39215001725033 Y53.11970618733071 I-0.440442447286404 J-2.8079640511570125
G03 X95.35751814721957 Y52.91958866227029 I-0.0 J-2.774680262702133
G03 X94.62461113028239 Y52.40938817834375 I0.7429692360868542 J-1.848790183200201
G03 X94.16257518144052 Y51.64403733147224 I1.6071655720699687 J-1.4923677843064405
G03 X93.98036985824666 Y50.57577255442456 I3.0404424472855203 J-1.0682647770476839
G01 X93.98036985824666 Y49.12210162459443
G03 X94.16133079844708 Y48.052125820930776 I3.2537193225014867 J-0.0
G03 X94.62461113028239 Y47.271959903198585 I2.148254407189038 J0.7480504666433682
G03 X95.35448323536336 Y46.77452125819357 I1.4557137919110157 J1.3517352229514934
G03 X96.39215001725033 Y46.57815762183 I1.0376702385063876 J2.643584514344072
G01 X96.39215001725033 Y46.57815762183
M3S0
(End cutting path*3.4566194262 id:*3.4566194262 path3783)


(Start cutting path*3.4566194262 id:*3.4566194262 path3781)
(Change tool to Default tool)

G00 X87.27647079153617 Y45.388786726565975
M3S255
G02 X86.41870722430522 Y45.47285516763058 I-0.0 J1.278110 F6400.000000*3.4566194262
G02 X85.69063947456472 Y45.702654683703784 I0.6730798479085164 J3.4007500864143294
G02 X85.04493259589228 Y46.08173522293629 I1.4579986173517339 J3.222976149324863
G02 X84.48474939506288 Y46.59468371930666 I2.16480815762111 J2.9264984445202633
G02 X84.05322156927664 Y47.22555824402128 I3.100978223296561 J2.584151399929989
G02 X83.70835464912466 Y47.99880055304279 I4.334372623572671 J2.396660905633475
G02 X83.51603871410919 Y48.835993778068435 I4.881234013133494 J1.5619875561695347
G02 X83.44405115793914 Y49.848931904580354 I7.090559972344635 J1.0129381265119266
G02 X83.51550293809811 Y50.84544763219841 I6.984783961283488 J-0.0
G02 X83.70835464912466 Y51.68254752849954 I5.111012789490139 J-0.7367231247837108
G02 X84.05664707912801 Y52.47003802279585 I4.602585551329234 J-1.5648738333904118
G02 X84.48474939506288 Y53.08667473209395 I3.2333460076034632 J-1.7878430694774425
G02 X85.04740753540143 Y53.61377808501461 I2.732723816106917 J-2.353176633251879
G02 X85.69063947456472 Y53.99521949531521 I2.0416626339433086 J-2.709851365363752
G02 X86.41870722430522 Y54.225012098149556 I1.401137227790744 J-3.171033529207356
G02 X87.27647079153617 Y54.30907708259474 I0.8577635672309563 J-4.3340096785329205
G02 X88.11673349461228 Y54.224120290337595 I-0.0 J-4.197867265812606
G02 X88.81274455579421 Y53.99521949531521 I-0.6324127203592734 J-3.0955236778420168
G02 X89.4415174558977 Y53.61745592808409 I-1.4432215693047288 J-3.1143518838565285
G02 X89.96907708258261 Y53.11970618733071 I-2.0258347735907387 J-2.6756204631860934
G02 X90.38086069820639 Y52.536232284807575 I-2.525675769096964 J-2.219529899757282
G02 X90.6959142758074 Y51.81470445902144 I-3.5701797442089487 J-1.9884583477352382
G02 X90.88964051154878 Y51.04290356030066 I-4.236716211543668 J-1.4736501901135675
G02 X90.96022122361235 Y50.146273764241506 I-5.659975803662093 J-0.8966297960591489
G01 X90.96022122361235 Y49.518558589682435
G01 X84.83165226405688 Y49.518558589682435
G01 X84.83165226405688 Y49.12210162459443
G03 X84.87475285168216 Y48.58419287934747 I3.3781368821281292 J-0.0
G03 X84.99684064981555 Y48.097915658469645 I2.878893881782637 J0.4643346007602984
G03 X85.21563083301632 Y47.65836847561463 I2.614103007258012 J1.026978914621151
G03 X85.49241272033042 Y47.28848600067525 I2.1206049083988643 J1.2983339094361297
G03 X85.85124438296424 Y46.98252333216515 I1.6486657449009259 J1.5701590044930716
G03 X86.28532665050643 Y46.74335637744695 I1.4247217421357063 J2.0723228482537026
G03 X86.77500518489964 Y46.59858969925826 I0.9323954372620403 J2.2532907016929777
G03 X87.35906671272522 Y46.545126166593235 I0.5840615278255878 J3.1636674732101238
G03 X88.13824403730153 Y46.648683027982756 I0.0 J2.9831731766322385
G03 X88.76318700308077 Y46.925060490824 I-0.5888662288280059 J2.176284134116094
G03 X89.29250259243422 Y47.37754925681072 I-1.2208987210503972 J1.9640407881085613
G03 X89.70477359139709 Y48.015316280661175 I-2.0815139993079685 J1.7976702385061294
G01 X90.64635672309397 Y47.33804355338867
G02 X90.1257587279334 Y46.55832353956246 I-2.876059453853153 J1.3566263394395663
G02 X89.35787072240308 Y45.91740062217588 I-2.68092637400531 J2.4315312824049804
G02 X88.44179744207156 Y45.534452125805466 I-1.7490356031794951 J2.89681991012691
G02 X87.27647079153617 Y45.388786726565975 I-1.1653266505353799 J4.588447977876076
G01 X87.27647079153617 Y45.388786726565975
M3S0
(End cutting path*3.4566194262 id:*3.4566194262 path3781)


(Start cutting path*3.4566194262 id:*3.4566194262 path3781)
(Change tool to Default tool)

G00 X87.27647079153617 Y53.20230210851976
M3S255
G03 X86.74256135496532 Y53.14943657101546 I0.0 J-0.787595 F6400.000000*3.4566194262
G03 X86.28532665050643 Y53.00407535428547 I0.4269581749047978 J-2.134794331143415
G03 X85.86802281365902 Y52.78024541996132 I0.848824749394803 J-2.0834462495672144
G03 X85.50893190456823 Y52.475461458675554 I1.2525613549943893 J-1.8396889042510163
G03 X85.23407535427452 Y52.10470100240192 I1.7577048047004047 J-1.5903076391283912
G03 X85.01335983405336 Y51.649516073262774 I2.441908053922433 J-1.4651538195639677
G03 X84.88027652952523 Y51.177767023833276 I2.2993708952636496 J-0.9033114414099936
G03 X84.83165226405688 Y50.62533010713799 I3.1137331489792386 J-0.5524369166952839
G01 X84.83165226405688 Y50.509699274092746
G01 X89.53958174901899 Y50.509699274092746
G01 X89.53958174901899 Y50.691403387469805
G03 X89.36006913235815 Y51.76082267540584 I-3.2752022122353193 J-0.0
G03 X88.91185620460165 Y52.5085032837706 I-2.000604908398905 J-0.691116488074428
G03 X88.21448323536579 Y53.011558935343196 I-1.4543242309016833 J-1.2811890770821774
G03 X87.27647079153617 Y53.20230210851976 I-0.9380124438296155 J-2.2110335292076826
G01 X87.27647079153617 Y53.20230210851976
M3S0
(End cutting path*3.4566194262 id:*3.4566194262 path3781)


(Start cutting path*3.4566194262 id:*3.4566194262 path3779)
(Change tool to Default tool)

G00 X78.10297269267997 Y45.58701693741969
M3S255
G01 X78.10297269267997 Y54.110846871741025 F6400.000000
G01 X79.4245005184659 Y54.110846871741025
G01 X79.4245005184659 Y52.54154510886565
G01 X79.50709643965496 Y52.54154510886565
G02 X79.81449360522693 Y53.097563083286474 I2.0804493605246988 J-0.7872035948839357
G02 X80.33305219492603 Y53.631800898702814 I2.4348288973375753 J-1.844569650880811
G02 X80.97784998268936 Y53.96874870374936 I1.168358105772157 J-1.45039751123352
G02 X81.96843760799149 Y54.110846871741025 I0.9905876253021175 J-3.3817006567565415
G01 X82.48052886274417 Y54.110846871741025
G01 X82.48052886274417 Y52.78932941581337
G01 X81.70413411680596 Y52.78932941581337
G03 X80.66867957135176 Y52.664286208070585 I-0.0 J-4.349630141719918
G03 X80.01918769440763 Y52.3763463532487 I0.4804562737640952 J-1.9602315935008892
G03 X79.57012789489171 Y51.901956446577586 I0.8126927065327344 J-1.2190356031796754
G03 X79.42450397508534 Y51.368689941220005 I0.9035879709640895 J-0.5332665053575788
G01 X79.42450397508534 Y45.58701693741969
G01 X78.10297269267997 Y45.58701693741969
M3S0
(End cutting path*3.4566194262 id:*3.4566194262 path3779)


(Start cutting path*3.4566194262 id:*3.4566194262 path3777)
(Change tool to Default tool)

G00 X72.24154856547838 Y45.388786726565975
M3S255
G02 X71.38378499824742 Y45.47285516763058 I-0.0 J1.278110 F6400.000000*3.4566194262
G02 X70.65572070512634 Y45.702654683703784 I0.6730798479085164 J3.4007500864143294
G02 X70.01001036983448 Y46.08173522293629 I1.4579986173517339 J3.222976149324863
G02 X69.44982716900508 Y46.59468371930666 I2.16480815762111 J2.9264984445202633
G02 X69.01829934321884 Y47.22555824402128 I3.100978223296561 J2.584151399929989
G02 X68.67343242306687 Y47.99880055304279 I4.334372623572671 J2.396660905633475
G02 X68.48111648805138 Y48.835993778068435 I4.881234013133494 J1.5619875561695347
G02 X68.40912893188134 Y49.848931904580354 I7.090559972344635 J1.0129381265119266
G02 X68.48058071204032 Y50.84544763219841 I6.984783961283488 J-0.0
G02 X68.67343242306687 Y51.68254752849954 I5.111012789490139 J-0.7367231247837108
G02 X69.02172485307021 Y52.47003802279585 I4.602585551329234 J-1.5648738333904118
G02 X69.44982716900508 Y53.08667473209395 I3.2333460076034632 J-1.7878430694774425
G02 X70.01248530934365 Y53.61377808501461 I2.732723816106917 J-2.353176633251879
G02 X70.65572070512634 Y53.99521949531521 I2.0416626339433086 J-2.709851365363752
G02 X71.38378499824742 Y54.225012098149556 I1.401137227790744 J-3.171033529207356
G02 X72.24154856547838 Y54.30907708259474 I0.8577635672309563 J-4.3340096785329205
G02 X73.08181126855449 Y54.224120290337595 I0.0 J-4.197867265812606
G02 X73.77782232973641 Y53.99521949531521 I-0.6324127203592734 J-3.0955236778420168
G02 X74.4065952298399 Y53.61745592808409 I-1.4432215693047288 J-3.1143518838565285
G02 X74.93415485652481 Y53.11970618733071 I-2.0258347735907387 J-2.6756204631860934
G02 X75.3459384721486 Y52.536232284807575 I-2.525675769096964 J-2.219529899757282
G02 X75.6609920497496 Y51.81470445902144 I-3.5701797442089487 J-1.9884583477352382
G02 X75.85471828549097 Y51.04290356030066 I-4.236716211543668 J-1.4736501901135675
G02 X75.92529899755455 Y50.146273764241506 I-5.659975803662093 J-0.8966297960591489
G01 X75.92529899755455 Y49.518558589682435
G01 X69.79673003799908 Y49.518558589682435
G01 X69.79673003799908 Y49.12210162459443
G03 X69.83983062562437 Y48.58419287934747 I3.3781368821281292 J-0.0
G03 X69.96191842375775 Y48.097915658469645 I2.878893881782637 J0.4643346007602984
G03 X70.1807086069585 Y47.65836847561463 I2.614103007258012 J1.026978914621151
G03 X70.45749049427262 Y47.28848600067525 I2.1206049083988643 J1.2983339094361297
G03 X70.81632215690645 Y46.98252333216515 I1.6486657449009259 J1.5701590044930716
G03 X71.25040442444865 Y46.74335637744695 I1.4247217421357063 J2.0723228482537026
G03 X71.74008295884184 Y46.59858969925826 I0.9323954372620403 J2.2532907016929777
G03 X72.32414448666742 Y46.545126166593235 I0.5840615278255878 J3.1636674732101238
G03 X73.10332181124372 Y46.648683027982756 I0.0 J2.9831731766322385
G03 X73.72826477702299 Y46.925060490824 I-0.5888662288280059 J2.176284134116094
G03 X74.2575803663764 Y47.37754925681072 I-1.2208987210503972 J1.9640407881085613
G03 X74.66985136533928 Y48.015316280661175 I-2.0815139993079685 J1.7976702385061294
G01 X75.61143449703617 Y47.33804355338867
G02 X75.09083650187561 Y46.55832353956246 I-2.876059453853153 J1.3566263394395663
G02 X74.32294849634529 Y45.91740062217588 I-2.68092637400531 J2.4315312824049804
G02 X73.40687521601376 Y45.534452125805466 I-1.7490356031794951 J2.89681991012691
G02 X72.24154856547838 Y45.388786726565975 I-1.1653266505353799 J4.588447977876076
G01 X72.24154856547838 Y45.388786726565975
M3S0
(End cutting path*3.4566194262 id:*3.4566194262 path3777)


(Start cutting path*3.4566194262 id:*3.4566194262 path3777)
(Change tool to Default tool)

G00 X72.24154856547838 Y53.20230210851976
M3S255
G03 X71.70763912890753 Y53.14943657101546 I-0.0 J-0.787595 F6400.000000*3.4566194262
G03 X71.25040442444865 Y53.00407535428547 I0.4269581749047978 J-2.134794331143415
G03 X70.83310058760122 Y52.78024541996132 I0.848824749394803 J-2.0834462495672144
G03 X70.47400967851044 Y52.475461458675554 I1.2525613549943893 J-1.8396889042510163
G03 X70.19915312821671 Y52.10470100240192 I1.7577048047004047 J-1.5903076391283912
G03 X69.97843760799557 Y51.649516073262774 I2.441908053922433 J-1.4651538195639677
G03 X69.84535430346745 Y51.177767023833276 I2.2993708952636496 J-0.9033114414099936
G03 X69.79673003799908 Y50.62533010713799 I3.1137331489792386 J-0.5524369166952839
G01 X69.79673003799908 Y50.509699274092746
G01 X74.50465952296119 Y50.509699274092746
G01 X74.50465952296119 Y50.691403387469805
G03 X74.32514690630035 Y51.76082267540584 I-3.2752022122353193 J-0.0
G03 X73.87693397854385 Y52.5085032837706 I-2.000604908398905 J-0.691116488074428
G03 X73.17956100930799 Y53.011558935343196 I-1.4543242309016833 J-1.2811890770821774
G03 X72.24154856547838 Y53.20230210851976 I-0.9380124438296155 J-2.2110335292076826
G01 X72.24154856547838 Y53.20230210851976
M3S0
(End cutting path*3.4566194262 id:*3.4566194262 path3777)


(Start cutting path*3.4566194262 id:*3.4566194262 path3775)
(Change tool to Default tool)

G00 X55.56194607671806 Y54.110846871741025
M3S255
G01 X56.85043553402837 Y54.110846871741025 F6400.000000
G01 X57.75898375386906 Y50.4271033529037
G01 X58.66753197370974 Y46.69379882473352
G01 X58.70057034218536 Y46.69379882473352
G01 X59.74127203592853 Y50.4271033529037
G01 X60.815012098147314 Y54.110846871741025
G01 X61.98786380917353 Y54.110846871741025
G01 X63.094638783248506 Y50.4271033529037
G01 X64.15185966122948 Y46.69379882473352
G01 X64.18490148632452 Y46.69379882473352
G01 X65.0604113376896 Y50.4271033529037
G01 X65.98547874176809 Y54.110846871741025
G01 X67.22440718974555 Y54.110846871741025
G01 X64.96129623226274 Y45.58701693741969
G01 X63.325910819197276 Y45.58701693741969
G01 X62.13653992393325 Y49.683743518821686
G01 X61.393180089851235 Y52.27723470444126
G01 X61.36014172137561 Y52.27723470444126
G01 X60.633301071531406 Y49.683743518821686
G01 X59.44393017626738 Y45.58701693741969
G01 X57.84157967505811 Y45.58701693741969
G01 X55.56194607671806 Y54.110846871741025
M3S0
(End cutting path*3.4566194262 id:*3.4566194262 path3775)


(Start cutting path*3.4566194262 id:*3.4566194262 path3773)
(Change tool to Default tool)

G00 X50.51227791218469 Y45.388786726565975
M3S255
G02 X49.670874524697936 Y45.4721050812151 I0.0 J1.241168 F6400.000000*3.4566194262
G02 X48.94296923607047 Y45.702654683703784 I0.6861666090561096 J3.430760456272598
G02 X48.28193916348168 Y46.08397511232446 I1.4417110266154793 J3.26284825440608
G02 X47.72055997233082 Y46.59468371930666 I2.079657794676099 J2.8498997580356713
G02 X47.28902868992516 Y47.22555824402128 I3.100978223296561 J2.584151399929989
G02 X46.94416176977319 Y47.99880055304279 I4.334372623572671 J2.396660905633475
G02 X46.73967162113862 Y48.837379882458336 I4.620390597993589 J1.5709263740056878
G02 X46.663339094349844 Y49.848931904580354 I6.664331144138765 J1.0115520221220204
G02 X46.7391012789333 Y50.84407189766678 I6.5734427929462615 J0.0
G02 X46.94416176977319 Y51.68254752849954 I4.8605668855842445 J-0.7444106463875796
G02 X47.29245419977652 Y52.47003802279585 I4.602585551329234 J-1.5648738333904118
G02 X47.72055997233082 Y53.08667473209395 I3.2333460076034632 J-1.7878430694774425
G02 X48.2844486691851 Y53.611489802954466 I2.6499723470436893 J-2.281918423780766
G02 X48.94296923607047 Y53.99521949531521 I2.042094711371584 J-2.7475527134453155
G02 X49.670874524697936 Y54.22576218456504 I1.4140649844447317 J-3.2002903560307128
G02 X50.51227791218469 Y54.30907708259474 I0.8414033874867516 J-4.207065330105725
G02 X51.35312478394383 Y54.22494987899988 I0.0 J-4.244151399929424
G02 X52.065070860680535 Y53.99521949531521 I-0.658969927410768 J-3.2602073971644634
G02 X52.72358797094647 Y53.611489802954466 I-1.3835741444862217 J-3.131282405806056
G02 X53.28748012442018 Y53.08667473209395 I-2.0860767369505524 J-2.8067334946412856
G02 X53.72900449358699 Y52.46750777737587 I-2.705551330797559 J-2.39632907016856
G02 X54.0803940545962 Y51.68254752849954 I-4.024991358450066 J-2.2729277566532198
G02 X54.28545800205552 Y50.84407189766678 I-4.65550293812493 J-1.5828862772203398
G02 X54.36122018663897 Y49.848931904580354 I-6.49768060836281 J-0.9951399930864228
G02 X54.28488765985019 Y48.837379882458336 I-6.740663670927539 J-0.0
G02 X54.0803940545962 Y47.99880055304279 I-4.824880746628155 J0.7323505012095678
G02 X53.732468026252036 Y47.228005530575025 I-4.4417767023835575 J1.5410335292079103
G02 X53.28748012442018 Y46.59468371930666 I-3.429471137226625 J1.9366470791559265
G02 X52.72609747664989 Y46.08397511232446 I-2.641033529207536 J2.3391876944340475
G02 X52.065070860680535 Y45.702654683703784 I-2.1027376425848368 J2.8815312824048274
G02 X51.35312478394383 Y45.47291738678025 I-1.3709229173863298 J3.030397511232983
G02 X50.51227791218469 Y45.388786726565975 I-0.8408468717591334 J4.159885931557521
G01 X50.51227791218469 Y45.388786726565975
M3S0
(End cutting path*3.4566194262 id:*3.4566194262 path3773)


(Start cutting path*3.4566194262 id:*3.4566194262 path3773)
(Change tool to Default tool)

G00 X50.51227791218469 Y46.56164189421162
M3S255
G03 X51.51181472518124 Y46.743957829227114 I0.0 J0.819037 F6400.000000*3.4566194262
G03 X52.263297614914826 Y47.222402350485154 I-0.7684376080190959 J2.03636709298237
G03 X52.73334255096721 Y47.970515036278194 I-1.3152022122359857 J1.3480712063597213
G03 X52.9405807120456 Y49.23772900102024 I-3.7707466297947776 J1.267217421361477
G01 X52.9405807120456 Y50.46014517799875
G03 X52.733339094347784 Y51.727359142740795 I-3.977964051156615 J0.0
G03 X52.263297614914826 Y52.475461458675554 I-1.785209125474678 J-0.599948150708403
G03 X51.51181472518124 Y52.95391289317245 I-1.5199308676109593 J-1.5579122018660447
G03 X50.51227791218469 Y53.13623228480738 I-0.999533356377123 J-2.6487417905279624
G03 X49.51274455580757 Y52.95391289317245 I-0.0 J-2.831057725543455
G03 X48.76125820945456 Y52.475461458675554 I0.7684479778773744 J-2.036363636362944
G03 X48.2912167300216 Y51.727359142740795 I1.3151676460417236 J-1.3480539232625905
G03 X48.08397856894321 Y50.46014517799875 I3.770722433458794 J-1.267213964742051
G01 X48.08397856894321 Y49.23772900102024
G03 X48.2912167300216 Y47.970515036278194 I3.977984790873172 J0.0
G03 X48.76125820945456 Y47.222402350485154 I1.7852471482883665 J0.5999585205666816
G03 X49.51274109918814 Y46.743957829227114 I1.5199204977526808 J1.5579225717243235
G03 X50.51227791218469 Y46.56164189421162 I0.9995368129965492 J2.6487832699610765
G01 X50.51227791218469 Y46.56164189421162
M3S0
(End cutting path*3.4566194262 id:*3.4566194262 path3773)


(Start cutting path*3.4566194262 id:*3.4566194262 path3771)
(Change tool to Default tool)

G00 X37.70872105079949 Y54.110846871741025
M3S255
G01 X39.030245419965986 Y54.110846871741025 F6400.000000
G01 X39.030245419965986 Y52.72324922224271
G01 X39.09631870029781 Y52.72324922224271
G02 X39.52442101623267 Y53.44919806427495 I2.6945765641193744 J-1.0998202557894636
G02 X40.05442447285192 Y53.912620117506734 I1.581645350846334 J-1.2741030072584676
G02 X40.72960594537157 Y54.19975803662174 I1.2904355340472626 J-2.09695817490423
G02 X41.59069478049052 Y54.30907708259474 I0.8610888351189606 J-3.3367162115439744
G02 X42.364351883843185 Y54.225582440354884 I-0.0 J-3.6260732803306026
G02 X43.0278534393217 Y53.99521949531521 I-0.6302765295538818 J-2.8860421707560184
G02 X43.61928447976395 Y53.61651918421959 I-1.3264880746625287 J-2.7228240580702807
G02 X44.11810922915887 Y53.10319045971233 I-1.9923297614925823 J-2.4350708606974094
G02 X44.509384721727 Y52.48847217419578 I-2.6417455928093334 J-2.1133874870369587
G02 X44.81191151052745 Y51.699073625976204 I-4.082378154163838 J-2.017179398547534
G02 X44.99208088487928 Y50.86319391633252 I-5.178575872794644 J-1.5535672312473114
G02 X45.05969581747517 Y49.848931904580354 I-7.573173176630678 J-1.0142620117521612
G02 X44.99208088487928 Y48.83468026268647 I-7.640677497404938 J-0.0
G02 X44.81191151052745 Y47.99880055304279 I-5.358765986863024 J0.7176944348424799
G02 X44.509384721727 Y47.20939163496494 I-4.384880746628305 J1.2277601106114042
G02 X44.11810922915887 Y46.59468371930666 I-3.032872450742142 J1.498600069131879
G02 X43.61928447976395 Y46.081354994799405 I-2.4911579675069304 J1.9217386795707259
G02 X43.0278534393217 Y45.702654683703784 I-1.9179191151047748 J2.344123746974661
G02 X42.364351883843185 Y45.47228482542526 I-1.2937849982712504 J2.6556100933278213
G02 X41.59069478049052 Y45.388786726565975 I-0.7736571033526578 J3.542461113030251
G02 X40.12478396127222 Y45.81531973728135 I0.0 J2.7322882820592165
G02 X39.09631870029781 Y46.97461458691801 I1.5104942965774333 J2.3758797096431605
G01 X39.030245419965986 Y46.97461458691801
G01 X39.030245419965986 Y42.283211199432564
G01 X37.70872105079949 Y42.283211199432564
G01 X37.70872105079949 Y54.110846871741025
M3S0
(End cutting path*3.4566194262 id:*3.4566194262 path3771)


(Start cutting path*3.4566194262 id:*3.4566194262 path3771)
(Change tool to Default tool)

G00 X41.227279640497564 Y46.57815762183
M3S255
G03 X42.264946422384526 Y46.77452125819357 I0.0 J0.821597 F6400.000000*3.4566194262
G03 X42.99481852746551 Y47.271959903198585 I-0.7258451434494594 J1.8491738679565095
G03 X43.45809885930082 Y48.052125820930776 I-1.6849706187343045 J1.5282163843755605
G03 X43.639063256120664 Y49.12210162459443 I-3.072758382301064 J1.0699758036636529
G01 X43.639063256120664 Y50.57577255442456
G03 X43.456854476307385 Y51.64403733147224 I-3.2226512270988006 J0.0
G03 X42.99481852746551 Y52.40938817834375 I-2.0692015209118444 J-0.7270169374349412
G03 X42.26191151052832 Y52.91958866227029 I-1.4758762530240401 J-1.3385896992736548
G03 X41.227279640497564 Y53.11970618733071 I-1.0346318700307577 J-2.57456273764171
G03 X40.786526097462804 Y53.086000691305834 I-0.0 J-2.898741790527877
G03 X40.36828897337031 Y52.987559626667085 I0.41642239889374016 J-2.7068786726572203
G03 X39.98643968197742 Y52.842032492204645 I0.7131904597301413 J-2.4450846871751106
G03 X39.67448669200172 Y52.657175941910886 I0.8622398893878852 J-1.8106844106457725
G03 X39.405693052181554 Y52.41661942618335 I1.0120324922222623 J-1.401296232284349
G03 X39.19543380572466 Y52.12856204630098 I1.2519840995502138 J-1.1346042170753143
G03 X39.07262703075063 Y51.82023505010336 I1.1359522986515322 J-0.6310853784996127
G03 X39.030245419965986 Y51.484317317645825 I1.3100829588657834 J-0.3359177324575422
G01 X39.030245419965986 Y48.31265814032232
G03 X39.074431386091106 Y47.91011752504421 I1.855630833044651 J-0.0
G03 X39.19543380572466 Y47.56930176285974 I1.4447666781882402 J0.32105772554430845
G03 X39.404030418237554 Y47.278893881767544 I1.5799377808497912 J0.9147113722776011
G03 X39.67448669200172 Y47.02417213963144 I1.4805530591076888 J1.3010922917382373
G03 X39.98643968197742 Y46.83931558933769 I1.1741168337362062 J1.6257241617692364
G03 X40.36828897337031 Y46.69379882473352 I1.0949291393013907 J2.299395091599633
G03 X40.78533356376076 Y46.60777393707368 I0.8254994815068054 J2.948047010023194
G03 X41.227279640497564 Y46.57815762183 I0.441946076736801 J3.2828447977866473
G01 X41.227279640497564 Y46.57815762183
M3S0
(End cutting path*3.4566194262 id:*3.4566194262 path3771)


(Start cutting path*3.4566194262 id:*3.4566194262 path3769)
(Change tool to Default tool)

G00 X153.77767023845445 Y66.23583823018834
M3S255
G01 X153.77767023845445 Y74.7596716211291 F6400.000000
G01 X155.0991980642404 Y74.7596716211291
G01 X155.0991980642404 Y73.19035948839544
G01 X155.18182509500426 Y73.19035948839544
G02 X155.48922226057624 Y73.74638437605512 I2.080397511233306 J-0.7871482889731164
G02 X156.0077739370365 Y74.2806152782326 I2.434673349463396 J-1.8444348427231891
G02 X156.65257518141925 Y74.61756999651801 I1.1683684756304358 J-1.4503767715169629
G02 X157.64315935010197 Y74.7596716211291 I0.9905841686826912 J-3.381628067748591
G01 X158.1552575180935 Y74.7596716211291
G01 X158.1552575180935 Y73.43814379534317
G01 X157.3788558589164 Y73.43814379534317
G03 X156.3434013134622 Y73.31310058760037 I-0.0 J-4.349744210160982
G03 X155.6939128931375 Y73.02517110263678 I0.48044590390581665 J-1.9602315935008892
G03 X155.24484963700218 Y72.55077773934623 I0.8126927065327344 J-1.2190356031796754
G03 X155.09922917381522 Y72.01751123398864 I0.9035879709640895 J-0.5332665053575788
G01 X155.09922917381522 Y66.23583823018834
G01 X153.77767023845445 Y66.23583823018834
M3S0
(End cutting path*3.4566194262 id:*3.4566194262 path3769)


(Start cutting path*3.4566194262 id:*3.4566194262 path3767)
(Change tool to Default tool)

G00 X147.91624611125286 Y66.03761147595404
M3S255
G02 X147.05847908740247 Y66.12167646039923 I0.0 J1.278156 F6400.000000*3.4566194262
G02 X146.33041825090083 Y66.35146906323358 I0.6730625648113854 J3.400777739369739
G02 X145.68470791560895 Y66.73055305908551 I1.458119599031651 J3.223142067057321
G02 X145.12453162801842 Y67.24349809883645 I2.1648565502930768 J2.9265572070505086
G02 X144.69300034561275 Y67.87437262355107 I3.1009574835800033 J2.5841306602134315
G02 X144.34812996884136 Y68.64762530243085 I4.3344486692000475 J2.3966954718277367
G02 X144.1558174904453 Y69.48480815759822 I4.881123401311856 J1.5619529899752727
G02 X144.08382993427526 Y70.49775665396842 I7.090708606979961 J1.0129484963702051
G02 X144.15528171443424 Y71.4942620117282 I6.9847943311417655 J0.0
G02 X144.34812996884136 Y72.33137227788761 I5.111223643275138 J-0.736743864500268
G02 X144.6964258554641 Y73.11885931556449 I4.6025475285155455 J-1.5648772900098378
G02 X145.12453162801842 Y73.73548565500433 I3.2332423090206777 J-1.7878050466637545
G02 X145.68718285511812 Y74.2625924645444 I2.7327722087788846 J-2.3532042862072884
G02 X146.33041825090083 Y74.64404078808386 I2.0417421361901114 J-2.709920497752276
G02 X147.05847908740247 Y74.87383339091821 I1.4011234013130391 J-3.170985136535389
G02 X147.91624611125286 Y74.95790183198281 I0.8577670238503825 J-4.334030418249477
G02 X148.75650881432895 Y74.87294503972566 I-0.0 J-4.197849982715475
G02 X149.4525198755109 Y74.64404078808386 I-0.6324196335981258 J-3.0955686138945575
G02 X150.08129623223383 Y74.26627030761388 I-1.4433252678875148 J-3.114493605253003
G02 X150.60884894567988 Y73.76852748009937 I-2.025838230210165 J-2.675617006566667
G02 X151.02063947454252 Y73.18505357757623 I-2.5256550293804065 J-2.219529899757282
G02 X151.3356930521435 Y72.46352575179009 I-3.570131351536982 J-1.9884410646381072
G02 X151.52941583126545 Y71.69171793983045 I-4.236923608709241 J-1.4736812996884032
G02 X151.59999308670962 Y70.79509851362958 I-5.6599999999980755 J-0.8966194262008704
G01 X151.59999308670962 Y70.16736951259281
G01 X145.47143104039299 Y70.16736951259281
G01 X145.47143104039299 Y69.77091254750479
G03 X145.5145316280183 Y69.23300725887725 I3.3781645350835388 J-0.0
G03 X145.63661942615167 Y68.74674040785773 I2.8788005530581295 J0.4643173176631674
G03 X145.85540960935242 Y68.30718285514443 I2.61421361907965 J1.0270169374348392
G03 X146.13218804004708 Y67.93729692358562 I2.1205945385405855 J1.2983131697195724
G03 X146.49102315930034 Y67.63133771169495 I1.6487003110951877 J1.5702073971650383
G03 X146.92510542684255 Y67.39217075697674 I1.424732111993985 J2.0723366747314076
G03 X147.41478396123574 Y67.24740407878807 I0.9324023505008927 J2.253321811267813
G03 X147.99884548906132 Y67.19394054612302 I0.5840615278255878 J3.1636778430684025
G03 X148.7780193570182 Y67.29749740751255 I-0.0 J2.983079847907731
G03 X149.40296232279746 Y67.57388178359264 I-0.5888765986862845 J2.1762599377801104
G03 X149.93227791215088 Y68.02637054957937 I-1.2209125475281022 J1.9640477013474138
G03 X150.34454891111378 Y68.66414103004925 I-2.0815520221216564 J1.7977048047003912
G01 X151.2861354994301 Y67.98685447629904
G02 X150.76554096088893 Y67.20714828895053 I-2.8760110611811864 J1.3566090563424356
G02 X149.99764949873918 Y66.56622191494453 I-2.680940200483015 J2.4315623919798166
G02 X149.0815693051688 Y66.18327687519354 I-1.7490494296572001 J2.896854476321172
G02 X147.91624611125286 Y66.03761147595404 I-1.1653231939159536 J4.588430694778945
G01 X147.91624611125286 Y66.03761147595404
M3S0
(End cutting path*3.4566194262 id:*3.4566194262 path3767)


(Start cutting path*3.4566194262 id:*3.4566194262 path3767)
(Change tool to Default tool)

G00 X147.91624611125286 Y73.85112685790784
M3S255
G03 X147.382336674682 Y73.79826132040354 I-0.0 J-0.787595 F6400.000000*3.4566194262
G03 X146.92510542684255 Y73.65290010367355 I0.4269581749047978 J-2.134794331143415
G03 X146.50780158999513 Y73.42906671272996 I0.8488351192530816 J-2.0834704459031976
G03 X146.1487037676655 Y73.12428620806362 I1.2525855513303725 J-1.839733840303557
G03 X145.8738506739912 Y72.75352575179 I1.7577151745586836 J-1.5902972692701127
G03 X145.65313515377005 Y72.29833045279257 I2.4420428620800547 J-1.4652194953330655
G03 X145.52005530586135 Y71.82659177322135 I2.299329415830535 J-0.903283788454584
G03 X145.47143104039299 Y71.27415485652607 I3.1138230210843196 J-0.5524369166952839
G01 X145.47143104039299 Y71.15851365362255
G01 X150.1793605253551 Y71.15851365362255
G01 X150.1793605253551 Y71.34022813685787
G03 X149.99984790869425 Y72.40964742479392 I-3.2751883857576147 J-0.0
G03 X149.55163498093773 Y73.15732803315868 I-2.000604908398905 J-0.6911199446938543
G03 X148.85426546832133 Y73.66038022811183 I-1.4543173176628308 J-1.281178707223899
G03 X147.91624611125286 Y73.85112685790784 I-0.9380159004490416 J-2.2110404424465346
G01 X147.91624611125286 Y73.85112685790784
M3S0
(End cutting path*3.4566194262 id:*3.4566194262 path3767)


(Start cutting path*3.4566194262 id:*3.4566194262 path3765)
(Change tool to Default tool)

G00 X140.8517663324789 Y66.23583823018834
M3S255
G02 X140.2060387140899 Y66.34834773589172 I-0.0 J0.552358 F6400.000000*3.4566194262
G02 X139.79454891111735 Y66.61577946765796 I0.361994469408795 J1.0072761838918112
G02 X139.5450432076954 Y67.04883166261115 I0.9650812305561877 J0.8444486692012337
G02 X139.44764949874278 Y67.63995506392446 I1.7452125820941178 J0.5911234013133144
G01 X139.44764949874278 Y73.60334255096011
G01 X138.04353266500664 Y73.60334255096011
G01 X138.04353266500664 Y74.7596716211291
G01 X138.83644659518268 Y74.7596716211291
G03 X139.2407189767933 Y74.81629104733025 I-0.0 J1.471586588316126
G03 X139.4146076736477 Y74.92486000688776 I-0.1019495333563428 J0.356826823366626
G03 X139.52556861384818 Y75.127538886943 I-0.36421361908041544 J0.33110957483569803
G03 X139.57980642926466 Y75.53606982368673 I-1.5115209125470146 J0.4085309367437256
G01 X139.57980642926466 Y77.1219011406582
G01 X140.7691773245287 Y77.1219011406582
G01 X140.7691773245287 Y74.7596716211291
G01 X142.63582440368467 Y74.7596716211291
G01 X142.63582440368467 Y73.60334255096011
G01 X140.7691773245287 Y73.60334255096011
G01 X140.7691773245287 Y67.39217075697674
G01 X142.50367784302102 Y67.39217075697674
G01 X142.50367784302102 Y66.23583823018834
G01 X140.8517663324789 Y66.23583823018834
M3S0
(End cutting path*3.4566194262 id:*3.4566194262 path3765)


(Start cutting path*3.4566194262 id:*3.4566194262 path3763)
(Change tool to Default tool)

G00 X135.2056031800439 Y66.23583823018834
M3S255
G02 X134.55987901827433 Y66.34834773589172 I-0.0 J0.552358 F6400.000000*3.4566194262
G02 X134.1483892153018 Y66.61577946765796 I0.361994469408795 J1.0072761838918112
G02 X133.8988800552604 Y67.04883166261115 I0.9650812305561877 J0.8444486692012337
G02 X133.80148634630777 Y67.63995506392446 I1.7452125820941178 J0.5911234013133144
G01 X133.80148634630777 Y73.60334255096011
G01 X132.39737296919108 Y73.60334255096011
G01 X132.39737296919108 Y74.7596716211291
G01 X133.1902868993671 Y74.7596716211291
G03 X133.59455928097773 Y74.81629104733025 I-0.0 J1.471586588316126
G03 X133.76844797783215 Y74.92486000688776 I-0.1019495333563428 J0.356826823366626
G03 X133.8794089180326 Y75.127538886943 I-0.36421361908041544 J0.33110957483569803
G03 X133.93364327682968 Y75.53606982368673 I-1.5115209125470146 J0.4085309367437256
G01 X133.93364327682968 Y77.1219011406582
G01 X135.12301417209372 Y77.1219011406582
G01 X135.12301417209372 Y74.7596716211291
G01 X136.98966125124966 Y74.7596716211291
G01 X136.98966125124966 Y73.60334255096011
G01 X135.12301417209372 Y73.60334255096011
G01 X135.12301417209372 Y67.39217075697674
G01 X136.85751814720547 Y67.39217075697674
G01 X136.85751814720547 Y66.23583823018834
G01 X135.2056031800439 Y66.23583823018834
M3S0
(End cutting path*3.4566194262 id:*3.4566194262 path3763)


(Start cutting path*3.4566194262 id:*3.4566194262 path3761)
(Change tool to Default tool)

G00 X127.28395091596089 Y66.03761147595404
M3S255
G02 X126.44253715861583 Y66.12092637398374 I-0.0 J1.241219 F6400.000000*3.4566194262
G02 X125.7146353266078 Y66.35146906323358 I0.6861493259589787 J3.430781195989155
G02 X125.05360871063844 Y66.73279640509311 I1.4418562046313799 J3.263066021429931
G02 X124.49222260624872 Y67.24349809883645 I2.079778776356016 J2.8500760456264076
G02 X124.0606947804625 Y67.87437262355107 I3.1008676114749223 J2.5840580712054817
G02 X123.71583477354936 Y68.64762530243085 I4.334306947803572 J2.396584860006098
G02 X123.51134116829537 Y69.48619426198813 I4.620197027305722 J1.5708987210502783
G02 X123.43500518488717 Y70.49775665396842 I6.664324230899911 J1.011562391980299
G02 X123.51077082609004 Y71.49288627719656 I6.573311441408066 J0.0
G02 X123.71583477354936 Y72.33137227788761 I4.860677497405883 J-0.744434842723563
G02 X124.06412029031385 Y73.11885931556449 I4.6024092637384975 J-1.564777048046478
G02 X124.49222260624872 Y73.73548565500433 I3.233166263393301 J-1.7877393708946567
G02 X125.05611821634187 Y74.26030763910369 I2.6501002419624586 J-2.28206014517724
G02 X125.7146353266078 Y74.64404078808386 I2.0421949533349433 J-2.747670238505806
G02 X126.44253715861583 Y74.87458693395313 I1.414051157967027 J-3.20023850673932
G02 X127.28395091596089 Y74.95790183198281 I0.841410300725604 J-4.20710680953884
G02 X128.12479433110056 Y74.87377462838796 I0.0 J-4.244127203593441
G02 X128.8367369512179 Y74.64404078808386 I-0.6589733840301942 J-3.2602108537838896
G02 X129.49525406148382 Y74.26030763910369 I-1.3836778430690075 J-3.1314033874859732
G02 X130.05914967157693 Y73.73548565500433 I-2.086204631869322 J-2.806878672657186
G02 X130.50067404074375 Y73.11633252676394 I-2.7054718285507566 J-2.3962875907354455
G02 X130.85206705837237 Y72.33137227788761 I-4.024994815069492 J-2.2729415831309243
G02 X131.05712409259283 Y71.49288627719656 I-4.655758727962469 J-1.5829139301757493
G02 X131.13288282055686 Y70.49775665396842 I-6.497780850326169 J-0.9951330798475704
G02 X131.05655029376808 Y69.4861908053687 I-6.7408918078096685 J-0.0
G02 X130.85206705837237 Y68.64762530243085 I-4.824825440717336 J0.7323228482541582
G02 X130.5041375734088 Y67.87681991010481 I-4.441890770824622 J1.541068095402172
G02 X130.05914967157693 Y67.24349809883645 I-3.4294676806071993 J1.9366297960587953
G02 X129.49776702380666 Y66.73279640509311 I-2.6411648807457317 J2.3393708952636363
G02 X128.8367369512179 Y66.35146906323358 I-2.102882820600737 J2.8817386795703994
G02 X128.12479433110056 Y66.1217386795489 I-1.3709160041474773 J3.030480470099212
G02 X127.28395091596089 Y66.03761147595404 I-0.8408434151397072 J4.159999999998585
G01 X127.28395091596089 Y66.03761147595404
M3S0
(End cutting path*3.4566194262 id:*3.4566194262 path3761)


(Start cutting path*3.4566194262 id:*3.4566194262 path3761)
(Change tool to Default tool)

G00 X127.28395091596089 Y67.21046664359969
M3S255
G03 X128.28348081571858 Y67.39278257861518 I0.0 J0.819031 F6400.000000*3.4566194262
G03 X129.03496716207158 Y67.87122709987322 I-0.7684479778773744 J2.036391289318354
G03 X129.50500864150453 Y68.619329415808 I-1.3151607328028712 J1.348050466643164
G03 X129.71225025920236 Y69.88655375040832 I-3.7707535430336296 J1.2672243346003296
G01 X129.71225025920236 Y71.10895610090911
G03 X129.50500864150453 Y72.37618043550944 I-3.9779917041120245 J0.0
G03 X129.03496716207158 Y73.12428620806362 I-1.7852022122358258 J-0.599948150708403
G03 X128.28348081571858 Y73.60272727270224 I-1.5199343242303855 J-1.5579467680603067
G03 X127.28395091596089 Y73.78504320771773 I-0.9995298997576968 J-2.6487625302445195
G03 X126.28441064634491 Y73.60272727270224 I-0.0 J-2.8311199446931266
G03 X125.53292429999188 Y73.12428620806362 I0.768441064638522 J-2.036380919460075
G03 X125.06288627717835 Y72.37618389212886 I1.3151676460417236 J-1.3480400967848856
G03 X124.85564811609997 Y71.10895610090911 I3.7708123055638754 J-1.2672243346003296
G01 X124.85564811609997 Y69.88655375040832
G03 X125.06288627717835 Y68.619329415808 I3.97805046664227 J-0.0
G03 X125.53292429999188 Y67.87122709987322 I1.7852056688552522 J0.5999377808501244
G03 X126.28441064634491 Y67.39278257861518 I1.519927410991533 J1.5579398548214545
G03 X127.28395091596089 Y67.21046664359969 I0.9995402696159754 J2.6488040096776335
G01 X127.28395091596089 Y67.21046664359969
M3S0
(End cutting path*3.4566194262 id:*3.4566194262 path3761)


(Start cutting path*3.4566194262 id:*3.4566194262 path3759)
(Change tool to Default tool)

G00 X120.98219149667509 Y66.23583823018834
M3S255
G02 X120.33646387828608 Y66.34834773589172 I0.0 J0.552363 F6400.000000*3.4566194262
G02 X119.92496370545524 Y66.61577946765796 I0.3620048392670736 J1.0073142067054992
G02 X119.67306256477093 Y67.04793294156033 I0.9910819218800639 J0.867196681645056
G02 X119.57806429308066 Y67.6069236086877 I1.5971206360174315 J0.5589906671273592
G01 X119.57806429308066 Y78.4599446940625
G01 X120.89959211886661 Y78.4599446940625
G01 X120.89959211886661 Y67.39217075697674
G01 X122.15503629446245 Y67.39217075697674
G01 X122.15503629446245 Y66.23583823018834
G01 X120.98219149667509 Y66.23583823018834
M3S0
(End cutting path*3.4566194262 id:*3.4566194262 path3759)


(Start cutting path*3.4566194262 id:*3.4566194262 path3757)
(Change tool to Default tool)

G00 X109.99572761835182 Y74.7596716211291
M3S255
G01 X111.31724507427947 Y74.7596716211291 F6400.000000
G01 X111.31724507427947 Y73.37207051501134
G01 X111.38328724503646 Y73.37207051501134
G02 X111.81138264773247 Y74.09801590042417 I2.6945316280668337 J-1.0997926028340541
G02 X112.34138956097114 Y74.5614448668948 I1.5816972001377272 J-1.2741410300721558
G02 X113.01657449011022 Y74.84858278600981 I1.2904355340472626 J-2.09695817490423
G02 X113.87766332522918 Y74.95790183198281 I0.8610888351189606 J-3.3367162115439744
G02 X114.65132042858183 Y74.87440718974295 I-0.0 J-3.6260732803306026
G02 X115.31482198406033 Y74.64404078808386 I-0.6302765295538818 J-2.8860421707560184
G02 X115.90625302450258 Y74.2653370203688 I-1.3266021431035933 J-2.7229726927056075
G02 X116.40507777389752 Y73.75201175248097 I-1.9923816107839754 J-2.435136536466507
G02 X116.79634980984622 Y73.13729692358385 I-2.6417628759064646 J-2.1133840304175324
G02 X117.0988800552661 Y72.347888005506 I-4.082526788799165 J-2.0172381610777794
G02 X117.2790459729985 Y71.51201520910116 I-5.1784306947787435 J-1.5535395782919017
G02 X117.34666436221383 Y70.49775665396842 I-7.573131697197564 J-1.0142620117521612
G02 X117.2790459729985 Y69.48349464221627 I-7.640750086412887 J-0.0
G02 X117.0988800552661 Y68.64762530243085 I-5.35859661251114 J0.7176702385064965
G02 X116.79634980984622 Y67.85821292773359 I-4.385057034219042 J1.2278292429999282
G02 X116.40507777389752 Y67.24349809883645 I-3.033034911855174 J1.498669201520403
G02 X115.90625302450258 Y66.73017283094863 I-2.491206360178897 J1.9218112685786761
G02 X115.31482198406033 Y66.35146906323358 I-1.9180366401652658 J2.3442654683711353
G02 X114.65132042858183 Y66.12110611819391 I-1.293778085032398 J2.6556757690969195
G02 X113.87766332522918 Y66.03761147595404 I-0.7736571033526578 J3.5425751814713156
G02 X112.41175250601086 Y66.46414448666941 I-0.0 J2.73228482543979
G02 X111.38328724503646 Y67.62343933630608 I1.510490839958007 J2.375872796404308
G01 X111.31724507427947 Y67.62343933630608
G01 X111.31724507427947 Y62.93202557896235
G01 X109.99572761835182 Y62.93202557896235
G01 X109.99572761835182 Y74.7596716211291
M3S0
(End cutting path*3.4566194262 id:*3.4566194262 path3757)


(Start cutting path*3.4566194262 id:*3.4566194262 path3757)
(Change tool to Default tool)

G00 X113.5142862080499 Y67.22698237121807
M3S255
G03 X114.55194607669802 Y67.4233425509622 I0.0 J0.821589 F6400.000000*3.4566194262
G03 X115.28181818177899 Y67.92078119596722 I-0.7258486000688856 J1.8491773245759353
G03 X115.74509851361428 Y68.70094020046056 I-1.684925682681764 J1.5281956446590035
G03 X115.9260594538147 Y69.77091254750479 I-3.072741099203933 J1.0699723470442266
G01 X115.9260594538147 Y71.22459730381263
G03 X115.74385413062085 Y72.29286208086032 I-3.2226512270988006 J0.0
G03 X115.28181818177899 Y73.05821292773182 I-2.0692015209118444 J-0.7270169374349412
G03 X114.54891116484181 Y73.56841341165837 I-1.4758797096434666 J-1.338593155893081
G03 X113.5142862080499 Y73.76852748009937 I-1.0346249567919055 J-2.574538541305727
G03 X113.07353266501514 Y73.73482198407449 I0.0 J-2.8985516764594363
G03 X112.65528862768379 Y73.63637400619689 I0.4164396819908712 J-2.7068164535075483
G03 X112.27343933629089 Y73.49085378497328 I0.7130798479085029 J-2.4449118562038006
G03 X111.96148634631521 Y73.30599723467954 I0.8621638437605088 J-1.8105772554435602
G03 X111.69269270649505 Y73.06543726233257 I1.012150017282753 J-1.4013964742477087
G03 X111.48244037327699 Y72.77738679568904 I1.2519771863113613 J-1.134583477358757
G03 X111.35962668506411 Y72.46905979949145 I1.1359177324572702 J-0.6310888351190388
G03 X111.31724507427947 Y72.13314206703389 I1.3100276529549644 J-0.3359177324575422
G01 X111.31724507427947 Y68.9614828897104
G03 X111.361434497024 Y68.55894227443228 I1.8555547874172742 J-0.0
G03 X111.48244037327699 Y68.2181265122478 I1.444728655374552 J0.32106463878316077
G03 X111.69103007255104 Y67.92771863115561 I1.579861735222415 J0.9146318700307985
G03 X111.96148634631521 Y67.67299688901952 I1.4805046664357222 J1.3010300725885657
G03 X112.27343933629089 Y67.48814033872576 I1.1741928793635827 J1.6258278603520224
G03 X112.65528862768379 Y67.34261320426332 I1.095039751123029 J2.299561009332091
G03 X113.07233667469367 Y67.25659522984232 I0.8255133079845103 J2.9483961285852405
G03 X113.5142862080499 Y67.22698237121807 I0.441946076736801 J3.283152436915579
G01 X113.5142862080499 Y67.22698237121807
M3S0
(End cutting path*3.4566194262 id:*3.4566194262 path3757)


(Start cutting path*3.4566194262 id:*3.4566194262 path3755)
(Change tool to Default tool)

G00 X100.23038022810282 Y66.03761147595404
M3S255
G02 X99.37260974763299 Y66.12167646039923 I0.0 J1.278156 F6400.000000*3.4566194262
G02 X98.64454891113134 Y66.35146906323358 I0.6730625648113854 J3.400777739369739
G02 X97.99883857583949 Y66.73055305908551 I1.4581265122705032 J3.223159350154452
G02 X97.43865883162951 Y67.24349809883645 I2.164877290009634 J2.926591773244771
G02 X97.00713100584328 Y67.87437262355107 I3.100929830624594 J2.5841099204968745
G02 X96.6622640856913 Y68.64762530243085 I4.3344071897669325 J2.396660905633475
G02 X96.46994469405638 Y69.48480815759822 I4.88107500863989 J1.5619529899752727
G02 X96.39795713788634 Y70.49775665396842 I7.090625648113733 J1.0129484963702051
G02 X96.46940891804532 Y71.4942620117282 I6.98471828551439 J0.0
G02 X96.6622640856913 Y72.33137227788761 I5.111175250603171 J-0.736743864500268
G02 X97.01055651569463 Y73.11885931556449 I4.6025060490824306 J-1.564849637054428
G02 X97.43865883162951 Y73.73548565500433 I3.23322156930412 J-1.7877843069471975
G02 X98.00131351534864 Y74.26259592116384 I2.7327929484954416 J-2.353235395782124
G02 X98.64454891113134 Y74.64404078808386 I2.041749049428964 J-2.7099377808494074
G02 X99.37260974763299 Y74.87383339091821 I1.4011234013130391 J-3.170985136535389
G02 X100.23038022810282 Y74.95790183198281 I0.8577670238503825 J-4.334030418249477
G02 X101.07063947455948 Y74.87294503972566 I0.0 J-4.197849982715475
G02 X101.76665053574142 Y74.64404078808386 I-0.6324196335981258 J-3.0955686138945575
G02 X102.39543034908375 Y74.26627030761388 I-1.4433252678875148 J-3.114493605253003
G02 X102.92298306252981 Y73.76852748009937 I-2.025838230210165 J-2.675617006566667
G02 X103.33477013477302 Y73.18505357757623 I-2.5256550293804065 J-2.219529899757282
G02 X103.64982371237402 Y72.46352575179009 I-3.570131351536982 J-1.9884410646381072
G02 X103.84354649149597 Y71.69171793983045 I-4.236923608709241 J-1.4736812996884032
G02 X103.91412374694013 Y70.79509851362958 I-5.6599999999980755 J-0.8966194262008704
G01 X103.91412374694013 Y70.16736951259281
G01 X97.78556170062352 Y70.16736951259281
G01 X97.78556170062352 Y69.77091254750479
G03 X97.82866228824881 Y69.23300725887725 I3.3781645350835388 J-0.0
G03 X97.95075008638219 Y68.74674040785773 I2.8788005530581295 J0.4643173176631674
G03 X98.16954372620236 Y68.30718285514443 I2.61421361907965 J1.0270169374348392
G03 X98.44632215689705 Y67.93729692358562 I2.1205945385405855 J1.2983131697195724
G03 X98.8051572761503 Y67.63133771169495 I1.6487003110951877 J1.5702073971650383
G03 X99.23923608707308 Y67.39217075697674 I1.424732111993985 J2.0723366747314076
G03 X99.72891462146627 Y67.24740407878807 I0.9324023505008927 J2.253321811267813
G03 X100.31297614929186 Y67.19394054612302 I0.5840615278255878 J3.1636778430684025
G03 X101.09215001724873 Y67.29749740751255 I-0.0 J2.983079847907731
G03 X101.71709298302798 Y67.57388178359264 I-0.5888765986862845 J2.1762599377801104
G03 X102.24640857238141 Y68.02637054957937 I-1.2209125475281022 J1.9640477013474138
G03 X102.65867957134428 Y68.66414103004925 I-2.0815520221216564 J1.7977048047003912
G01 X103.60026615966059 Y67.98685447629904
G02 X103.07967162111946 Y67.20714828895053 I-2.8760110611811864 J1.3566090563424356
G02 X102.31178015896971 Y66.56622191494453 I-2.680940200483015 J2.4315623919798166
G02 X101.39570342201877 Y66.18327687519354 I-1.7490494296572001 J2.896854476321172
G02 X100.23038022810282 Y66.03761147595404 I-1.1653231939159536 J4.588430694778945
G01 X100.23038022810282 Y66.03761147595404
M3S0
(End cutting path*3.4566194262 id:*3.4566194262 path3755)


(Start cutting path*3.4566194262 id:*3.4566194262 path3755)
(Change tool to Default tool)

G00 X100.23038022810282 Y73.85112685790784
M3S255
G03 X99.69647079153195 Y73.79826132040354 I0.0 J-0.787595 F6400.000000*3.4566194262
G03 X99.23923608707308 Y73.65290010367355 I0.4269581749047978 J-2.134794331143415
G03 X98.82193225022566 Y73.42906671272996 I0.8488351192530816 J-2.0834704459031976
G03 X98.46283788451544 Y73.12428620806362 I1.2525855513303725 J-1.839733840303557
G03 X98.18798133422172 Y72.75352575179 I1.7577151745586836 J-1.5902972692701127
G03 X97.96726581400057 Y72.29833045279257 I2.4420428620800547 J-1.4652194953330655
G03 X97.83418596609187 Y71.82659177322135 I2.299329415830535 J-0.903283788454584
G03 X97.78556170062352 Y71.27415485652607 I3.1138230210843196 J-0.5524369166952839
G01 X97.78556170062352 Y71.15851365362255
G01 X102.49349464220505 Y71.15851365362255
G01 X102.49349464220505 Y71.34022813685787
G03 X102.31397856892477 Y72.40964742479392 I-3.2751883857576147 J0.0
G03 X101.86576564116827 Y73.15732803315868 I-2.000604908398905 J-0.6911199446938543
G03 X101.16839612855185 Y73.66038022811183 I-1.4543173176628308 J-1.281178707223899
G03 X100.23038022810282 Y73.85112685790784 I-0.9380159004490416 J-2.2110404424465346
G01 X100.23038022810282 Y73.85112685790784
M3S0
(End cutting path*3.4566194262 id:*3.4566194262 path3755)


(Start cutting path*3.4566194262 id:*3.4566194262 path3753)
(Change tool to Default tool)

G00 X90.90743518835485 Y66.23583823018834
M3S255
G01 X87.91748703764726 Y74.7596716211291 F6400.000000
G01 X89.23901140681377 Y74.7596716211291
G01 X90.72572761835838 Y70.53079847906348
G01 X91.65079502243687 Y67.62343933630608
G01 X91.73339094362592 Y67.62343933630608
G01 X92.65846180432384 Y70.53079847906348
G01 X94.17821292772464 Y74.7596716211291
G01 X95.45017974417772 Y74.7596716211291
G01 X92.44371240923232 Y66.23583823018834
G01 X90.90743518835485 Y66.23583823018834
M3S0
(End cutting path*3.4566194262 id:*3.4566194262 path3753)


(Start cutting path*3.4566194262 id:*3.4566194262 path3751)
(Change tool to Default tool)

G00 X82.7973556861108 Y66.23583823018834
M3S255
G01 X82.7973556861108 Y74.7596716211291 F6400.000000
G01 X84.1188800552773 Y74.7596716211291
G01 X84.1188800552773 Y73.19035948839544
G01 X84.20147597646637 Y73.19035948839544
G02 X84.50887659865775 Y73.74638437605512 I2.080435534046994 J-0.7871828551673784
G02 X85.027428275118 Y74.2806152782326 I2.4347010024188056 J-1.844469408917451
G02 X85.6722329761202 Y74.61756999651801 I1.1683684756304358 J-1.4503767715169629
G02 X86.6628171448029 Y74.7596716211291 I0.9905841686826912 J-3.381628067748591
G01 X87.17490839955558 Y74.7596716211291
G01 X87.17490839955558 Y73.43814379534317
G01 X86.39851019699793 Y73.43814379534317
G03 X85.36305565154375 Y73.31310058760037 I0.0 J-4.3497338403027035
G03 X84.71356723121905 Y73.02517110263678 I0.48044936052524284 J-1.9602523332174462
G03 X84.2645039750837 Y72.55077773934623 I0.8126927065327344 J-1.2190356031796754
G03 X84.11888351189674 Y72.01751123398864 I0.9035879709640895 J-0.5332665053575788
G01 X84.11888351189674 Y66.23583823018834
G01 X82.7973556861108 Y66.23583823018834
M3S0
(End cutting path*3.4566194262 id:*3.4566194262 path3751)


(Start cutting path*3.4566194262 id:*3.4566194262 path3749)
(Change tool to Default tool)

G00 X80.18398893879058 Y66.23583823018834
M3S255
G02 X79.49805046661659 Y66.35843069475794 I0.0 J0.572913 F6400.000000*3.4566194262
G02 X79.11024887657179 Y66.63229519527634 I0.3184168683026916 J0.8623781541649332
G02 X78.86387141373054 Y67.05759073623715 I1.337469754579566 J1.0588351192530103
G02 X78.71379191148378 Y67.62343933630608 I2.24690286899336 J0.8987625302451145
G01 X78.63119253367532 Y67.62343933630608
G02 X78.2442343587705 Y66.9163117870495 I-2.3797718631170617 J0.8428378845486246
G02 X77.7061251295968 Y66.43406844104206 I-1.601313515381412 J1.2454649153124007
G02 X77.03094365707716 Y66.14692706530762 I-1.2904355340472626 J2.09695817490423
G02 X76.1698548219582 Y66.03761147595404 I-0.8610888351189606 J3.3367162115439744
G02 X74.89437953678754 Y66.241520912525 I-0.0 J4.091075008640158
G02 X74.05541652261567 Y66.7314103007032 I0.7215554787415451 J2.19902868994049
G02 X73.52103352918344 Y67.51602143101749 I1.471202903559818 J1.5762910473551504
G02 X73.31205668853367 Y68.61458347733581 I2.7830210853775537 J1.0985620463183268
G02 X73.55533702036904 Y69.69744210160091 I2.5315831316963395 J-0.0
G02 X74.18756653989873 Y70.46471482887338 I1.8362288282053905 J-0.8689319045970084
G02 X75.1466436225116 Y70.90161424124793 I1.568181818181285 J-2.1713273418589227
G02 X76.9462495678964 Y71.10895610090911 I1.7996094020042273 J-7.7060145177989705
G01 X78.63119253367532 Y71.10895610090911
G01 X78.63119253367532 Y71.95142758379856
G03 X78.48459039057131 Y72.79779813340076 I-2.516436225370731 J-0.0
G03 X78.13562391977986 Y73.3390286899163 I-1.3320048392667438 J-0.475717248530775
G03 X77.5800622191233 Y73.66971655718201 I-0.9790563428963143 J-1.012810231593157
G03 X76.61586933975964 Y73.81808503281279 I-0.9641928793636542 J-3.0588005530580684
G03 X75.86864500515914 Y73.72046664359748 I-0.0 J-2.908603525750826
G03 X75.31086415483095 Y73.4711856204382 I0.4911475976493318 J-1.847649498789555
G03 X74.84993086758602 Y73.07586933976084 I1.50345661942569 J-2.219388178360808
G03 X74.4518734877037 Y72.54611475974028 I2.3391738679563425 J-2.172080884893835
G01 X73.65895955752767 Y73.28947113720287
G02 X74.09039059796997 Y73.90671275490057 I2.3088938817828306 J-1.1544486692011284
G02 X74.76573453160265 Y74.46232976146794 I2.5319149671612546 J-2.389267196680833
G02 X75.56774974072785 Y74.81615623917263 I1.4806878672653105 J-2.2703905979943886
G02 X76.68194607671089 Y74.95790183198281 I1.1141963359830294 J-4.308233667471747
G02 X78.14924300031909 Y74.73221914964621 I0.0 J-4.882772208778153
G02 X79.09372623571456 Y74.19802627028241 I-0.783892153473636 J-2.488019357067941
G02 X79.7094849636784 Y73.3285655029132 I-1.5460490839953265 J-1.7476944348421295
G02 X79.95272035946124 Y72.08358451432046 I-3.064573107499822 J-1.2449809885927328
G01 X79.95272035946124 Y67.39217075697674
G01 X80.92734185963373 Y67.39217075697674
G01 X80.92734185963373 Y66.23583823018834
G01 X80.18398893879058 Y66.23583823018834
M3S0
(End cutting path*3.4566194262 id:*3.4566194262 path3749)


(Start cutting path*3.4566194262 id:*3.4566194262 path3749)
(Change tool to Default tool)

G00 X76.38460421704973 Y67.16090909088625
M3S255
G03 X76.87590044933438 Y67.19204631867747 I-0.0 J1.125787 F6400.000000*3.4566194262
G03 X77.29315243689041 Y67.2765399239315 I-0.3674248185273552 J2.886989284478797
G03 X77.69095748355464 Y67.42363636361344 I-0.7051261666088167 J2.518371932249403
G03 X78.00347390249681 Y67.6069236086877 I-0.8047839612855888 J1.7302696163146554
G03 X78.27433805735328 Y67.84577255441869 I-1.0894192879360278 J1.508451434496549
G03 X78.46600760453606 Y68.10249567920256 I-1.0705979951603688 J0.9992257172481912
G03 X78.58886622880149 Y68.39483926717342 I-1.023816107846178 J0.6022571724851046
G03 X78.63119599029473 Y68.71369858276267 I-1.1797684064980436 J0.318855858969819
G01 X78.63119599029473 Y70.1178154164988
G01 X76.8801762875646 Y70.1178154164988
G03 X75.7715381956189 Y70.00910473554482 I0.0 J-5.707442101622671
G03 X75.21175250602352 Y69.78743864498146 I0.3238610438989566 J-1.6355305910813658
G03 X74.83800898718506 Y69.38166954715926 I0.5962806774972048 J-0.9242274455579298
G03 X74.69966125127084 Y68.8293259591885 I1.0334220532315879 J-0.5523435879707765
G01 X74.69966125127084 Y68.48242654681391
G03 X74.82329415828772 Y67.91517455925793 I1.3631731766327893 J-0.0
G03 X75.14567576907227 Y67.50780850326083 I0.9924818527476751 J0.45418942274440144
G03 X75.64220186654877 Y67.262886277198 I0.9017628759070561 J1.2023470445899818
G03 X76.38460421704973 Y67.16090909088625 I0.7424058071203836 J2.6514448669192507
G01 X76.38460421704973 Y67.16090909088625
M3S0
(End cutting path*3.4566194262 id:*3.4566194262 path3749)


(Start cutting path*3.4566194262 id:*3.4566194262 path3747)
(Change tool to Default tool)

G00 X67.92529899755728 Y66.03761147595404
M3S255
G02 X65.92481852745772 Y66.45368475628574 I-0.0 J1.451470 F6400.000000*3.4566194262
G02 X64.50585551328605 Y67.52432423087923 I1.5139923954367476 J3.4821811268567493
G02 X63.66065675766933 Y69.16156930519598 I3.4913653646721623 J2.8391393017619104
G02 X63.28344624954641 Y71.93491185618018 I10.00652264085384 J2.773342550984194
G02 X63.65722779119854 Y74.7127964050904 I10.509298306252909 J-0.0
G02 X64.50585551328605 Y76.39505703419455 I4.580103698581229 J-1.255288627721661
G02 X65.94021776700144 Y77.53060836499264 I3.0435326650525427 J-2.3707466297952537
G02 X67.92529899755728 Y77.96437262354763 I1.985081230555841 J-4.325381956445125
G02 X69.32168683025641 Y77.77777739368251 I0.0 J-5.318264777046239
G02 X70.3536017974182 Y77.30360179741581 I-0.9073867957134834 J-3.334618043552271
G02 X71.2104631869789 Y76.5288938817576 I-2.1860076045619943 J-3.2790252333206964
G02 X71.8898721050568 Y75.4369581748793 I-3.7715278257850984 J-3.104009678533338
G01 X70.76657794674401 Y74.7596716211291
G03 X70.31653301069161 Y75.57313515379387 I-3.232181126856834 J-1.2569581749045158
G03 X69.70935706876303 Y76.18031455234188 I-2.3735292084333444 J-1.7663428966464785
G03 X68.94721742133846 Y76.57279986170919 I-1.465589353611669 J-1.90970964396755
G03 X67.92529899755728 Y76.72544417557017 I-1.021914967161768 J-3.3444555824392364
G03 X67.19885240232766 Y76.65003110954878 I-0.0 J-3.5366781887302183
G03 X66.58725544415296 Y76.44461458690799 I0.5668786726579477 J-2.700981679916123
G03 X66.05628413409437 Y76.10540960937614 I1.1858693397852864 J-2.4414656066358793
G03 X65.59611475974265 Y75.63518492911359 I1.8720048392665602 J-2.29225717248453
G03 X65.25756653990177 Y75.09344970616182 I2.523598340821817 J-1.9537296923602068
G03 X64.98490839956311 Y74.39625648113613 I3.9305115796737415 J-1.9390528862765617
G03 X64.82908745244944 Y73.67721742133686 I4.396380919459273 J-1.3291254752847192
G03 X64.77015900447158 Y72.79390252330744 I6.590933287242834 J-0.8833148980294266
G01 X64.77015900447158 Y71.07592464567234
G03 X65.01582094709161 Y69.3796819909892 I5.978973384028385 J0.0
G03 X65.59611475974265 Y68.28419979257963 I2.999429657793657 J0.8874040788106212
G03 X66.55623228480282 Y67.55998963011875 I1.9731109574829102 J1.6173107500858657
G03 X67.92529899755728 Y67.2765399239315 I1.3690667127544602 J3.1645765641192143
G03 X68.97960248874253 Y67.43304182507214 I-0.0 J3.6295126166596714
G03 X69.77543380571426 Y67.83818527477818 I-0.7401106118213868 J2.438019357067958
G03 X70.40891462147624 Y68.49669892842469 I-1.9583546491524622 J2.517870722432604
G03 X70.86569305217085 Y69.3579398547984 I-2.950203940545143 J2.116446595229146
G01 X71.97246802624583 Y68.66414103004925
G02 X71.29109229171445 Y67.55462150014986 I-4.54283442792794 J2.02585205668787
G02 X70.4031593501316 Y66.7314103007032 I-3.339405461457558 J2.7114828897329186
G02 X69.32019011404488 Y66.22921189074832 I-2.085658485999982 J3.078828206013471
G02 X67.92529899755728 Y66.03761147595404 I-1.394887659868174 J4.981749049427964
G01 X67.92529899755728 Y66.03761147595404
M3S0
(End cutting path*3.4566194262 id:*3.4566194262 path3747)


(Start cutting path*3.4566194262 id:*3.4566194262 path3745)
(Change tool to Default tool)

G00 X56.62523332179202 Y70.54731420668186
M3S255
G01 X56.62523332179202 Y71.96795368127522 F6400.000000
G01 X60.93670584166612 Y71.96795368127522
G01 X60.93670584166612 Y70.54731420668186
G01 X56.62523332179202 Y70.54731420668186
M3S0
(End cutting path*3.4566194262 id:*3.4566194262 path3745)


(Start cutting path*3.4566194262 id:*3.4566194262 path3743)
(Change tool to Default tool)

G00 X50.001348081559215 Y66.23583823018834
M3S255
G01 X46.16892844796218 Y77.76614241269391 F6400.000000
G01 X47.655644659506784 Y77.76614241269391
G01 X49.555333563757785 Y71.95142758379856
G01 X50.82730383683028 Y67.62343933630608
G01 X50.909899758019336 Y67.62343933630608
G01 X52.214904942948024 Y71.95142758379856
G01 X54.131116488056264 Y77.76614241269391
G01 X55.56827514688743 Y77.76614241269391
G01 X51.68629450395754 Y66.23583823018834
G01 X50.001348081559215 Y66.23583823018834
M3S0
(End cutting path*3.4566194262 id:*3.4566194262 path3743)


(Start cutting path*3.4566194262 id:*3.4566194262 path3741)
(Change tool to Default tool)

G00 X178.89276529548016 Y87.6032319391337
M3S255
G02 X177.72967507771352 Y87.68361562388999 I0.0 J2.445955 F6400.000000*3.4566194262
G02 X176.81136536461324 Y87.89231247836625 I0.7588662288279481 J5.463902523330324
G02 X175.96426201169268 Y88.26987556167064 I1.8040165917726323 J5.1865572070497405
G02 X175.30813342545025 Y88.72101970270056 I1.9542170756993011 J3.5448461804343294
G02 X174.77778776350783 Y89.29158658828628 I2.431991012788665 J2.792319391634032
G02 X174.38306256475232 Y89.95444521255152 I2.905582440372327 J2.1791876944341015
G02 X174.15511579669158 Y90.68415485651947 I3.335534047700214 J1.4424092637395718
G02 X174.0747079155993 Y91.49622191493606 I4.060300725888699 J0.8120670584165922
G02 X174.28402350495287 Y92.76463878323842 I3.947818873140725 J-0.0
G02 X174.80705150357002 Y93.65470791562664 I2.410850328378026 J-0.8179675077771156
G02 X175.64738679565406 Y94.33834082264335 I2.6635119253361146 J-2.4157483581049513
G02 X176.7728206013917 Y94.81104735565391 I2.314936052539828 J-3.9353750432064047
G01 X176.7728206013917 Y94.9652229519207
G02 X175.81732111988492 Y95.45183200826344 I1.3448219840990934 J3.822080884893274
G02 X175.09613895604141 Y96.12155202208969 I1.9379122018659156 J2.8099758036630615
G02 X174.64919806423373 Y96.97012789488579 I2.1355858969920147 J1.666799170410771
G02 X174.47942620111593 Y98.06805737984914 I3.4653473902511553 J1.0979294849633323
G02 X174.55611821632505 Y98.82233321807908 I3.7475250604895662 J0.0
G02 X174.76850674034847 Y99.47492568264852 I3.0077808503273564 J-0.6180331835462815
G02 X175.1392810230998 Y100.06085724158368 I2.773207742826572 J-1.3445973038363905
G02 X175.63575872790435 Y100.5541686829938 I2.447687521603039 J-1.9668924991351766
G02 X176.2318873141468 Y100.94731420667152 I2.105651572761123 J-2.5442896647070508
G02 X177.02335983402207 Y101.2672450742829 I2.157383339093632 J-4.198126512269572
G02 X177.86222951946942 Y101.44903560314559 I1.5506256481156153 J-5.129049429656051
G02 X178.89276529548016 Y101.51778085029386 I1.0305357760107108 J-7.689453854128047
G02 X179.92330107149084 Y101.44903560314559 I-0.0 J-7.758199101276312
G02 X180.7621742135576 Y101.2672450742829 I-0.7117559626682682 J-5.310836501899335
G02 X181.55364673343294 Y100.94731420667152 I-1.3659108192183396 J-4.518057379880939
G02 X182.14977531967537 Y100.5541686829938 I-1.509522986518671 J-2.937431731765334
G02 X182.64250259240248 Y100.05918769440083 I-1.856515727617758 J-2.3408088489449352
G02 X182.99774974069132 Y99.47492568264852 I-2.2518354649145476 J-1.7692948496364536
G02 X183.2246422398271 Y98.82023505008739 I-2.6514483235386765 J-1.2855617006563207
G02 X183.30610438984436 Y98.06805737984914 I-3.4317939854810318 J-0.7521811268576772
G02 X183.13177324570339 Y96.97315935012257 I-3.5254165226396585 J-0.0
G02 X182.67012443823722 Y96.12155202208969 I-2.5581783615615223 J0.8358313169717172
G02 X181.96550293806465 Y95.45370549599244 I-2.570006913237979 J2.0058866228821386
G02 X181.0127099895686 Y94.9652229519207 I-2.2689837538879254 J3.252222606289942
G01 X181.0127099895686 Y94.81104735565391
G02 X182.13571379184958 Y94.33650881434747 I-1.169305219494936 J-4.333238852400878
G02 X182.95920497746977 Y93.65470791562664 I-1.762786035256919 J-2.9673418596602423
G02 X183.4968717593569 Y92.76126166605903 I-1.862063601796809 J-1.7290736259931903
G02 X183.7108261319804 Y91.49622191493606 I-3.6329139301750524 J-1.2650397511229714
G02 X183.62570342199078 Y90.68613204283125 I-3.8972243345994353 J0.0
G02 X183.38319045966804 Y89.95444521255152 I-3.4138783269950372 J0.7254649153125774
G02 X183.00115796744555 Y89.29612167297344 I-2.975195298996569 J1.2865260974762305
G02 X182.4581299688284 Y88.72101970270056 I-2.8003249222251108 J2.1002212236425626
G02 X181.81857241611516 Y88.27384376077192 I-2.4140546145861133 J2.7716799170401916
G02 X180.95489111642655 Y87.89231247836625 I-2.597646042169874 J4.712022122362726
G02 X180.05548565496818 Y87.68433460073064 I-1.6287832699614233 J4.994963705494327
G02 X178.89276529548016 Y87.6032319391337 I-1.1627169028685989 J8.29413066021149
G01 X178.89276529548016 Y87.6032319391337
M3S0
(End cutting path*3.4566194262 id:*3.4566194262 path3741)


(Start cutting path*3.4566194262 id:*3.4566194262 path3741)
(Change tool to Default tool)

G00 X178.89276529548016 Y89.35699965430767
M3S255
G03 X180.0448047009412 Y89.52552713443205 I-0.0 J1.163520 F6400.000000*3.4566194262
G03 X180.7621742135576 Y89.91590390594939 I-0.566851019702538 J1.8959903214649623
G03 X181.24780850322216 Y90.56359142755304 I-1.1067818873138304 J1.3357656412024494
G03 X181.4366989283863 Y91.4769547182544 I-2.113791911509824 J0.913359834081957
G01 X181.4366989283863 Y91.86239889385055
G03 X181.24780850322216 Y92.77575872793251 I-2.3026823366739495 J0.0
G03 X180.7621742135576 Y93.4234497061556 I-1.5924161769783731 J-0.6880781195987982
G03 X180.04480815756062 Y93.81381610781463 I-1.2842101624606765 J-1.5056308330447699
G03 X178.89276529548016 Y93.98234013131959 I-1.1520428620804932 J-3.853387487036367
G03 X177.7388662287678 Y93.81519529896569 I-0.0 J-4.066536467333564
G03 X177.00409263734045 Y93.4234497061556 I0.5885309367436644 J-1.9888316626332678
G03 X176.53348081570218 Y92.77935706875519 I1.1182025578979953 J-1.3110024196331527
G03 X176.3488351191934 Y91.86239889385055 I2.1845212582087288 J-0.9169616315240574
G01 X176.3488351191934 Y91.4769547182544
G03 X176.53348081570218 Y90.55999308673036 I2.36916695471748 J-0.0
G03 X177.00409263734045 Y89.91590390594939 I1.5888143795362728 J0.6669097822327494
G03 X177.7388662287678 Y89.52415139990043 I1.323314898029277 J1.5970687867260385
G03 X178.89276529548016 Y89.35699965430767 I1.1538990667123625 J3.8993121327328604
G01 X178.89276529548016 Y89.35699965430767
M3S0
(End cutting path*3.4566194262 id:*3.4566194262 path3741)


(Start cutting path*3.4566194262 id:*3.4566194262 path3741)
(Change tool to Default tool)

G00 X178.89276529548016 Y95.65902177666986
M3S255
G03 X179.95688904245526 Y95.80724507428475 I-0.0 J1.126514 F6400.000000*3.4566194262
G03 X180.58872450737033 Y96.14082958862961 I-0.47060145177999896 J1.6565122709984
G03 X181.01458002067815 Y96.70468717590906 I-0.9133632907013833 J1.1325648116138562
G03 X181.1861596957559 Y97.54770826128727 I-1.9851849291386268 J0.8430176287587869
G01 X181.1861596957559 Y97.87533010712193
G03 X181.01458002067815 Y98.71834773588071 I-2.1567680608357684 J-0.0
G03 X180.58872450737033 Y99.28220877977958 I-1.3392188040092232 J-0.5687072243344075
G03 X179.95689249907466 Y99.6157863808856 I-1.1024265468368184 J-1.3229415831312474
G03 X178.89276529548016 Y99.76400622188105 I-1.0641272035945224 J-3.7457932941570395
G03 X177.82681991006743 Y99.61713791908123 I-0.0 J-3.941693743517498
G03 X177.17754234352773 Y99.28220877977958 I0.49139301762859205 J-1.7493812651221152
G03 X176.76657794670797 Y98.72208434148044 I0.9239163498095718 J-1.1087037677147975
G03 X176.5993708952044 Y97.87533010712193 I2.0604320774275746 J-0.8467542343585092
G01 X176.5993708952044 Y97.54770826128727
G03 X176.76657794670797 Y96.70095057030933 I2.2276391289311475 J-0.0
G03 X177.17754234352773 Y96.14082958862961 I1.3348807466293422 J0.548582786035071
G03 X177.82681991006743 Y95.8058935360891 I1.1406774974071476 J1.4144313861039088
G03 X178.89276529548016 Y95.65902177666986 I1.0659453854127037 J3.794742481851458
G01 X178.89276529548016 Y95.65902177666986
M3S0
(End cutting path*3.4566194262 id:*3.4566194262 path3741)


(Start cutting path*3.4566194262 id:*3.4566194262 path3739)
(Change tool to Default tool)

G00 X163.25124438293793 Y87.83450051846305
M3S255
G01 X163.25124438293793 Y89.64609056339849 F6400.000000
G01 X167.02860352569505 Y89.64609056339849
G01 X167.02860352569505 Y99.70619426197786
G01 X166.87443138604766 Y99.70619426197786
G01 X163.75232976143758 Y96.37209816795894
G01 X162.42253715860363 Y97.56697545796891
G01 X165.85299688898613 Y101.28651227096454
G01 X169.16782578632342 Y101.28651227096454
G01 X169.16782578632342 Y89.64609056339849
G01 X172.44409955058086 Y89.64609056339849
G01 X172.44409955058086 Y87.83450051846305
G01 X163.25124438293793 Y87.83450051846305
M3S0
(End cutting path*3.4566194262 id:*3.4566194262 path3739)


(Start cutting path*3.4566194262 id:*3.4566194262 path3737)
(Change tool to Default tool)

G00 X155.78114759759654 Y87.6032319391337
M3S255
G02 X154.55875907357347 Y87.73161078462279 I0.0 J1.702194 F6400.000000*3.4566194262
G02 X153.6033805737466 Y88.06576218455353 I0.8288904251639077 J3.9027203594870934
G02 X152.76627030758718 Y88.64604908396572 I1.8725337020387687 J3.595233321810046
G02 X152.08087452466313 Y89.43409609398965 I2.8488627722078115 J3.169851365363596
G02 X151.58494296572792 Y90.36432423087146 I4.242720359486978 J2.8592326304864115
G02 X151.1943553404256 Y91.61184929136188 I7.286951261663614 J2.966363636362628
G02 X150.98589007945094 Y92.91201175247446 I10.494376080190003 J2.349446940891009
G02 X150.9052782578125 Y94.56050120978465 I16.81479778775785 J1.6484894573101896
G02 X150.98547182850035 Y96.18978223294344 I16.590449360519763 J0.0
G02 X151.1943553404256 Y97.48988593152579 I10.75812651226734 J-1.0616418942270847
G02 X151.58651572756685 Y98.75620463183645 I7.787801590042288 J-1.7178741790523022
G02 X152.08087452466313 Y99.68691669543793 I4.673937089524855 J-1.885966125128982
G02 X152.76799516068084 Y100.47134808154206 I3.4309609401993177 J-2.312188040095999
G02 X153.6033805737466 Y101.03597649495354 I2.565209125474413 J-2.895022468025286
G02 X154.56109574830558 Y101.38443484268934 I1.7989768406492328 J-3.454040788108055
G02 X155.78114759759654 Y101.51778085029386 I1.220048392671552 J-5.514614586932104
G02 X158.00152782573267 Y100.99607673691692 I-0.0 J-4.985834773589732
G02 X159.4621396473706 Y99.68691669543793 I-1.6420601451774577 J-3.301403387485915
G02 X160.29057034215083 Y97.74705496021565 I-5.083916349808158 J-3.31793639820143
G02 X160.65702385061942 Y94.56050120978465 I-13.67127549256362 J-3.186550293811568
G02 X160.29057034215083 Y91.37395091597308 I-14.037701348076803 J0.0
G02 X159.4621396473706 Y89.43409609398965 I-5.912288282058135 J1.3780608365014326
G02 X158.00152782573267 Y88.12493605251066 I-3.1026754234348246 J1.992243346006927
G02 X155.78114759759654 Y87.6032319391337 I-2.220383684755553 J4.464130660212793
G01 X155.78114759759654 Y87.6032319391337
M3S0
(End cutting path*3.4566194262 id:*3.4566194262 path3737)


(Start cutting path*3.4566194262 id:*3.4566194262 path3737)
(Change tool to Default tool)

G00 X155.78114759759654 Y89.45336329067129
M3S255
G03 X156.45502592459252 Y89.52970273069892 I0.0 J0.871520 F6400.000000*3.4566194262
G03 X156.95675423430544 Y89.72317663322217 I-0.42366401659162917 J1.8459453854124384
G03 X157.4042654683184 Y90.06645005181868 I-1.0783339094362046 J1.8691185620456832
G03 X157.76618389209983 Y90.53260629101658 I-1.6706463878321318 J1.6706463878321318
G03 X158.02070860692862 Y91.0732803318045 I-2.71050812305473 J1.6062322848248947
G03 X158.209446940838 Y91.76603525748695 I-4.280390597993705 J1.5382682336669502
G03 X158.30761838916152 Y92.50173176630108 I-7.374023505009591 J1.3583857587275023
G03 X158.34435534042316 Y93.38490494293403 I-10.5979951607292 J0.8831731766329525
G01 X158.34435534042316 Y95.73610784649355
G03 X158.30718285511384 Y96.6191496715883 I-10.507431731762761 J0.0
G03 X158.209446940838 Y97.33570342202015 I-7.010155547871796 J-0.5912236432766742
G03 X158.01927410986679 Y98.04734531624734 I-4.591804355338915 J-0.8458555133076973
G03 X157.76618389209983 Y98.588406498411 I-2.8944244728645536 J-1.024179052885929
G03 X157.40247493945563 Y99.05108883508558 I-1.9343657103346343 J-1.1462945039747225
G03 X156.95675423430544 Y99.37856204628491 I-1.387227791219715 J-1.4210715520216393
G03 X156.45241963354516 Y99.5863256135161 I-0.9411372277909001 J-1.568527480123905
G03 X155.78114759759654 Y99.66765295537573 I-0.6712754925680401 J-2.7297891462140735
G03 X155.10881437948407 Y99.58747666778501 I-0.0 J-2.8590701693733798
G03 X154.58627030758657 Y99.37856204628491 I0.46443829934308445 J-1.9196301417207438
G03 X154.15772900098457 Y99.05417559623316 I0.9582302108534593 J-1.7111787072237528
G03 X153.7961078464738 Y98.588406498411 I1.669198064292554 J-1.669218804009111
G03 X153.5430210853263 Y98.04734531624734 I2.6413342550976155 J-1.5652402350495889
G03 X153.35284479773563 Y97.33570342202015 I4.401631524367671 J-1.5574974075349008
G03 X153.25510888345983 Y96.6191496715883 I6.912419633595991 J-1.3077739370890817
G03 X153.21793639815047 Y95.73610784649355 I10.470259246453406 J-0.8830418250947569
G01 X153.21793639815047 Y93.38490494293403
G03 X153.25467334941212 Y92.50173176630108 I10.634732111990854 J0.0
G03 X153.35284479773563 Y91.76603525748695 I7.472194953333098 J0.6226857932939466
G03 X153.541583131645 Y91.0732803318045 I4.469128931903078 J0.8455133079845034
G03 X153.7961078464738 Y90.53260629101658 I2.9650328378835407 J1.065558244036969
G03 X154.15588662283042 Y90.06339785686534 I2.138731420669857 J1.2674006221910659
G03 X154.58627030758657 Y89.72317663322217 I1.5315727618384007 J1.4951192533696955
G03 X155.10631524363893 Y89.5286069823408 I0.9712962322844954 J1.803802281368208
G03 X155.78114759759654 Y89.45336329067129 I0.6748288973381736 J2.9884963705485865
G01 X155.78114759759654 Y89.45336329067129
M3S0
(End cutting path*3.4566194262 id:*3.4566194262 path3737)


(Start cutting path*3.4566194262 id:*3.4566194262 path3735)
(Change tool to Default tool)

G00 X148.86994123741914 Y87.83450051846305
M3S255
G01 X139.73490494291826 Y87.83450051846305 F6400.000000
G01 X139.73490494291826 Y89.91590390594939
G01 X144.03261320423724 Y93.75107155199025
G03 X144.99752506044155 Y94.7243276874894 I-8.559339785686685 J9.450867611472763
G03 X145.59366401654228 Y95.50484963702249 I-4.891209816797508 J4.353702039403981
G03 X146.01649153123276 Y96.39362945036474 I-2.9721845834763485 J1.9589457310743426
G03 X146.15255789832568 Y97.27789491873637 I-2.805250604907446 J0.8842620117522054
G01 X146.15255789832568 Y97.52843069474734
G03 X145.98257172480345 Y98.43755962665163 I-2.5161285862417992 J0.0
G03 X145.55512270994015 Y99.07020394051247 I-1.598873142066515 J-0.619564465952088
G03 X144.91192188035168 Y99.4682751468725 I-1.2362806774969872 J-1.278897338402607
G03 X143.97479433109518 Y99.62910819215416 I-0.9371275492565082 J-2.6497787763558223
G03 X143.42536121668127 Y99.58099896298032 I0.0 J-3.1615554787407154
G03 X142.9919149671135 Y99.45565848596688 I0.3677186311785822 J-2.083740062218441
G03 X142.609322502544 Y99.26606636705924 I0.7922087798130732 J-2.0794884203242154
G03 X142.27883857582444 Y99.0123954372287 I1.1184099550635673 J-1.7991842378148046
G03 X141.9973349463741 Y98.70245419975905 I1.7854199792596765 J-1.9044141030066113
G03 X141.75848600064313 Y98.33786035254175 I2.2398582786027643 J-1.7278776356717251
G03 X141.58745247143474 Y97.94426892495807 I3.575095057033005 J-1.787500864154249
G03 X141.4501313514901 Y97.50915312820743 I4.234673349462784 J-1.575696508813844
G01 X139.54217767019105 Y98.24150708603642
G02 X139.7913619080064 Y98.85983408223393 I5.158817836154485 J-1.7196059453848285
G02 X140.1203491185144 Y99.45565848596688 I5.11748012443656 J-2.4369097822321475
G02 X140.53099550634695 Y100.01451088831719 I3.5302523332169122 J-2.163736605598988
G02 X141.04541997921234 Y100.51562391977227 I3.345347390251196 J-2.919602488764994
G02 X141.63702039400644 Y100.92076391285887 I2.5188800553050545 J-3.0436640165907383
G02 X142.35592464564812 Y101.24796750774297 I2.338714137572658 J-4.185046664360831
G02 X143.1396508813893 Y101.44229173864508 I1.4265572070510186 J-4.075886622881435
G02 X144.14824403728247 Y101.51778085029386 I1.008593155893193 J-6.6999101278926405
G02 X145.15419633593405 Y101.43366401655729 I-0.0 J-6.056954718283458
G02 X145.9791081921384 Y101.20942620114084 I-0.7213895610090876 J-4.283249222259173
G02 X146.74053231934175 Y100.84448669198092 I-1.3688662288277407 J-3.8328517110253126
G02 X147.3281645350346 Y100.38071897680652 I-1.6744555824398042 J-2.725855513307058
G02 X147.8154821983597 Y99.81155547870786 I-2.2637158658823964 J-2.4313930176279324
G02 X148.17613895605055 Y99.12802627027395 I-2.926757690977228 J-1.9811821638430873
G02 X148.3887936397698 Y98.3811406843772 I-3.66937435188261 J-1.4484721742131266
G02 X148.46522986514137 Y97.52843069474734 I-4.7182198409939025 J-0.8527099896298518
G02 X148.39919460762326 Y96.73055651569473 I-4.853114414101357 J0.0
G02 X148.2146837192721 Y96.02519875558437 I-3.970117525059141 J0.6617075699963184
G02 X147.91827514685605 Y95.35556515724377 I-4.911123401311846 J1.7734462495673198
G02 X147.5208814379035 Y94.71468717590973 I-4.8933390943640465 J2.5905876253015734
G02 X147.0486795713292 Y94.12341168334166 I-6.061437953679238 J4.356567576908301
G02 X146.48018320077978 Y93.5390770825814 I-6.487818873139862 J5.743311441408348
G02 X145.89556170060715 Y92.9871793985166 I-23.59576564119488 J24.409187694426542
G02 X145.24676460416768 Y92.40201520909406 I-27.175699965424567 J29.478537849972692
G01 X142.08612167295547 Y89.68463187000062
G01 X148.86994123741914 Y89.68463187000062
G01 X148.86994123741914 Y87.83450051846305
M3S0
(End cutting path*3.4566194262 id:*3.4566194262 path3735)


(Start cutting path*3.4566194262 id:*3.4566194262 path3733)
(Change tool to Default tool)

G00 X131.64057034216054 Y97.85605254058201
M3S255
G01 X133.6641513998854 Y97.85605254058201 F6400.000000
G01 X129.44352920839015 Y85.84945385410147
G02 X129.24341513994915 Y85.3616107846236 I-4.449298306254969 J1.5401555478736555
G02 X129.0388212927318 Y85.00147943308552 I-2.621838921533848 J1.2513169720009572
G02 X128.7943518838138 Y84.66534739022354 I-1.7324023505006207 J1.0030003456616015
G02 X128.51846871755052 Y84.4233114413816 I-1.1601244382989488 J1.044106463877972
G02 X128.20971310054404 Y84.23285862423684 I-0.930936743864184 J1.1637296923604754
G02 X127.80539232626143 Y84.0956861389275 I-0.8618147251984626 J1.8757483581051346
G02 X127.37698582781704 Y84.0130418250665 I-0.7590978223295034 J2.783183546490585
G02 X126.80323539573982 Y83.98004839264343 I-0.5737504320772332 J4.972239889386488
G01 X125.58908399580937 Y83.98004839264343
G01 X125.58908399580937 Y85.6952817144541
G01 X127.28504320769956 Y85.6952817144541
G01 X127.86321119940348 Y87.39123746972487
G01 X124.22076045623153 Y97.85605254058201
G01 X126.32142758378008 Y97.85605254058201
G01 X128.32574144482328 Y91.95875216035589
G01 X128.90391289314664 Y89.78099550636423
G01 X129.0002972692268 Y89.78099550636423
G01 X129.63628759069218 Y91.95875216035589
G01 X131.64057034216054 Y97.85605254058201
M3S0
(End cutting path*3.4566194262 id:*3.4566194262 path3733)


(Start cutting path*3.4566194262 id:*3.4566194262 path3731)
(Change tool to Default tool)

G00 X108.6295298997211 Y87.83450051846305
M3S255
G01 X108.6295298997211 Y97.85605254058201 F6400.000000
G01 X110.73019702726965 Y97.85605254058201
G01 X110.73019702726965 Y96.19864846177165
G01 X110.82657794673038 Y96.19864846177165
G02 X110.9961908053546 Y96.57635672309195 I4.624963705494452 J-1.8499377808496993
G02 X111.19274801240603 Y96.93099204974236 I4.272637400620739 J-2.13629104735496
G02 X111.44666781883525 Y97.25728655371736 I2.3488351192525716 J-1.5659108192182716
G02 X111.73237469750782 Y97.52843069474734 I1.9013688212921294 J-1.717386795713208
G02 X112.07983408222943 Y97.76180089868782 I1.3667542343583323 J-1.6595955755265703
