%
(1)
(T1  D=9.5 CR=4.75 - ZMIN=-31.494 - ball end mill)
G90 G94
G17
G21
G28 G91 Z0
G90

(Adaptive1)
M9
T1 M6
S21000 M3
G54
M8
G0 X38.901 Y-6.333
Z15
Z5
Z-4.4
G1 Z-5.35 F1000
X38.895 Y-6.33 Z-5.465
X38.875 Y-6.323 Z-5.577
X38.843 Y-6.311 Z-5.687
X38.799 Y-6.295 Z-5.791
X38.743 Y-6.275 Z-5.89
X38.677 Y-6.25 Z-5.98
X38.601 Y-6.222 Z-6.061
X38.516 Y-6.191 Z-6.132
X38.424 Y-6.157 Z-6.191
X38.326 Y-6.121 Z-6.238
X38.223 Y-6.083 Z-6.272
X38.117 Y-6.044 Z-6.293
X38.01 Y-6.004 Z-6.3
G3 X32.94 Y-4.739 I-8.377 J-22.761
G1 X32.883 Y-4.733
X32.288 Y-4.662
X31.744 Y-4.588
X31.459 Y-4.544
X31.174 Y-4.499
X30.89 Y-4.449
X30.506 Y-4.377
X30.32 Y-4.339
X30.036 Y-4.277
X29.751 Y-4.214
X29.466 Y-4.144
X29.26 Y-4.092
X29.182 Y-4.07
X28.897 Y-3.986
X28.612 Y-3.901
X28.328 Y-3.805
X28.043 Y-3.709
X27.758 Y-3.6
X27.565 Y-3.522
X27.473 Y-3.484
X27.189 Y-3.35
X26.804 Y-3.193
X26.173 Y-2.953
X25.378 Y-2.709
X24.569 Y-2.518
X23.752 Y-2.365
X22.929 Y-2.243
X22.104 Y-2.146
X21.276 Y-2.068
X20.447 Y-2.004
X19.617 Y-1.954
X18.787 Y-1.912
X17.956 Y-1.879
X17.125 Y-1.852
X16.294 Y-1.831
X15.463 Y-1.813
X14.631 Y-1.799
X13.8 Y-1.787
X12.969 Y-1.778
X12.138 Y-1.77
X11.306 Y-1.764
X10.475 Y-1.759
X9.643 Y-1.755
X8.812 Y-1.752
X7.981 Y-1.749
X6.318 Y-1.745
X4.655 Y-1.742
X3.824
X3.021 Y-1.526
X2.294 Y-1.122
X1.654 Y-0.591
X1.1 Y0.028
X0.625 Y0.71
X0.221 Y1.437
X-0.119 Y2.196
X-0.404 Y2.977
X-0.641 Y3.774
X-0.838 Y4.581
X-1.001 Y5.396
X-1.136 Y6.217
X-1.246 Y7.041
X-1.337 Y7.867
X-1.411 Y8.695
X-1.472 Y9.525
X-1.521 Y10.354
X-1.562 Y11.185
X-1.595 Y12.016
X-1.621 Y12.847
X-1.643 Y13.678
X-1.661 Y14.509
X-1.675 Y15.34
X-1.687 Y16.171
X-1.697 Y17.003
X-1.704 Y17.834
X-1.711 Y18.665
X-1.716 Y19.497
X-1.72 Y20.328
X-1.723 Y21.159
X-1.726 Y21.991
X-1.728 Y22.822
X-1.732 Y24.485
X-1.735 Y26.979
X-1.736 Y30.305
X-1.738 Y36.956
Y73.536
Y124.25
Y135.889
X-1.611 Y136.711
X-1.263 Y137.466
X-0.771 Y138.136
X-0.178 Y138.719
X0.485 Y139.221
X1.198 Y139.648
X1.947 Y140.009
X2.721 Y140.311
X3.513 Y140.564
X4.318 Y140.774
X5.131 Y140.948
X5.949 Y141.092
X6.772 Y141.21
X7.598 Y141.307
X8.426 Y141.387
X9.255 Y141.452
X10.084 Y141.505
X10.914 Y141.548
X11.745 Y141.584
X12.576 Y141.612
X13.407 Y141.636
X14.238 Y141.655
X15.069 Y141.67
X15.901 Y141.683
X16.732 Y141.693
X17.563 Y141.701
X18.395 Y141.708
X19.226 Y141.714
X20.057 Y141.718
X20.889 Y141.722
X21.72 Y141.725
X23.383 Y141.729
X23.998 Y141.73
X24.341 Y141.756
X24.676 Y141.831
X24.998 Y141.953
X25.298 Y142.121
X25.571 Y142.33
X25.765 Y142.503
X26.001 Y142.667
X26.335 Y142.897
X26.422 Y142.952
X26.619 Y143.065
X26.904 Y143.216
X26.948 Y143.237
X27.473 Y143.484
X27.565 Y143.522
X27.758 Y143.6
X28.043 Y143.709
X28.332 Y143.807
X28.612 Y143.901
X28.897 Y143.986
X29.182 Y144.07
X29.26 Y144.092
X29.466 Y144.144
X29.751 Y144.214
X30.036 Y144.277
X30.32 Y144.339
X30.506 Y144.377
X30.89 Y144.449
X31.174 Y144.499
X31.459 Y144.544
X31.744 Y144.588
X32.288 Y144.662
X32.598 Y144.699
X32.599
G2 X32.954 Y144.81 I7.292 J-22.718
X34.607 Y145.248 I6.937 J-22.828
X34.815 Y145.272 I0.21 J-0.926
G1 X44.84 Y145.299
G2 X45.047 Y145.277 I0.003 J-0.95
X46.703 Y144.848 I-5.156 J-23.295
X47.058 Y144.739 I-6.812 J-22.866
G1 X47.06
X47.117 Y144.733
X47.712 Y144.662
X48.256 Y144.588
X48.541 Y144.544
X48.826 Y144.499
X49.11 Y144.449
X49.494 Y144.377
X49.68 Y144.339
X49.964 Y144.277
X50.249 Y144.214
X50.534 Y144.144
X50.74 Y144.092
X50.818 Y144.07
X51.103 Y143.986
X51.388 Y143.901
X51.672 Y143.805
X51.957 Y143.709
X52.242 Y143.6
X52.435 Y143.522
X52.527 Y143.484
X52.811 Y143.35
X53.196 Y143.193
X53.827 Y142.953
X54.622 Y142.709
X55.431 Y142.518
X56.248 Y142.365
X57.071 Y142.243
X57.896 Y142.146
X58.724 Y142.068
X59.553 Y142.004
X60.383 Y141.954
X61.213 Y141.912
X62.044 Y141.879
X62.875 Y141.852
X63.706 Y141.831
X64.537 Y141.813
X65.368 Y141.799
X66.2 Y141.787
X67.031 Y141.778
X67.862 Y141.77
X68.694 Y141.764
X69.525 Y141.759
X70.357 Y141.755
X71.188 Y141.752
X72.019 Y141.749
X73.682 Y141.745
X75.345 Y141.742
X76.176
X76.979 Y141.526
X77.706 Y141.122
X78.346 Y140.591
X78.9 Y139.972
X79.375 Y139.29
X79.779 Y138.563
X80.119 Y137.804
X80.404 Y137.023
X80.641 Y136.226
X80.838 Y135.419
X81.001 Y134.604
X81.136 Y133.783
X81.246 Y132.959
X81.337 Y132.133
X81.411 Y131.305
X81.472 Y130.475
X81.521 Y129.646
X81.562 Y128.815
X81.595 Y127.984
X81.621 Y127.153
X81.643 Y126.322
X81.661 Y125.491
X81.675 Y124.66
X81.687 Y123.829
X81.697 Y122.997
X81.704 Y122.166
X81.711 Y121.335
X81.716 Y120.503
X81.72 Y119.672
X81.723 Y118.841
X81.726 Y118.009
X81.728 Y117.178
X81.732 Y115.515
X81.735 Y113.021
X81.736 Y109.695
X81.738 Y103.044
Y66.464
Y15.75
Y4.111
X81.611 Y3.289
X81.263 Y2.534
X80.771 Y1.864
X80.178 Y1.281
X79.515 Y0.779
X78.802 Y0.352
X78.053 Y-0.009
X77.279 Y-0.311
X76.487 Y-0.564
X75.682 Y-0.774
X74.869 Y-0.948
X74.05 Y-1.092
X73.228 Y-1.21
X72.402 Y-1.307
X71.574 Y-1.387
X70.745 Y-1.452
X69.916 Y-1.505
X69.086 Y-1.548
X68.255 Y-1.584
X67.424 Y-1.612
X66.593 Y-1.636
X65.762 Y-1.655
X64.931 Y-1.67
X64.099 Y-1.683
X63.268 Y-1.693
X62.437 Y-1.701
X61.605 Y-1.708
X60.774 Y-1.714
X59.943 Y-1.718
X59.111 Y-1.722
X58.28 Y-1.725
X56.617 Y-1.729
X56.002 Y-1.73
X55.659 Y-1.756
X55.324 Y-1.831
X55.002 Y-1.953
X54.702 Y-2.121
X54.429 Y-2.33
X54.235 Y-2.503
X53.999 Y-2.667
X53.665 Y-2.897
X53.578 Y-2.952
X53.381 Y-3.065
X53.096 Y-3.216
X53.052 Y-3.237
X52.527 Y-3.484
X52.435 Y-3.522
X52.242 Y-3.6
X51.957 Y-3.709
X51.668 Y-3.807
X51.388 Y-3.901
X51.103 Y-3.986
X50.818 Y-4.07
X50.74 Y-4.092
X50.534 Y-4.144
X50.249 Y-4.214
X49.964 Y-4.277
X49.68 Y-4.339
X49.494 Y-4.377
X49.11 Y-4.449
X48.826 Y-4.499
X48.541 Y-4.544
X48.256 Y-4.588
X47.712 Y-4.662
X47.402 Y-4.699
X47.399 Y-4.7
G2 X47.067 Y-4.864 I-8.965 J17.751
X44.181 Y-5.987 I-8.633 J17.915
X43.843 Y-6.025 I-0.275 J0.909
G1 X30.538 Y-5.137
G2 X30.209 Y-5.054 I0.063 J0.948
X27.498 Y-3.558 I8.226 J18.105
X27.19 Y-3.351 I10.936 J16.609
G1 X27.189 Y-3.35
X26.948 Y-3.237
X26.904 Y-3.216
X26.619 Y-3.065
X26.422 Y-2.952
X26.335 Y-2.897
X26.001 Y-2.667
X25.765 Y-2.503
X25.309 Y-2.097
X25.252 Y-2.045
X25.196 Y-1.985
X25.184 Y-1.969
X25.15 Y-1.93
X24.979 Y-1.749
X24.764 Y-1.549
X24.501 Y-1.335
X24.176 Y-1.105
X23.774 Y-0.859
X23.281 Y-0.601
X22.668 Y-0.33
X21.892 Y-0.047
X21.094 Y0.185
X20.285 Y0.375
X19.468 Y0.531
X18.646 Y0.659
X17.822 Y0.764
X16.995 Y0.851
X16.167 Y0.922
X15.337 Y0.981
X14.507 Y1.03
X13.677 Y1.071
X12.846 Y1.104
X12.015 Y1.131
X11.184 Y1.154
X10.353 Y1.173
X9.522 Y1.189
X8.691 Y1.202
X7.859 Y1.221
X7.028 Y1.234
X6.197 Y1.242
X5.366 Y1.273
X4.583 Y1.553
X3.919 Y2.053
X3.383 Y2.688
X2.955 Y3.401
X2.615 Y4.16
X2.347 Y4.947
X2.133 Y5.75
X1.962 Y6.564
X1.826 Y7.384
X1.717 Y8.208
X1.629 Y9.035
X1.558 Y9.863
X1.502 Y10.693
X1.456 Y11.523
X1.419 Y12.353
X1.389 Y13.184
X1.365 Y14.015
X1.346 Y14.846
X1.33 Y15.678
X1.317 Y16.509
X1.307 Y17.34
X1.298 Y18.172
X1.291 Y19.003
X1.286 Y19.834
X1.281 Y20.666
X1.278 Y21.497
X1.275 Y22.328
X1.27 Y23.991
X1.268 Y25.654
X1.265 Y28.148
X1.264 Y29.811
X1.263 Y34.799
X1.262 Y52.258
Y80.525
Y131.239
Y133.733
X1.28 Y134.564
X1.534 Y135.356
X2.019 Y136.031
X2.645 Y136.577
X3.353 Y137.013
X4.109 Y137.359
X4.894 Y137.633
X5.697 Y137.851
X6.51 Y138.025
X7.329 Y138.164
X8.153 Y138.275
X8.98 Y138.364
X9.808 Y138.436
X10.637 Y138.493
X11.467 Y138.54
X12.298 Y138.578
X13.129 Y138.608
X13.96 Y138.632
X14.791 Y138.652
X15.622 Y138.668
X16.453 Y138.681
X17.285 Y138.692
X18.116 Y138.701
X18.947 Y138.708
X19.779 Y138.713
X20.61 Y138.718
X21.441 Y138.735
X22.271 Y138.786
X22.29 Y138.788
X22.693 Y138.871
X23.076 Y139.019
X23.43 Y139.226
X23.746 Y139.489
X24.015 Y139.799
X24.23 Y140.149
X24.385 Y140.53
X24.43 Y140.672
G3 X24.458 Y141.042 I-0.915 J0.254
G1 X24.444 Y141.156 Z-6.293
X24.43 Y141.268 Z-6.272
X24.417 Y141.376 Z-6.238
X24.404 Y141.48 Z-6.191
X24.392 Y141.578 Z-6.132
X24.381 Y141.667 Z-6.061
X24.371 Y141.748 Z-5.98
X24.363 Y141.818 Z-5.89
X24.355 Y141.877 Z-5.791
X24.35 Y141.924 Z-5.687
X24.346 Y141.957 Z-5.577
X24.343 Y141.978 Z-5.465
X24.342 Y141.985 Z-5.35
G0 Z5
X52.28 Y144.539
Z-4.4
G1 Z-5.35 F1000
X52.282 Y144.532 Z-5.465
X52.288 Y144.513 Z-5.577
X52.299 Y144.48 Z-5.687
X52.313 Y144.435 Z-5.791
X52.331 Y144.379 Z-5.89
X52.353 Y144.312 Z-5.98
X52.377 Y144.234 Z-6.061
X52.405 Y144.148 Z-6.132
X52.435 Y144.055 Z-6.191
X52.467 Y143.955 Z-6.238
X52.5 Y143.851 Z-6.272
X52.535 Y143.744 Z-6.293
X52.57 Y143.634 Z-6.3
G3 X52.811 Y143.35 I0.463 J0.149
G1 X53.052 Y143.237
X53.096 Y143.216
X53.381 Y143.065
X53.578 Y142.952
X53.665 Y142.897
X53.999 Y142.667
X54.235 Y142.503
X54.691 Y142.097
X54.748 Y142.045
X54.804 Y141.985
X54.816 Y141.969
X54.85 Y141.93
X55.021 Y141.749
X55.236 Y141.549
X55.499 Y141.335
X55.824 Y141.105
X56.226 Y140.859
X56.719 Y140.601
X57.332 Y140.33
X58.108 Y140.047
X58.906 Y139.815
X59.715 Y139.625
X60.532 Y139.469
X61.354 Y139.341
X62.178 Y139.236
X63.005 Y139.149
X63.833 Y139.078
X64.663 Y139.019
X65.493 Y138.97
X66.323 Y138.929
X67.154 Y138.896
X67.985 Y138.869
X68.816 Y138.846
X69.647 Y138.827
X70.478 Y138.811
X71.309 Y138.798
X72.141 Y138.779
X72.972 Y138.766
X73.803 Y138.758
X74.634 Y138.727
X75.417 Y138.447
X76.081 Y137.947
X76.617 Y137.312
X77.045 Y136.599
X77.385 Y135.84
X77.653 Y135.053
X77.867 Y134.25
X78.038 Y133.436
X78.174 Y132.616
X78.283 Y131.792
X78.371 Y130.965
X78.442 Y130.137
X78.498 Y129.307
X78.544 Y128.477
X78.581 Y127.647
X78.611 Y126.816
X78.635 Y125.985
X78.654 Y125.154
X78.67 Y124.322
X78.683 Y123.491
X78.693 Y122.66
X78.702 Y121.828
X78.709 Y120.997
X78.714 Y120.166
X78.719 Y119.334
X78.722 Y118.503
X78.725 Y117.672
X78.73 Y116.009
X78.732 Y114.346
X78.735 Y111.852
X78.736 Y110.189
X78.737 Y105.201
X78.738 Y87.742
Y59.475
Y8.761
Y6.267
X78.72 Y5.436
X78.466 Y4.644
X77.981 Y3.969
X77.355 Y3.423
X76.647 Y2.987
X75.891 Y2.641
X75.106 Y2.367
X74.303 Y2.149
X73.49 Y1.975
X72.671 Y1.836
X71.847 Y1.725
X71.02 Y1.636
X70.192 Y1.564
X69.363 Y1.507
X68.533 Y1.46
X67.702 Y1.422
X66.871 Y1.392
X66.04 Y1.368
X65.209 Y1.348
X64.378 Y1.332
X63.547 Y1.319
X62.715 Y1.308
X61.884 Y1.299
X61.053 Y1.292
X60.221 Y1.287
X59.39 Y1.282
X58.559 Y1.265
X57.729 Y1.214
X57.71 Y1.212
X57.307 Y1.129
X56.924 Y0.981
X56.57 Y0.774
X56.254 Y0.511
X55.985 Y0.201
X55.77 Y-0.149
X55.615 Y-0.53
X55.57 Y-0.672
G3 X55.542 Y-1.042 I0.915 J-0.254
G1 X55.556 Y-1.156 Z-6.293
X55.57 Y-1.268 Z-6.272
X55.583 Y-1.376 Z-6.238
X55.596 Y-1.48 Z-6.191
X55.608 Y-1.578 Z-6.132
X55.619 Y-1.667 Z-6.061
X55.629 Y-1.748 Z-5.98
X55.637 Y-1.818 Z-5.89
X55.645 Y-1.877 Z-5.791
X55.65 Y-1.924 Z-5.687
X55.654 Y-1.957 Z-5.577
X55.657 Y-1.978 Z-5.465
X55.658 Y-1.985 Z-5.35
G0 Z5
X25.441 Y-3.258
Z-4.4
G1 Z-5.35 F1000
X25.44 Y-3.251 Z-5.465
X25.437 Y-3.231 Z-5.577
X25.433 Y-3.197 Z-5.687
X25.427 Y-3.15 Z-5.791
X25.419 Y-3.091 Z-5.89
X25.41 Y-3.021 Z-5.98
X25.4 Y-2.941 Z-6.061
X25.389 Y-2.851 Z-6.132
X25.377 Y-2.754 Z-6.191
X25.363 Y-2.65 Z-6.238
X25.35 Y-2.541 Z-6.272
X25.335 Y-2.429 Z-6.293
X25.321 Y-2.316 Z-6.3
G3 X25.184 Y-1.969 I-0.746 J-0.095
G1 X24.839 Y-1.527
X24.667 Y-1.242
X24.529 Y-0.983
X24.524 Y-0.97
X24.43 Y-0.672
X24.394 Y-0.575
X24.32 Y-0.409
X24.217 Y-0.215
X24.098 Y-0.021
X23.941 Y0.199
X23.751 Y0.43
X23.519 Y0.678
X23.241 Y0.938
X22.899 Y1.218
X22.499 Y1.502
X22.011 Y1.803
X21.42 Y2.115
X20.698 Y2.437
X19.918 Y2.724
X19.122 Y2.965
X18.316 Y3.169
X17.503 Y3.341
X16.684 Y3.486
X15.862 Y3.608
X15.037 Y3.711
X14.21 Y3.798
X13.382 Y3.871
X12.553 Y3.933
X11.723 Y3.987
X10.893 Y4.033
X10.064 Y4.095
X9.234 Y4.141
X8.403 Y4.175
X7.572 Y4.201
X7.174 Y4.32
X6.802 Y4.506
X6.468 Y4.754
X5.898 Y5.358
X5.874 Y5.404
X5.492 Y6.143
X5.209 Y6.925
X4.997 Y7.729
X4.837 Y8.544
X4.714 Y9.367
X4.619 Y10.192
X4.545 Y11.021
X4.487 Y11.85
X4.442 Y12.68
X4.406 Y13.511
X4.378 Y14.342
X4.355 Y15.173
X4.337 Y16.004
X4.323 Y16.835
X4.311 Y17.666
X4.302 Y18.498
X4.294 Y19.329
X4.288 Y20.16
X4.283 Y20.992
X4.279 Y21.823
X4.276 Y22.654
X4.271 Y24.317
X4.268 Y25.98
X4.265 Y28.474
X4.263 Y31.8
Y35.125
X4.262 Y50.921
Y85.839
Y131.565
X4.263 Y132.396
X4.364 Y132.799
X4.534 Y133.179
X4.768 Y133.522
X5.348 Y134.118
X5.394 Y134.142
X6.137 Y134.516
X6.92 Y134.795
X7.724 Y135.004
X8.54 Y135.164
X9.363 Y135.286
X10.189 Y135.381
X11.017 Y135.454
X11.846 Y135.512
X12.676 Y135.557
X13.507 Y135.593
X14.338 Y135.621
X15.169 Y135.644
X16 Y135.662
X16.831 Y135.677
X17.663 Y135.688
X18.494 Y135.703
X19.325 Y135.728
X20.155 Y135.781
X20.899 Y135.871
X21.535 Y135.991
X22.06 Y136.127
X22.542 Y136.286
X22.979 Y136.464
X22.986 Y136.467
X23.313 Y136.66
X23.604 Y136.901
X23.854 Y137.187
X24.055 Y137.508
X24.202 Y137.857
X24.292 Y138.225
X24.323 Y138.603
Y139.532
Y139.817
X24.332 Y140.102
X24.381 Y140.512
X24.385 Y140.53
G3 X24.383 Y140.9 I-0.933 J0.178
G1 X24.359 Y141.013 Z-6.293
X24.337 Y141.123 Z-6.272
X24.314 Y141.23 Z-6.238
X24.293 Y141.333 Z-6.191
X24.273 Y141.429 Z-6.132
X24.255 Y141.517 Z-6.061
X24.239 Y141.597 Z-5.98
X24.224 Y141.666 Z-5.89
X24.212 Y141.724 Z-5.791
X24.203 Y141.77 Z-5.687
X24.196 Y141.804 Z-5.577
X24.192 Y141.824 Z-5.465
X24.19 Y141.831 Z-5.35
G0 Z5
X54.56 Y143.258
Z-4.4
G1 Z-5.35 F1000
Y143.251 Z-5.465
X54.563 Y143.231 Z-5.577
X54.567 Y143.197 Z-5.687
X54.573 Y143.15 Z-5.791
X54.581 Y143.091 Z-5.89
X54.59 Y143.021 Z-5.98
X54.6 Y142.941 Z-6.061
X54.611 Y142.851 Z-6.132
X54.623 Y142.754 Z-6.191
X54.637 Y142.65 Z-6.238
X54.65 Y142.541 Z-6.272
X54.665 Y142.429 Z-6.293
X54.679 Y142.316 Z-6.3
G3 X54.816 Y141.969 I0.746 J0.095
G1 X55.161 Y141.527
X55.333 Y141.242
X55.471 Y140.983
X55.476 Y140.97
X55.57 Y140.672
X55.606 Y140.575
X55.68 Y140.409
X55.783 Y140.215
X55.902 Y140.021
X56.059 Y139.801
X56.249 Y139.57
X56.481 Y139.322
X56.759 Y139.062
X57.101 Y138.782
X57.501 Y138.498
X57.989 Y138.197
X58.58 Y137.885
X59.302 Y137.563
X60.082 Y137.276
X60.878 Y137.035
X61.684 Y136.831
X62.497 Y136.659
X63.316 Y136.514
X64.138 Y136.392
X64.963 Y136.289
X65.79 Y136.202
X66.618 Y136.129
X67.447 Y136.067
X68.277 Y136.013
X69.107 Y135.967
X69.936 Y135.905
X70.766 Y135.859
X71.597 Y135.825
X72.428 Y135.799
X72.826 Y135.68
X73.198 Y135.494
X73.532 Y135.246
X74.102 Y134.642
X74.126 Y134.596
X74.508 Y133.857
X74.791 Y133.075
X75.003 Y132.271
X75.163 Y131.456
X75.286 Y130.633
X75.381 Y129.808
X75.455 Y128.979
X75.513 Y128.15
X75.558 Y127.32
X75.594 Y126.489
X75.622 Y125.658
X75.645 Y124.827
X75.663 Y123.996
X75.677 Y123.165
X75.689 Y122.334
X75.698 Y121.502
X75.706 Y120.671
X75.712 Y119.84
X75.717 Y119.008
X75.721 Y118.177
X75.724 Y117.346
X75.729 Y115.683
X75.732 Y114.02
X75.735 Y111.526
X75.737 Y108.2
Y104.875
X75.738 Y89.079
Y54.161
Y8.435
X75.737 Y7.604
X75.636 Y7.201
X75.466 Y6.821
X75.232 Y6.478
X74.652 Y5.882
X74.606 Y5.858
X73.863 Y5.484
X73.08 Y5.205
X72.276 Y4.996
X71.46 Y4.836
X70.637 Y4.714
X69.811 Y4.619
X68.983 Y4.546
X68.154 Y4.488
X67.324 Y4.443
X66.493 Y4.407
X65.662 Y4.379
X64.831 Y4.356
X64 Y4.338
X63.169 Y4.323
X62.337 Y4.312
X61.506 Y4.297
X60.675 Y4.272
X59.845 Y4.219
X59.101 Y4.129
X58.465 Y4.009
X57.94 Y3.873
X57.458 Y3.714
X57.021 Y3.536
X57.014 Y3.533
X56.687 Y3.34
X56.396 Y3.099
X56.146 Y2.813
X55.945 Y2.492
X55.798 Y2.143
X55.708 Y1.775
X55.677 Y1.397
Y0.468
Y0.183
X55.668 Y-0.102
X55.619 Y-0.512
X55.615 Y-0.53
G3 X55.617 Y-0.9 I0.933 J-0.178
G1 X55.641 Y-1.013 Z-6.293
X55.663 Y-1.123 Z-6.272
X55.686 Y-1.23 Z-6.238
X55.707 Y-1.333 Z-6.191
X55.727 Y-1.429 Z-6.132
X55.745 Y-1.517 Z-6.061
X55.761 Y-1.597 Z-5.98
X55.776 Y-1.666 Z-5.89
X55.788 Y-1.724 Z-5.791
X55.797 Y-1.77 Z-5.687
X55.804 Y-1.804 Z-5.577
X55.808 Y-1.824 Z-5.465
X55.81 Y-1.831 Z-5.35
G0 Z5
X23.915 Y-1.869
Z-4.4
G1 Z-5.35 F1000
X23.919 Y-1.863 Z-5.465
X23.929 Y-1.845 Z-5.577
X23.946 Y-1.815 Z-5.687
X23.969 Y-1.774 Z-5.791
X23.998 Y-1.722 Z-5.89
X24.033 Y-1.661 Z-5.98
X24.073 Y-1.59 Z-6.061
X24.118 Y-1.512 Z-6.132
X24.167 Y-1.426 Z-6.191
X24.218 Y-1.335 Z-6.238
X24.272 Y-1.24 Z-6.272
X24.328 Y-1.142 Z-6.293
X24.385 Y-1.043 Z-6.3
G3 X24.43 Y-0.672 I-0.423 J0.24
G1 X24.385 Y-0.53
X24.381 Y-0.512
X24.332 Y-0.102
X24.323 Y0.183
Y0.468
X24.317 Y0.571
X24.299 Y0.731
X24.268 Y0.901
X24.22 Y1.093
X24.153 Y1.299
X24.063 Y1.525
X23.947 Y1.768
X23.803 Y2.024
X23.618 Y2.307
X23.404 Y2.591
X23.135 Y2.902
X22.825 Y3.216
X22.453 Y3.547
X22.004 Y3.894
X21.483 Y4.245
X20.862 Y4.606
X20.117 Y4.974
X19.349 Y5.293
X18.565 Y5.569
X17.768 Y5.806
X16.962 Y6.012
X16.15 Y6.189
X15.333 Y6.341
X14.512 Y6.473
X13.689 Y6.592
X12.867 Y6.718
X12.045 Y6.843
X11.22 Y6.942
X10.392 Y7.019
X9.978 Y7.05
X9.575 Y7.152
X9.196 Y7.322
X8.852 Y7.557
X8.555 Y7.847
X8.313 Y8.185
X7.954 Y8.935
X7.803 Y9.753
X7.686 Y10.576
X7.595 Y11.402
X7.524 Y12.23
X7.469 Y13.06
X7.426 Y13.89
X7.393 Y14.721
X7.366 Y15.552
X7.346 Y16.383
X7.329 Y17.214
X7.316 Y18.045
X7.305 Y18.877
X7.297 Y19.708
X7.29 Y20.539
X7.285 Y21.371
X7.28 Y22.202
X7.277 Y23.034
X7.274 Y23.865
X7.27 Y25.528
X7.267 Y27.19
X7.265 Y29.685
X7.263 Y33.841
X7.262 Y39.661
Y90.375
Y129.865
X7.285 Y130.28
X7.381 Y130.685
X7.545 Y131.067
X7.774 Y131.414
X8.059 Y131.716
X8.393 Y131.964
X8.765 Y132.15
X9.562 Y132.386
X10.392 Y132.429
X11.222 Y132.474
X12.053 Y132.516
X12.883 Y132.554
X13.714 Y132.586
X14.545 Y132.614
X15.376 Y132.636
X16.207 Y132.658
X17.038 Y132.686
X17.868 Y132.729
X18.697 Y132.792
X19.524 Y132.883
X20.345 Y133.008
X21.137 Y133.169
X21.757 Y133.34
X22.311 Y133.532
X22.781 Y133.731
X23.017 Y133.85
X23.337 Y134.044
X23.622 Y134.286
X23.866 Y134.57
X24.062 Y134.888
X24.205 Y135.234
X24.293 Y135.597
X24.323 Y135.97
Y138.603
G3 X24.238 Y138.964 I-0.949 J-0.033
G1 X24.19 Y139.068 Z-6.293
X24.143 Y139.171 Z-6.272
X24.098 Y139.27 Z-6.238
X24.055 Y139.366 Z-6.191
X24.014 Y139.455 Z-6.132
X23.976 Y139.537 Z-6.061
X23.943 Y139.611 Z-5.98
X23.913 Y139.675 Z-5.89
X23.889 Y139.729 Z-5.791
X23.869 Y139.772 Z-5.687
X23.855 Y139.803 Z-5.577
X23.847 Y139.822 Z-5.465
X23.844 Y139.828 Z-5.35
G0 Z5
X56.085 Y141.869
Z-4.4
G1 Z-5.35 F1000
X56.081 Y141.863 Z-5.465
X56.071 Y141.845 Z-5.577
X56.054 Y141.815 Z-5.687
X56.031 Y141.774 Z-5.791
X56.002 Y141.722 Z-5.89
X55.967 Y141.661 Z-5.98
X55.927 Y141.59 Z-6.061
X55.882 Y141.512 Z-6.132
X55.833 Y141.426 Z-6.191
X55.782 Y141.335 Z-6.238
X55.728 Y141.24 Z-6.272
X55.672 Y141.142 Z-6.293
X55.615 Y141.043 Z-6.3
G3 X55.57 Y140.672 I0.423 J-0.24
G1 X55.615 Y140.53
X55.619 Y140.512
X55.668 Y140.102
X55.677 Y139.817
Y139.532
X55.683 Y139.429
X55.701 Y139.269
X55.732 Y139.099
X55.78 Y138.907
X55.847 Y138.701
X55.937 Y138.475
X56.053 Y138.232
X56.197 Y137.976
X56.382 Y137.693
X56.596 Y137.409
X56.865 Y137.098
X57.175 Y136.784
X57.547 Y136.453
X57.996 Y136.106
X58.517 Y135.755
X59.138 Y135.394
X59.883 Y135.026
X60.651 Y134.707
X61.435 Y134.431
X62.232 Y134.194
X63.038 Y133.988
X63.85 Y133.811
X64.667 Y133.659
X65.488 Y133.527
X66.311 Y133.408
X67.133 Y133.282
X67.955 Y133.157
X68.78 Y133.058
X69.608 Y132.981
X70.022 Y132.95
X70.425 Y132.848
X70.804 Y132.678
X71.148 Y132.443
X71.445 Y132.153
X71.687 Y131.815
X72.046 Y131.065
X72.197 Y130.247
X72.314 Y129.424
X72.405 Y128.598
X72.476 Y127.77
X72.531 Y126.94
X72.574 Y126.11
X72.607 Y125.279
X72.634 Y124.448
X72.654 Y123.617
X72.671 Y122.786
X72.684 Y121.954
X72.695 Y121.123
X72.703 Y120.292
X72.71 Y119.461
X72.715 Y118.629
X72.72 Y117.798
X72.723 Y116.966
X72.726 Y116.135
X72.73 Y114.472
X72.733 Y112.81
X72.735 Y110.315
X72.737 Y106.159
X72.738 Y100.339
Y49.625
Y10.135
X72.715 Y9.72
X72.619 Y9.315
X72.455 Y8.933
X72.226 Y8.586
X71.941 Y8.284
X71.607 Y8.036
X71.235 Y7.85
X70.438 Y7.614
X69.608 Y7.571
X68.778 Y7.526
X67.947 Y7.484
X67.117 Y7.446
X66.286 Y7.414
X65.455 Y7.386
X64.624 Y7.364
X63.793 Y7.342
X62.962 Y7.314
X62.132 Y7.271
X61.303 Y7.208
X60.476 Y7.117
X59.655 Y6.992
X58.863 Y6.831
X58.243 Y6.66
X57.689 Y6.468
X57.219 Y6.269
X56.983 Y6.15
X56.663 Y5.956
X56.378 Y5.714
X56.134 Y5.43
X55.938 Y5.112
X55.795 Y4.766
X55.707 Y4.403
X55.677 Y4.03
Y1.397
G3 X55.762 Y1.036 I0.949 J0.033
G1 X55.81 Y0.932 Z-6.293
X55.857 Y0.829 Z-6.272
X55.902 Y0.73 Z-6.238
X55.945 Y0.634 Z-6.191
X55.986 Y0.545 Z-6.132
X56.024 Y0.463 Z-6.061
X56.057 Y0.389 Z-5.98
X56.087 Y0.325 Z-5.89
X56.111 Y0.271 Z-5.791
X56.131 Y0.228 Z-5.687
X56.145 Y0.197 Z-5.577
X56.153 Y0.178 Z-5.465
X56.156 Y0.172 Z-5.35
G0 Z5
X23.472 Y-0.519
Z-4.4
G1 Z-5.35 F1000
X23.477 Y-0.514 Z-5.465
X23.492 Y-0.5 Z-5.577
X23.517 Y-0.477 Z-5.687
X23.552 Y-0.445 Z-5.791
X23.595 Y-0.404 Z-5.89
X23.647 Y-0.356 Z-5.98
X23.707 Y-0.301 Z-6.061
X23.773 Y-0.239 Z-6.132
X23.845 Y-0.172 Z-6.191
X23.921 Y-0.101 Z-6.238
X24.001 Y-0.027 Z-6.272
X24.084 Y0.05 Z-6.293
X24.168 Y0.128 Z-6.3
G3 X24.323 Y0.468 I-0.331 J0.356
G1 Y2.334
X24.312 Y2.542
X24.292 Y2.732
X24.254 Y2.948
X24.199 Y3.176
X24.118 Y3.431
X24.015 Y3.696
X23.878 Y3.988
X23.711 Y4.289
X23.5 Y4.617
X23.251 Y4.953
X22.944 Y5.314
X22.594 Y5.674
X22.169 Y6.057
X21.665 Y6.454
X21.081 Y6.853
X20.386 Y7.263
X19.644 Y7.638
X18.881 Y7.968
X18.102 Y8.258
X17.311 Y8.514
X16.512 Y8.744
X15.707 Y8.954
X14.915 Y9.205
X14.11 Y9.412
X13.296 Y9.584
X12.477 Y9.724
X12.099 Y9.898
X11.758 Y10.135
X11.463 Y10.428
X11.224 Y10.768
X10.871 Y11.521
X10.71 Y12.337
X10.596 Y13.16
X10.514 Y13.987
X10.454 Y14.817
X10.409 Y15.647
X10.376 Y16.478
X10.351 Y17.309
X10.332 Y18.14
X10.317 Y18.971
X10.305 Y19.802
X10.297 Y20.634
X10.29 Y21.465
X10.284 Y22.296
X10.28 Y23.128
X10.276 Y23.959
X10.273 Y24.79
X10.269 Y26.453
X10.267 Y28.116
X10.265 Y30.61
X10.263 Y34.767
X10.262 Y44.743
Y95.457
Y127.881
X10.335 Y128.29
X10.477 Y128.681
X10.686 Y129.04
X10.954 Y129.358
X11.273 Y129.624
X11.634 Y129.83
X12.026 Y129.97
X12.845 Y130.11
X13.673 Y130.028
X14.502 Y129.971
X15.333 Y129.936
X16.164 Y129.925
X16.995 Y129.938
X17.826 Y129.976
X18.654 Y130.042
X19.48 Y130.141
X20.3 Y130.278
X21.112 Y130.457
X21.769 Y130.648
X22.34 Y130.856
X22.819 Y131.067
X23.048 Y131.187
X23.361 Y131.383
X23.64 Y131.625
X23.877 Y131.907
X24.069 Y132.223
X24.209 Y132.565
X24.294 Y132.924
X24.323 Y133.292
Y135.97
G3 X24.238 Y136.331 I-0.949 J-0.033
G1 X24.19 Y136.435 Z-6.293
X24.143 Y136.538 Z-6.272
X24.098 Y136.638 Z-6.238
X24.055 Y136.733 Z-6.191
X24.014 Y136.822 Z-6.132
X23.976 Y136.904 Z-6.061
X23.943 Y136.978 Z-5.98
X23.913 Y137.043 Z-5.89
X23.889 Y137.097 Z-5.791
X23.869 Y137.139 Z-5.687
X23.855 Y137.17 Z-5.577
X23.847 Y137.189 Z-5.465
X23.844 Y137.196 Z-5.35
G0 Z5
X56.528 Y140.519
Z-4.4
G1 Z-5.35 F1000
X56.523 Y140.514 Z-5.465
X56.508 Y140.5 Z-5.577
X56.483 Y140.477 Z-5.687
X56.448 Y140.445 Z-5.791
X56.405 Y140.404 Z-5.89
X56.353 Y140.356 Z-5.98
X56.293 Y140.301 Z-6.061
X56.227 Y140.239 Z-6.132
X56.155 Y140.172 Z-6.191
X56.079 Y140.101 Z-6.238
X55.999 Y140.027 Z-6.272
X55.916 Y139.95 Z-6.293
X55.832 Y139.872 Z-6.3
G3 X55.677 Y139.532 I0.331 J-0.356
G1 Y137.666
X55.688 Y137.458
X55.708 Y137.268
X55.746 Y137.052
X55.801 Y136.824
X55.882 Y136.569
X55.985 Y136.304
X56.122 Y136.012
X56.289 Y135.711
X56.5 Y135.383
X56.749 Y135.047
X57.056 Y134.686
X57.406 Y134.326
X57.831 Y133.943
X58.335 Y133.546
X58.919 Y133.147
X59.614 Y132.737
X60.356 Y132.362
X61.119 Y132.032
X61.898 Y131.742
X62.689 Y131.486
X63.488 Y131.256
X64.293 Y131.046
X65.085 Y130.795
X65.89 Y130.588
X66.704 Y130.416
X67.523 Y130.276
X67.901 Y130.102
X68.242 Y129.865
X68.537 Y129.572
X68.776 Y129.232
X69.129 Y128.479
X69.29 Y127.663
X69.404 Y126.84
X69.486 Y126.013
X69.547 Y125.183
X69.591 Y124.353
X69.624 Y123.522
X69.649 Y122.691
X69.668 Y121.86
X69.683 Y121.029
X69.695 Y120.198
X69.703 Y119.366
X69.71 Y118.535
X69.716 Y117.704
X69.72 Y116.872
X69.724 Y116.041
X69.727 Y115.21
X69.731 Y113.547
X69.733 Y111.884
X69.735 Y109.39
X69.737 Y105.233
X69.738 Y95.257
Y44.543
Y12.119
X69.665 Y11.71
X69.523 Y11.319
X69.314 Y10.96
X69.046 Y10.642
X68.727 Y10.376
X68.366 Y10.17
X67.974 Y10.03
X67.155 Y9.89
X66.327 Y9.972
X65.498 Y10.029
X64.667 Y10.064
X63.836 Y10.075
X63.005 Y10.062
X62.174 Y10.024
X61.346 Y9.958
X60.52 Y9.859
X59.7 Y9.722
X58.888 Y9.543
X58.231 Y9.352
X57.66 Y9.144
X57.181 Y8.933
X56.952 Y8.813
X56.639 Y8.617
X56.36 Y8.375
X56.123 Y8.093
X55.931 Y7.777
X55.791 Y7.435
X55.706 Y7.076
X55.677 Y6.708
Y4.03
G3 X55.762 Y3.669 I0.949 J0.033
G1 X55.81 Y3.565 Z-6.293
X55.857 Y3.462 Z-6.272
X55.902 Y3.362 Z-6.238
X55.945 Y3.267 Z-6.191
X55.986 Y3.178 Z-6.132
X56.024 Y3.096 Z-6.061
X56.057 Y3.022 Z-5.98
X56.087 Y2.957 Z-5.89
X56.111 Y2.903 Z-5.791
X56.131 Y2.861 Z-5.687
X56.145 Y2.83 Z-5.577
X56.153 Y2.811 Z-5.465
X56.156 Y2.804 Z-5.35
G0 Z5
X23.472 Y1.348
Z-4.4
G1 Z-5.35 F1000
X23.477 Y1.353 Z-5.465
X23.492 Y1.367 Z-5.577
X23.517 Y1.39 Z-5.687
X23.551 Y1.422 Z-5.791
X23.595 Y1.463 Z-5.89
X23.647 Y1.511 Z-5.98
X23.706 Y1.566 Z-6.061
X23.772 Y1.627 Z-6.132
X23.844 Y1.694 Z-6.191
X23.921 Y1.766 Z-6.238
X24.001 Y1.84 Z-6.272
X24.084 Y1.917 Z-6.293
X24.168 Y1.995 Z-6.3
G3 X24.323 Y2.334 I-0.331 J0.356
G1 Y4.614
X24.312 Y4.821
X24.286 Y5.045
X24.244 Y5.275
X24.177 Y5.542
X24.089 Y5.811
X23.965 Y6.121
X23.817 Y6.429
X23.619 Y6.78
X23.392 Y7.126
X23.103 Y7.51
X22.769 Y7.895
X22.37 Y8.299
X21.891 Y8.723
X21.326 Y9.16
X20.651 Y9.614
X19.931 Y10.03
X19.19 Y10.407
X18.436 Y10.757
X17.691 Y11.126
X16.941 Y11.484
X16.167 Y11.789
X15.377 Y12.047
X15.012 Y12.246
X14.687 Y12.505
X14.412 Y12.816
X13.979 Y13.526
X13.757 Y14.381
X13.614 Y15.2
X13.516 Y16.026
X13.447 Y16.854
X13.399 Y17.684
X13.364 Y18.515
X13.339 Y19.346
X13.32 Y20.177
X13.307 Y21.008
X13.297 Y21.84
X13.289 Y22.671
X13.283 Y23.502
X13.279 Y24.334
X13.275 Y25.165
X13.273 Y25.996
X13.269 Y27.659
X13.266 Y29.322
X13.264 Y31.816
X13.263 Y35.973
X13.262 Y47.612
Y49.275
Y99.989
Y125.554
X13.335 Y125.963
X13.477 Y126.353
X13.686 Y126.713
X13.954 Y127.031
X14.273 Y127.297
X14.634 Y127.503
X15.026 Y127.643
X15.845 Y127.783
X16.668 Y127.663
X17.497 Y127.597
X18.328 Y127.581
X19.159 Y127.613
X19.986 Y127.695
X20.795 Y127.825
X21.481 Y127.984
X22.04 Y128.153
X22.533 Y128.338
X22.983 Y128.543
X23.071 Y128.59
X23.427 Y128.824
X23.735 Y129.119
X23.986 Y129.463
X24.171 Y129.847
X24.284 Y130.258
X24.323 Y130.682
Y133.292
G3 X24.238 Y133.652 I-0.949 J-0.033
G1 X24.19 Y133.757 Z-6.293
X24.143 Y133.859 Z-6.272
X24.098 Y133.959 Z-6.238
X24.055 Y134.054 Z-6.191
X24.014 Y134.143 Z-6.132
X23.976 Y134.226 Z-6.061
X23.943 Y134.299 Z-5.98
X23.913 Y134.364 Z-5.89
X23.889 Y134.418 Z-5.791
X23.869 Y134.461 Z-5.687
X23.855 Y134.492 Z-5.577
X23.847 Y134.511 Z-5.465
X23.844 Y134.517 Z-5.35
G0 Z5
X56.528 Y138.652
Z-4.4
G1 Z-5.35 F1000
X56.523 Y138.647 Z-5.465
X56.508 Y138.633 Z-5.577
X56.483 Y138.61 Z-5.687
X56.449 Y138.578 Z-5.791
X56.405 Y138.537 Z-5.89
X56.353 Y138.489 Z-5.98
X56.294 Y138.434 Z-6.061
X56.228 Y138.373 Z-6.132
X56.156 Y138.306 Z-6.191
X56.079 Y138.234 Z-6.238
X55.999 Y138.16 Z-6.272
X55.916 Y138.083 Z-6.293
X55.832 Y138.005 Z-6.3
G3 X55.677 Y137.666 I0.331 J-0.356
G1 Y135.386
X55.688 Y135.179
X55.714 Y134.955
X55.756 Y134.725
X55.823 Y134.458
X55.911 Y134.189
X56.035 Y133.879
X56.183 Y133.571
X56.381 Y133.22
X56.608 Y132.874
X56.897 Y132.49
X57.231 Y132.105
X57.63 Y131.701
X58.109 Y131.277
X58.674 Y130.84
X59.349 Y130.386
X60.069 Y129.97
X60.81 Y129.593
X61.564 Y129.243
X62.309 Y128.874
X63.059 Y128.516
X63.833 Y128.211
X64.623 Y127.953
X64.988 Y127.754
X65.313 Y127.495
X65.588 Y127.184
X66.021 Y126.474
X66.243 Y125.619
X66.386 Y124.8
X66.484 Y123.974
X66.553 Y123.146
X66.601 Y122.316
X66.636 Y121.485
X66.661 Y120.654
X66.68 Y119.823
X66.693 Y118.992
X66.703 Y118.16
X66.711 Y117.329
X66.717 Y116.498
X66.721 Y115.666
X66.725 Y114.835
X66.727 Y114.004
X66.731 Y112.341
X66.734 Y110.678
X66.736 Y108.184
X66.737 Y104.027
X66.738 Y92.388
Y90.725
Y40.011
Y14.446
X66.665 Y14.037
X66.523 Y13.647
X66.314 Y13.287
X66.046 Y12.969
X65.727 Y12.703
X65.366 Y12.497
X64.974 Y12.357
X64.155 Y12.217
X63.332 Y12.337
X62.503 Y12.403
X61.672 Y12.419
X60.841 Y12.387
X60.014 Y12.305
X59.205 Y12.175
X58.519 Y12.016
X57.96 Y11.847
X57.467 Y11.662
X57.017 Y11.457
X56.929 Y11.41
X56.573 Y11.176
X56.265 Y10.881
X56.014 Y10.537
X55.829 Y10.153
X55.716 Y9.742
X55.677 Y9.318
Y6.708
G3 X55.762 Y6.348 I0.949 J0.033
G1 X55.81 Y6.243 Z-6.293
X55.857 Y6.141 Z-6.272
X55.902 Y6.041 Z-6.238
X55.945 Y5.946 Z-6.191
X55.986 Y5.857 Z-6.132
X56.024 Y5.774 Z-6.061
X56.057 Y5.701 Z-5.98
X56.087 Y5.636 Z-5.89
X56.111 Y5.582 Z-5.791
X56.131 Y5.539 Z-5.687
X56.145 Y5.508 Z-5.577
X56.153 Y5.489 Z-5.465
X56.156 Y5.483 Z-5.35
G0 Z5
X23.472 Y3.628
Z-4.4
G1 Z-5.35 F1000
X23.477 Y3.633 Z-5.465
X23.492 Y3.647 Z-5.577
X23.517 Y3.67 Z-5.687
X23.551 Y3.702 Z-5.791
X23.595 Y3.742 Z-5.89
X23.647 Y3.791 Z-5.98
X23.706 Y3.846 Z-6.061
X23.772 Y3.907 Z-6.132
X23.844 Y3.974 Z-6.191
X23.921 Y4.045 Z-6.238
X24.001 Y4.12 Z-6.272
X24.084 Y4.197 Z-6.293
X24.168 Y4.275 Z-6.3
G3 X24.323 Y4.614 I-0.331 J0.356
G1 Y7.022
X24.312 Y7.229
X24.288 Y7.45
X24.242 Y7.707
X24.177 Y7.97
X24.08 Y8.273
X23.96 Y8.579
X23.794 Y8.929
X23.6 Y9.277
X23.347 Y9.667
X23.051 Y10.065
X22.682 Y10.496
X22.183 Y11.006
X21.563 Y11.56
X20.912 Y12.076
X20.232 Y12.555
X19.601 Y13.096
X18.915 Y13.566
X18.19 Y13.974
X17.561 Y14.517
X17.148 Y15.239
X16.874 Y16.024
X16.689 Y16.834
X16.563 Y17.656
X16.476 Y18.483
X16.415 Y19.312
X16.373 Y20.142
X16.343 Y20.973
X16.322 Y21.804
X16.307 Y22.636
X16.296 Y23.467
X16.287 Y24.298
X16.281 Y25.13
X16.277 Y25.961
X16.274 Y26.792
X16.271 Y27.624
X16.268 Y29.286
X16.265 Y31.78
X16.263 Y35.106
X16.262 Y42.588
Y54.228
Y104.942
Y123.232
X16.335 Y123.641
X16.477 Y124.032
X16.686 Y124.391
X16.954 Y124.709
X17.273 Y124.975
X17.634 Y125.181
X18.026 Y125.321
X18.845 Y125.461
X19.51 Y125.435
X20.177 Y125.453
X20.831 Y125.514
X21.393 Y125.605
X21.902 Y125.722
X22.36 Y125.86
X22.774 Y126.015
X22.929 Y126.086
X23.268 Y126.274
X23.572 Y126.516
X23.832 Y126.803
X24.042 Y127.129
X24.197 Y127.485
X24.291 Y127.862
X24.323 Y128.249
Y130.682
G3 X24.238 Y131.043 I-0.949 J-0.033
G1 X24.19 Y131.147 Z-6.293
X24.143 Y131.25 Z-6.272
X24.098 Y131.35 Z-6.238
X24.055 Y131.445 Z-6.191
X24.014 Y131.534 Z-6.132
X23.976 Y131.616 Z-6.061
X23.943 Y131.69 Z-5.98
X23.913 Y131.754 Z-5.89
X23.889 Y131.808 Z-5.791
X23.869 Y131.851 Z-5.687
X23.855 Y131.882 Z-5.577
X23.847 Y131.901 Z-5.465
X23.844 Y131.908 Z-5.35
G0 Z5
X56.528 Y136.372
Z-4.4
G1 Z-5.35 F1000
X56.523 Y136.367 Z-5.465
X56.508 Y136.353 Z-5.577
X56.483 Y136.33 Z-5.687
X56.449 Y136.298 Z-5.791
X56.405 Y136.258 Z-5.89
X56.353 Y136.209 Z-5.98
X56.294 Y136.154 Z-6.061
X56.228 Y136.093 Z-6.132
X56.156 Y136.026 Z-6.191
X56.079 Y135.955 Z-6.238
X55.999 Y135.88 Z-6.272
X55.916 Y135.803 Z-6.293
X55.832 Y135.725 Z-6.3
G3 X55.677 Y135.386 I0.331 J-0.356
G1 Y132.978
X55.688 Y132.771
X55.712 Y132.55
X55.758 Y132.293
X55.823 Y132.03
X55.92 Y131.727
X56.04 Y131.421
X56.206 Y131.071
X56.4 Y130.723
X56.653 Y130.333
X56.949 Y129.935
X57.318 Y129.504
X57.817 Y128.994
X58.437 Y128.44
X59.088 Y127.924
X59.768 Y127.445
X60.399 Y126.904
X61.085 Y126.434
X61.81 Y126.026
X62.439 Y125.483
X62.852 Y124.761
X63.126 Y123.976
X63.311 Y123.166
X63.437 Y122.344
X63.524 Y121.517
X63.585 Y120.688
X63.627 Y119.858
X63.657 Y119.027
X63.678 Y118.196
X63.693 Y117.364
X63.704 Y116.533
X63.713 Y115.702
X63.719 Y114.87
X63.723 Y114.039
X63.726 Y113.208
X63.729 Y112.376
X63.732 Y110.714
X63.735 Y108.22
X63.737 Y104.894
X63.738 Y97.412
Y85.772
Y35.058
Y16.768
X63.665 Y16.359
X63.523 Y15.968
X63.314 Y15.609
X63.046 Y15.291
X62.727 Y15.025
X62.366 Y14.819
X61.974 Y14.679
X61.155 Y14.539
X60.49 Y14.565
X59.823 Y14.547
X59.169 Y14.486
X58.607 Y14.395
X58.098 Y14.278
X57.64 Y14.14
X57.226 Y13.985
X57.071 Y13.914
X56.732 Y13.726
X56.428 Y13.484
X56.168 Y13.197
X55.958 Y12.871
X55.803 Y12.515
X55.709 Y12.138
X55.677 Y11.751
Y9.318
G3 X55.762 Y8.957 I0.949 J0.033
G1 X55.81 Y8.853 Z-6.293
X55.857 Y8.75 Z-6.272
X55.902 Y8.65 Z-6.238
X55.945 Y8.555 Z-6.191
X55.986 Y8.466 Z-6.132
X56.024 Y8.384 Z-6.061
X56.057 Y8.31 Z-5.98
X56.087 Y8.246 Z-5.89
X56.111 Y8.192 Z-5.791
X56.131 Y8.149 Z-5.687
X56.145 Y8.118 Z-5.577
X56.153 Y8.099 Z-5.465
X56.156 Y8.093 Z-5.35
G0 Z5
X23.472 Y6.036
Z-4.4
G1 Z-5.35 F1000
X23.477 Y6.041 Z-5.465
X23.492 Y6.055 Z-5.577
X23.517 Y6.078 Z-5.687
X23.551 Y6.11 Z-5.791
X23.595 Y6.15 Z-5.89
X23.647 Y6.199 Z-5.98
X23.706 Y6.254 Z-6.061
X23.772 Y6.315 Z-6.132
X23.844 Y6.382 Z-6.191
X23.921 Y6.453 Z-6.238
X24.001 Y6.528 Z-6.272
X24.084 Y6.605 Z-6.293
X24.168 Y6.683 Z-6.3
G3 X24.323 Y7.022 I-0.331 J0.356
G1 Y9.587
X24.317 Y9.69
X24.295 Y9.929
X24.255 Y10.184
X24.186 Y10.484
X24.094 Y10.792
X23.961 Y11.149
X23.796 Y11.513
X23.503 Y12.062
X23.171 Y12.595
X22.685 Y13.27
X22.173 Y13.925
X21.938 Y14.267
X21.421 Y14.919
X20.841 Y15.514
X20.385 Y16.209
X20.055 Y16.973
X19.823 Y17.771
X19.661 Y18.586
X19.546 Y19.41
X19.465 Y20.237
X19.408 Y21.066
X19.367 Y21.897
X19.339 Y22.728
X19.318 Y23.559
X19.303 Y24.39
X19.293 Y25.221
X19.285 Y26.053
X19.279 Y26.884
X19.275 Y27.715
X19.272 Y28.547
X19.27 Y29.378
X19.267 Y31.041
X19.264 Y33.535
X19.263 Y37.692
X19.262 Y50.163
Y58.476
Y109.19
Y120.83
X19.335 Y121.239
X19.477 Y121.629
X19.686 Y121.989
X19.954 Y122.307
X20.273 Y122.573
X20.995 Y122.985
X21.573 Y123.107
X22.103 Y123.255
X22.548 Y123.413
X22.975 Y123.597
X23.03 Y123.625
X23.347 Y123.819
X23.629 Y124.062
X23.87 Y124.345
X24.065 Y124.662
X24.207 Y125.006
X24.293 Y125.368
X24.323 Y125.739
Y128.249
G3 X24.238 Y128.609 I-0.949 J-0.033
G1 X24.19 Y128.714 Z-6.293
X24.143 Y128.816 Z-6.272
X24.098 Y128.916 Z-6.238
X24.055 Y129.011 Z-6.191
X24.014 Y129.1 Z-6.132
X23.976 Y129.183 Z-6.061
X23.943 Y129.256 Z-5.98
X23.913 Y129.321 Z-5.89
X23.889 Y129.375 Z-5.791
X23.869 Y129.418 Z-5.687
X23.855 Y129.449 Z-5.577
X23.847 Y129.468 Z-5.465
X23.844 Y129.474 Z-5.35
G0 Z5
X56.528 Y133.964
Z-4.4
G1 Z-5.35 F1000
X56.523 Y133.959 Z-5.465
X56.508 Y133.945 Z-5.577
X56.483 Y133.922 Z-5.687
X56.449 Y133.89 Z-5.791
X56.405 Y133.85 Z-5.89
X56.353 Y133.801 Z-5.98
X56.294 Y133.746 Z-6.061
X56.228 Y133.685 Z-6.132
X56.156 Y133.618 Z-6.191
X56.079 Y133.547 Z-6.238
X55.999 Y133.472 Z-6.272
X55.916 Y133.395 Z-6.293
X55.832 Y133.317 Z-6.3
G3 X55.677 Y132.978 I0.331 J-0.356
G1 Y130.413
X55.683 Y130.31
X55.705 Y130.071
X55.745 Y129.816
X55.814 Y129.516
X55.906 Y129.208
X56.039 Y128.851
X56.204 Y128.487
X56.497 Y127.938
X56.829 Y127.405
X57.315 Y126.73
X57.827 Y126.075
X58.062 Y125.732
X58.579 Y125.081
X59.159 Y124.486
X59.615 Y123.791
X59.945 Y123.027
X60.177 Y122.229
X60.339 Y121.414
X60.454 Y120.59
X60.535 Y119.763
X60.592 Y118.934
X60.633 Y118.103
X60.661 Y117.272
X60.682 Y116.441
X60.697 Y115.61
X60.707 Y114.779
X60.715 Y113.947
X60.721 Y113.116
X60.725 Y112.285
X60.728 Y111.453
X60.73 Y110.622
X60.733 Y108.959
X60.736 Y106.465
X60.737 Y102.308
X60.738 Y89.837
Y81.524
Y30.81
Y19.17
X60.665 Y18.761
X60.523 Y18.371
X60.314 Y18.011
X60.046 Y17.693
X59.727 Y17.427
X59.005 Y17.015
X58.427 Y16.893
X57.897 Y16.745
X57.452 Y16.587
X57.025 Y16.403
X56.97 Y16.375
X56.653 Y16.181
X56.371 Y15.939
X56.13 Y15.655
X55.935 Y15.338
X55.793 Y14.994
X55.707 Y14.632
X55.677 Y14.261
Y11.751
G3 X55.762 Y11.391 I0.949 J0.033
G1 X55.81 Y11.286 Z-6.293
X55.857 Y11.184 Z-6.272
X55.902 Y11.084 Z-6.238
X55.945 Y10.989 Z-6.191
X55.986 Y10.9 Z-6.132
X56.024 Y10.817 Z-6.061
X56.057 Y10.744 Z-5.98
X56.087 Y10.679 Z-5.89
X56.111 Y10.625 Z-5.791
X56.131 Y10.582 Z-5.687
X56.145 Y10.551 Z-5.577
X56.153 Y10.532 Z-5.465
X56.156 Y10.526 Z-5.35
G0 Z5
X23.472 Y8.601
Z-4.4
G1 Z-5.35 F1000
X23.477 Y8.605 Z-5.465
X23.492 Y8.619 Z-5.577
X23.517 Y8.643 Z-5.687
X23.551 Y8.675 Z-5.791
X23.595 Y8.715 Z-5.89
X23.647 Y8.763 Z-5.98
X23.706 Y8.818 Z-6.061
X23.772 Y8.88 Z-6.132
X23.844 Y8.947 Z-6.191
X23.921 Y9.018 Z-6.238
X24.001 Y9.093 Z-6.272
X24.084 Y9.169 Z-6.293
X24.168 Y9.247 Z-6.3
G3 X24.323 Y9.587 I-0.331 J0.356
G1 Y12.436
X24.312 Y12.644
X24.283 Y12.984
X24.223 Y13.379
X24.14 Y13.754
X23.906 Y14.552
X23.676 Y15.351
X23.454 Y16.152
X23.21 Y16.946
X22.99 Y17.748
X22.811 Y18.56
X22.672 Y19.38
X22.566 Y20.204
X22.486 Y21.032
X22.427 Y21.861
X22.384 Y22.691
X22.352 Y23.522
X22.328 Y24.353
X22.311 Y25.184
X22.298 Y26.016
X22.289 Y26.847
X22.282 Y27.678
X22.277 Y28.51
X22.274 Y29.341
X22.271 Y30.172
X22.269 Y31.004
X22.266 Y32.667
X22.264 Y35.161
X22.263 Y40.149
X22.262 Y62.596
Y113.31
Y118.714
X22.335 Y119.123
X22.477 Y119.514
X22.686 Y119.873
X23.222 Y120.509
X23.357 Y120.608
X23.637 Y120.85
X23.876 Y121.133
X24.068 Y121.449
X24.208 Y121.791
X24.294 Y122.151
X24.323 Y122.52
Y125.739
G3 X24.238 Y126.1 I-0.949 J-0.033
G1 X24.19 Y126.204 Z-6.293
X24.143 Y126.306 Z-6.272
X24.098 Y126.406 Z-6.238
X24.055 Y126.501 Z-6.191
X24.014 Y126.591 Z-6.132
X23.976 Y126.673 Z-6.061
X23.943 Y126.747 Z-5.98
X23.913 Y126.811 Z-5.89
X23.889 Y126.865 Z-5.791
X23.869 Y126.908 Z-5.687
X23.855 Y126.939 Z-5.577
X23.847 Y126.958 Z-5.465
X23.844 Y126.964 Z-5.35
G0 Z5
X56.528 Y131.399
Z-4.4
G1 Z-5.35 F1000
X56.523 Y131.395 Z-5.465
X56.508 Y131.381 Z-5.577
X56.483 Y131.357 Z-5.687
X56.449 Y131.325 Z-5.791
X56.405 Y131.285 Z-5.89
X56.353 Y131.237 Z-5.98
X56.294 Y131.182 Z-6.061
X56.228 Y131.12 Z-6.132
X56.156 Y131.053 Z-6.191
X56.079 Y130.982 Z-6.238
X55.999 Y130.907 Z-6.272
X55.916 Y130.831 Z-6.293
X55.832 Y130.753 Z-6.3
G3 X55.677 Y130.413 I0.331 J-0.356
G1 Y127.564
X55.688 Y127.356
X55.717 Y127.016
X55.777 Y126.621
X55.86 Y126.246
X56.094 Y125.448
X56.324 Y124.649
X56.546 Y123.848
X56.79 Y123.054
X57.01 Y122.252
X57.189 Y121.44
X57.328 Y120.62
X57.434 Y119.796
X57.514 Y118.968
X57.573 Y118.139
X57.616 Y117.309
X57.648 Y116.478
X57.672 Y115.647
X57.689 Y114.816
X57.702 Y113.984
X57.711 Y113.153
X57.718 Y112.322
X57.723 Y111.49
X57.726 Y110.659
X57.729 Y109.828
X57.731 Y108.996
X57.734 Y107.333
X57.736 Y104.839
X57.737 Y99.851
X57.738 Y77.404
Y26.69
Y21.286
X57.665 Y20.877
X57.523 Y20.486
X57.314 Y20.127
X56.778 Y19.491
X56.643 Y19.392
X56.363 Y19.15
X56.124 Y18.867
X55.932 Y18.551
X55.792 Y18.209
X55.706 Y17.849
X55.677 Y17.48
Y14.261
G3 X55.762 Y13.9 I0.949 J0.033
G1 X55.81 Y13.796 Z-6.293
X55.857 Y13.694 Z-6.272
X55.902 Y13.594 Z-6.238
X55.945 Y13.499 Z-6.191
X55.986 Y13.409 Z-6.132
X56.024 Y13.327 Z-6.061
X56.057 Y13.253 Z-5.98
X56.087 Y13.189 Z-5.89
X56.111 Y13.135 Z-5.791
X56.131 Y13.092 Z-5.687
X56.145 Y13.061 Z-5.577
X56.153 Y13.042 Z-5.465
X56.156 Y13.036 Z-5.35
G0 Z5
X23.472 Y11.45
Z-4.4
G1 Z-5.35 F1000
X23.477 Y11.455 Z-5.465
X23.492 Y11.469 Z-5.577
X23.517 Y11.492 Z-5.687
X23.551 Y11.524 Z-5.791
X23.595 Y11.565 Z-5.89
X23.647 Y11.613 Z-5.98
X23.706 Y11.668 Z-6.061
X23.772 Y11.73 Z-6.132
X23.844 Y11.796 Z-6.191
X23.921 Y11.868 Z-6.238
X24.001 Y11.942 Z-6.272
X24.084 Y12.019 Z-6.293
X24.168 Y12.097 Z-6.3
G3 X24.323 Y12.436 I-0.331 J0.356
G1 Y122.52
G3 X24.238 Y122.88 I-0.949 J-0.033
G1 X24.19 Y122.985 Z-6.293
X24.143 Y123.087 Z-6.272
X24.098 Y123.187 Z-6.238
X24.055 Y123.282 Z-6.191
X24.014 Y123.371 Z-6.132
X23.976 Y123.454 Z-6.061
X23.943 Y123.527 Z-5.98
X23.913 Y123.592 Z-5.89
X23.889 Y123.646 Z-5.791
X23.869 Y123.689 Z-5.687
X23.855 Y123.72 Z-5.577
X23.847 Y123.738 Z-5.465
X23.844 Y123.745 Z-5.35
G0 Z5
X56.528 Y128.55
Z-4.4
G1 Z-5.35 F1000
X56.523 Y128.545 Z-5.465
X56.508 Y128.531 Z-5.577
X56.483 Y128.508 Z-5.687
X56.449 Y128.476 Z-5.791
X56.405 Y128.435 Z-5.89
X56.353 Y128.387 Z-5.98
X56.294 Y128.332 Z-6.061
X56.228 Y128.27 Z-6.132
X56.156 Y128.204 Z-6.191
X56.079 Y128.132 Z-6.238
X55.999 Y128.058 Z-6.272
X55.916 Y127.981 Z-6.293
X55.832 Y127.903 Z-6.3
G3 X55.677 Y127.564 I0.331 J-0.356
G1 Y17.48
X55.691 Y17.405 Z-6.292
X55.704 Y17.333 Z-6.268
X55.716 Y17.267 Z-6.23
X55.726 Y17.211 Z-6.179
X55.742 Y17.172 Z-6.124
X55.753 Y17.143 Z-6.062
X55.76 Y17.126 Z-5.996
X55.762 Y17.12 Z-5.927
G0 Z5
X42.713 Y-5.998
Z-3.769
G1 Z-4.719 F1000
X42.707 Y-5.996 Z-4.833
X42.687 Y-5.99 Z-4.946
X42.654 Y-5.98 Z-5.055
X42.609 Y-5.966 Z-5.16
X42.553 Y-5.949 Z-5.258
X42.485 Y-5.928 Z-5.349
X42.407 Y-5.904 Z-5.43
X42.321 Y-5.878 Z-5.5
X42.227 Y-5.849 Z-5.56
X42.127 Y-5.819 Z-5.607
X42.022 Y-5.787 Z-5.641
X41.914 Y-5.754 Z-5.662
X41.805 Y-5.72 Z-5.669
G3 X36.673 Y-4.738 I-7.098 J-23.191
G1 X36.584 Y-4.734
X36.014 Y-4.701
X35.73 Y-4.681
X35.445 Y-4.661
X35.16 Y-4.638
X34.876 Y-4.614
X34.591 Y-4.588
X34.306 Y-4.56
X34.021 Y-4.53
X33.737 Y-4.497
X33.452 Y-4.462
X33.167 Y-4.423
X32.883 Y-4.384
X32.313 Y-4.294
X31.744 Y-4.192
X31.459 Y-4.133
X31.174 Y-4.072
X30.89 Y-4.005
X30.605 Y-3.936
X30.32 Y-3.86
X30.036 Y-3.781
X29.751 Y-3.694
X29.466 Y-3.601
X29.246 Y-3.522
X28.897 Y-3.388
X28.612 Y-3.27
X28.328 Y-3.142
X28.043 Y-3.007
X27.758 Y-2.848
X27.473 Y-2.677
X27.189 Y-2.493
X27.035 Y-2.382
X26.904 Y-2.276
X26.698 Y-2.097
X26.619 Y-2.025
X26.409 Y-1.812
X26.335 Y-1.733
X26.168 Y-1.527
X26.05 Y-1.365
X25.984 Y-1.242
X25.833 Y-0.957
X25.683 Y-0.512
X25.68 Y-0.494
X25.629 Y-0.102
X25.619 Y0.183
X25.618 Y0.753
Y139.532
X25.619 Y139.817
X25.624 Y139.974
Y139.976
G2 X25.61 Y140.103 I1.456 J0.231
X25.624 Y140.345 I0.948 J0.067
X25.636 Y140.404 I0.934 J-0.175
G1 X25.717 Y140.722
G2 X25.837 Y140.999 I0.921 J-0.234
X25.911 Y141.104 I1.243 J-0.792
G1 X25.912 Y141.105
X25.984 Y141.242
X26.05 Y141.365
X26.168 Y141.527
X26.335 Y141.733
X26.409 Y141.812
X26.619 Y142.025
X26.698 Y142.097
X26.904 Y142.276
X27.035 Y142.382
X27.189 Y142.493
X27.473 Y142.677
X27.758 Y142.848
X28.043 Y143.007
X28.328 Y143.142
X28.612 Y143.27
X28.897 Y143.388
X29.246 Y143.522
X29.466 Y143.601
X29.751 Y143.694
X30.036 Y143.781
X30.32 Y143.86
X30.605 Y143.936
X30.89 Y144.005
X31.174 Y144.072
X31.459 Y144.133
X31.744 Y144.192
X32.313 Y144.294
X32.883 Y144.384
X33.167 Y144.423
X33.452 Y144.462
X33.737 Y144.497
X34.021 Y144.53
X34.306 Y144.56
X34.591 Y144.588
X34.876 Y144.614
X35.16 Y144.638
X35.459 Y144.662
X35.73 Y144.681
X36.014 Y144.701
X36.299 Y144.717
X36.3 Y144.718
G2 X36.662 Y144.805 I3.553 J-13.954
X37.53 Y144.974 I3.192 J-14.041
X37.681 Y144.987 I0.153 J-0.938
G1 X41.944 Y144.999
G2 X42.094 Y144.988 I0.003 J-0.95
X42.964 Y144.823 I-2.241 J-14.224
X43.325 Y144.738 I-3.11 J-14.059
G1 X43.327
X43.416 Y144.734
X43.986 Y144.701
X44.27 Y144.681
X44.555 Y144.661
X44.84 Y144.638
X45.124 Y144.614
X45.409 Y144.588
X45.694 Y144.56
X45.979 Y144.53
X46.263 Y144.497
X46.548 Y144.462
X46.833 Y144.423
X47.117 Y144.384
X47.687 Y144.294
X48.256 Y144.192
X48.541 Y144.133
X48.826 Y144.072
X49.11 Y144.005
X49.395 Y143.936
X49.68 Y143.86
X49.964 Y143.781
X50.249 Y143.694
X50.534 Y143.601
X50.754 Y143.522
X51.103 Y143.388
X51.388 Y143.27
X51.672 Y143.142
X51.957 Y143.007
X52.242 Y142.848
X52.527 Y142.677
X52.811 Y142.493
X52.965 Y142.382
X53.096 Y142.276
X53.302 Y142.097
X53.381 Y142.025
X53.591 Y141.812
X53.665 Y141.733
X53.832 Y141.527
X53.95 Y141.365
X54.016 Y141.242
X54.167 Y140.957
X54.317 Y140.512
X54.32 Y140.494
X54.371 Y140.102
X54.381 Y139.817
X54.382 Y139.247
Y0.468
X54.381 Y0.183
X54.376 Y0.026
Y0.024
G2 X54.39 Y-0.103 I-1.456 J-0.231
X54.376 Y-0.345 I-0.948 J-0.067
X54.364 Y-0.404 I-0.934 J0.175
G1 X54.283 Y-0.722
G2 X54.266 Y-0.78 I-0.921 J0.234
X54.163 Y-0.999 I-0.904 J0.291
X54.089 Y-1.104 I-1.243 J0.792
G1 X54.088 Y-1.105
X54.016 Y-1.242
X53.95 Y-1.365
X53.832 Y-1.527
X53.665 Y-1.733
X53.591 Y-1.812
X53.381 Y-2.025
X53.302 Y-2.097
X53.096 Y-2.276
X52.965 Y-2.382
X52.811 Y-2.493
X52.527 Y-2.677
X52.242 Y-2.848
X51.957 Y-3.007
X51.672 Y-3.142
X51.388 Y-3.27
X51.103 Y-3.388
X50.754 Y-3.522
X50.534 Y-3.601
X50.249 Y-3.694
X49.964 Y-3.781
X49.68 Y-3.86
X49.395 Y-3.936
X49.11 Y-4.005
X48.826 Y-4.072
X48.541 Y-4.133
X48.256 Y-4.192
X47.687 Y-4.294
X47.117 Y-4.384
X46.833 Y-4.423
X46.548 Y-4.462
X46.263 Y-4.497
X45.979 Y-4.53
X45.694 Y-4.56
X45.409 Y-4.588
X45.124 Y-4.614
X44.84 Y-4.638
X44.541 Y-4.662
X44.27 Y-4.681
X43.986 Y-4.701
X43.701 Y-4.717
X43.627 Y-4.735 Z-5.66
X43.556 Y-4.753 Z-5.637
X43.491 Y-4.768 Z-5.599
X43.435 Y-4.782 Z-5.548
X43.397 Y-4.799 Z-5.493
X43.369 Y-4.812 Z-5.431
X43.351 Y-4.82 Z-5.364
X43.346 Y-4.823 Z-5.296
G0 Z5
X60.415 Y139.138
Z-3.14
G1 Z-4.09 F1000
X60.408 Y139.139 Z-4.205
X60.388 Y139.144 Z-4.317
X60.355 Y139.151 Z-4.427
X60.309 Y139.161 Z-4.531
X60.251 Y139.173 Z-4.63
X60.181 Y139.188 Z-4.72
X60.102 Y139.205 Z-4.801
X60.014 Y139.224 Z-4.872
X59.918 Y139.244 Z-4.931
X59.815 Y139.266 Z-4.978
X59.708 Y139.289 Z-5.012
X59.598 Y139.312 Z-5.033
X59.486 Y139.336 Z-5.04
G3 X54.288 Y139.872 I-5.069 J-23.718
G1 X54.237 Y139.87
X54.149 Y139.806
X54.041 Y139.717
X53.914 Y139.597
X53.768 Y139.439
X53.604 Y139.235
X53.422 Y138.977
X53.223 Y138.65
X53.208 Y138.621
X53.06 Y138.272
X52.97 Y137.903
X52.94 Y137.525
Y0.468
X52.939 Y0.183
X52.928 Y-0.102
X52.873 Y-0.488
X52.7 Y-0.957
X52.693 Y-0.975
X52.683 Y-0.992
X52.523 Y-1.242
X52.32 Y-1.527
X52.242 Y-1.62
X52.056 Y-1.812
X51.957 Y-1.906
X51.727 Y-2.097
X51.672 Y-2.142
X51.336 Y-2.382
X51.103 Y-2.53
X50.818 Y-2.686
X50.534 Y-2.838
X50.249 Y-2.973
X49.964 Y-3.093
X49.593 Y-3.237
X49.395 Y-3.312
X48.826 Y-3.495
X48.541 Y-3.58
X48.256 Y-3.655
X47.687 Y-3.793
X47.628 Y-3.807
X47.117 Y-3.911
X46.833 Y-3.964
X46.548 Y-4.015
X46.263 Y-4.062
X45.979 Y-4.106
X45.694 Y-4.147
X45.409 Y-4.185
X45.124 Y-4.219
X44.84 Y-4.251
X44.555 Y-4.281
X43.986 Y-4.335
X43.416 Y-4.38
X42.847 Y-4.415
X42.562 Y-4.43
X42.278 Y-4.444
X41.993 Y-4.456
X41.708 Y-4.467
X41.423 Y-4.476
X41.139 Y-4.483
X40.854 Y-4.489
X40.285 Y-4.494
X39.715
X39.146 Y-4.489
X38.861 Y-4.483
X38.577 Y-4.476
X38.292 Y-4.467
X38.007 Y-4.456
X37.722 Y-4.444
X37.438 Y-4.43
X37.153 Y-4.415
X36.584 Y-4.38
X36.014 Y-4.335
X35.445 Y-4.281
X35.16 Y-4.251
X34.876 Y-4.219
X34.591 Y-4.185
X34.306 Y-4.147
X34.021 Y-4.106
X33.737 Y-4.062
X33.452 Y-4.015
X33.167 Y-3.964
X32.883 Y-3.911
X32.372 Y-3.807
X32.313 Y-3.793
X31.744 Y-3.655
X31.459 Y-3.58
X31.174 Y-3.495
X30.605 Y-3.312
X30.407 Y-3.237
X30.036 Y-3.093
X29.751 Y-2.973
X29.466 Y-2.838
X29.147 Y-2.667
X28.897 Y-2.53
X28.664 Y-2.382
X28.328 Y-2.142
X28.273 Y-2.097
X28.043 Y-1.906
X27.944 Y-1.812
X27.758 Y-1.62
X27.68 Y-1.527
X27.477 Y-1.242
X27.317 Y-0.992
X27.307 Y-0.975
X27.3 Y-0.957
X27.127 Y-0.488
X27.072 Y-0.102
X27.061 Y0.183
X27.06 Y0.468
Y139.532
X27.061 Y139.817
X27.072 Y140.102
X27.127 Y140.488
X27.3 Y140.957
X27.307 Y140.975
X27.317 Y140.992
X27.477 Y141.242
X27.68 Y141.527
X27.758 Y141.62
X27.944 Y141.812
X28.043 Y141.906
X28.273 Y142.097
X28.328 Y142.142
X28.664 Y142.382
X28.897 Y142.53
X29.182 Y142.686
X29.466 Y142.838
X29.751 Y142.973
X30.036 Y143.093
X30.407 Y143.237
X30.605 Y143.312
X31.174 Y143.495
X31.459 Y143.58
X31.744 Y143.655
X32.313 Y143.793
X32.372 Y143.807
X32.883 Y143.911
X33.167 Y143.964
X33.452 Y144.015
X33.737 Y144.062
X34.021 Y144.106
X34.306 Y144.147
X34.591 Y144.185
X34.876 Y144.219
X35.16 Y144.251
X35.445 Y144.281
X36.014 Y144.335
X36.584 Y144.38
X37.153 Y144.415
X37.438 Y144.43
X37.722 Y144.444
X38.007 Y144.456
X38.292 Y144.467
X38.577 Y144.476
X38.861 Y144.483
X39.146 Y144.489
X39.715 Y144.494
X40.285
X40.854 Y144.489
X41.139 Y144.483
X41.423 Y144.476
X41.708 Y144.467
X41.993 Y144.456
X42.278 Y144.444
X42.562 Y144.43
X42.847 Y144.415
X43.416 Y144.38
X43.986 Y144.335
X44.555 Y144.281
X44.84 Y144.251
X45.124 Y144.219
X45.409 Y144.185
X45.694 Y144.147
X45.979 Y144.106
X46.263 Y144.062
X46.548 Y144.015
X46.833 Y143.964
X47.117 Y143.911
X47.628 Y143.807
X47.687 Y143.793
X48.256 Y143.655
X48.541 Y143.58
X48.826 Y143.495
X49.395 Y143.312
X49.593 Y143.237
X49.964 Y143.093
X49.966
G2 X50.214 Y143.037 I-0.514 J-2.866
X50.325 Y143 I-0.248 J-0.917
X50.423 Y142.953 I-0.36 J-0.879
G1 X51.234 Y142.507
G2 X51.326 Y142.449 I-0.458 J-0.833
X51.417 Y142.376 I-0.55 J-0.775
X51.597 Y142.196 I-1.965 J-2.149
G1 X51.598 Y142.195
X51.672 Y142.142
X51.727 Y142.097
X51.957 Y141.906
X52.056 Y141.812
X52.242 Y141.62
X52.32 Y141.527
X52.523 Y141.242
X52.683 Y140.992
X52.693 Y140.975
X52.7 Y140.957
X52.873 Y140.488
X52.928 Y140.102
X52.939 Y139.817
X52.94 Y139.532
Y137.525
X52.953 Y137.449 Z-5.032
X52.967 Y137.377 Z-5.008
X52.979 Y137.312 Z-4.97
X52.989 Y137.255 Z-4.919
X53.004 Y137.216 Z-4.864
X53.015 Y137.187 Z-4.802
X53.022 Y137.17 Z-4.736
X53.025 Y137.164 Z-4.667
G0 Z5
X21.091 Y0.798
Z-2.51
G1 Z-3.46 F1000
X21.098 Y0.797 Z-3.575
X21.118 Y0.793 Z-3.687
X21.152 Y0.786 Z-3.797
X21.198 Y0.776 Z-3.901
X21.256 Y0.764 Z-4
X21.325 Y0.75 Z-4.09
X21.405 Y0.734 Z-4.171
X21.493 Y0.715 Z-4.242
X21.589 Y0.696 Z-4.301
X21.692 Y0.675 Z-4.348
X21.799 Y0.652 Z-4.382
X21.909 Y0.63 Z-4.403
X22.022 Y0.607 Z-4.41
G3 X27.223 Y0.111 I4.889 J23.755
G1 X27.275 Y0.113
X27.376 Y0.193
X27.497 Y0.303
X27.637 Y0.448
X27.796 Y0.635
X27.972 Y0.875
X28.166 Y1.178
X28.376 Y1.559
X28.505 Y1.837
X28.627 Y2.159
X28.701 Y2.496
X28.726 Y2.839
X28.727 Y139.532
Y139.817
X28.741 Y140.102
X28.796 Y140.459
X28.802 Y140.476
X28.897 Y140.71
X29.007 Y140.957
X29.182 Y141.227
X29.194 Y141.242
X29.451 Y141.527
X29.466 Y141.542
X29.753 Y141.812
X30.036 Y142.023
X30.138 Y142.097
X30.32 Y142.208
X30.611 Y142.382
X30.89 Y142.523
X31.188 Y142.667
X31.459 Y142.781
X31.744 Y142.892
X31.9 Y142.952
X32.029 Y142.996
X32.313 Y143.09
X32.598 Y143.177
X32.883 Y143.258
X33.167 Y143.332
X33.452 Y143.4
X33.737 Y143.464
X34.021 Y143.524
X34.306 Y143.58
X34.591 Y143.631
X34.876 Y143.679
X35.16 Y143.721
X35.445 Y143.762
X36.014 Y143.834
X36.584 Y143.894
X36.868 Y143.919
X37.153 Y143.942
X37.438 Y143.962
X37.722 Y143.98
X38.007 Y143.996
X38.292 Y144.01
X38.577 Y144.023
X38.861 Y144.032
X39.146 Y144.04
X39.715 Y144.047
X40.285
X40.854 Y144.04
X41.139 Y144.032
X41.423 Y144.023
X41.708 Y144.01
X41.993 Y143.996
X42.278 Y143.98
X42.562 Y143.962
X42.847 Y143.942
X43.132 Y143.919
X43.416 Y143.894
X43.986 Y143.834
X44.555 Y143.762
X44.84 Y143.721
X45.124 Y143.679
X45.409 Y143.631
X45.694 Y143.58
X45.987 Y143.522
X46.263 Y143.464
X46.548 Y143.4
X46.833 Y143.332
X47.117 Y143.258
X47.402 Y143.177
X47.687 Y143.09
X47.971 Y142.996
X48.1 Y142.952
X48.256 Y142.892
X48.541 Y142.781
X48.812 Y142.667
X49.11 Y142.523
X49.389 Y142.382
X49.68 Y142.208
X49.862 Y142.097
X49.964 Y142.023
X50.249 Y141.811
X50.534 Y141.542
X50.549 Y141.527
X50.806 Y141.242
X50.818 Y141.227
X50.993 Y140.957
X51.103 Y140.71
X51.198 Y140.476
X51.204 Y140.459
X51.259 Y140.102
X51.273 Y139.817
Y139.532
Y0.468
Y0.183
X51.259 Y-0.102
X51.204 Y-0.459
X51.198 Y-0.476
X51.103 Y-0.71
X50.993 Y-0.957
X50.818 Y-1.227
X50.806 Y-1.242
X50.549 Y-1.527
X50.534 Y-1.542
X50.247 Y-1.812
X49.964 Y-2.023
X49.862 Y-2.097
X49.68 Y-2.208
X49.389 Y-2.382
X49.11 Y-2.523
X48.812 Y-2.667
X48.541 Y-2.781
X48.256 Y-2.892
X48.1 Y-2.952
X47.971 Y-2.996
X47.687 Y-3.09
X47.402 Y-3.177
X47.117 Y-3.258
X46.833 Y-3.332
X46.548 Y-3.4
X46.263 Y-3.464
X45.979 Y-3.524
X45.694 Y-3.58
X45.409 Y-3.631
X45.124 Y-3.679
X44.84 Y-3.721
X44.555 Y-3.762
X43.986 Y-3.834
X43.416 Y-3.894
X43.132 Y-3.919
X42.847 Y-3.942
X42.562 Y-3.962
X42.278 Y-3.98
X41.993 Y-3.996
X41.708 Y-4.01
X41.423 Y-4.023
X41.139 Y-4.032
X40.854 Y-4.04
X40.285 Y-4.047
X39.715
X39.146 Y-4.04
X38.861 Y-4.032
X38.577 Y-4.023
X38.292 Y-4.01
X38.007 Y-3.996
X37.722 Y-3.98
X37.438 Y-3.962
X37.153 Y-3.942
X36.868 Y-3.919
X36.584 Y-3.894
X36.014 Y-3.834
X35.445 Y-3.762
X35.16 Y-3.721
X34.876 Y-3.679
X34.591 Y-3.631
X34.306 Y-3.58
X34.013 Y-3.522
X33.737 Y-3.464
X33.452 Y-3.4
X33.167 Y-3.332
X32.883 Y-3.258
X32.598 Y-3.177
X32.313 Y-3.09
X32.029 Y-2.996
X31.9 Y-2.952
X31.744 Y-2.892
X31.742
G2 X31.513 Y-2.841 I0.465 J2.654
X31.384 Y-2.797 I0.245 J0.918
X31.356 Y-2.784 I0.374 J0.873
G1 X30.802 Y-2.526
G2 X30.658 Y-2.442 I0.402 J0.861
X30.472 Y-2.299 I1.55 J2.205
G1 X30.471 Y-2.298
X30.32 Y-2.208
X30.138 Y-2.097
X30.036 Y-2.023
X29.751 Y-1.811
X29.466 Y-1.542
X29.451 Y-1.527
X29.194 Y-1.242
X29.182 Y-1.227
X29.007 Y-0.957
X28.897 Y-0.71
X28.802 Y-0.476
X28.796 Y-0.459
X28.741 Y-0.102
X28.727 Y0.183
Y0.468
X28.726 Y2.839
X28.713 Y2.914 Z-4.402
X28.7 Y2.986 Z-4.378
X28.688 Y3.052 Z-4.34
X28.677 Y3.109 Z-4.289
X28.662 Y3.147 Z-4.234
X28.651 Y3.176 Z-4.172
X28.644 Y3.194 Z-4.106
X28.641 Y3.2 Z-4.037
G0 Z5
X22.884 Y0.707
Z-1.88
G1 Z-2.83 F1000
X22.891 Y0.706 Z-2.945
X22.911 Y0.702 Z-3.057
X22.945 Y0.695 Z-3.167
X22.991 Y0.686 Z-3.271
X23.049 Y0.675 Z-3.37
X23.119 Y0.661 Z-3.46
X23.198 Y0.646 Z-3.541
X23.287 Y0.628 Z-3.612
X23.383 Y0.61 Z-3.671
X23.486 Y0.59 Z-3.718
X23.593 Y0.569 Z-3.752
X23.704 Y0.547 Z-3.773
X23.817 Y0.525 Z-3.78
G3 X29.023 Y0.083 I4.643 J23.805
G1 X29.074 Y0.086
X29.187 Y0.181
X29.32 Y0.309
X29.472 Y0.476
X29.642 Y0.691
X29.829 Y0.963
X30.033 Y1.308
X30.253 Y1.744
X30.487 Y2.299
X30.604 Y2.636
X30.675 Y2.889
X30.719 Y3.148
X30.733 Y3.41
X30.734 Y139.532
Y139.817
X30.751 Y140.102
X30.808 Y140.43
X30.812 Y140.444
X31.013 Y140.886
X31.023 Y140.904
X31.31 Y141.242
X31.459 Y141.396
X31.626 Y141.527
X32.003 Y141.812
X32.029 Y141.829
X32.515 Y142.097
X32.598 Y142.14
X32.883 Y142.271
X33.136 Y142.382
X33.452 Y142.497
X33.737 Y142.598
X34.021 Y142.684
X34.306 Y142.768
X34.876 Y142.915
X35.16 Y142.974
X35.445 Y143.033
X35.73 Y143.083
X36.014 Y143.133
X36.299 Y143.176
X36.584 Y143.217
X36.732 Y143.237
X37.153 Y143.286
X37.438 Y143.314
X37.722 Y143.338
X38.007 Y143.361
X38.292 Y143.38
X38.577 Y143.397
X38.861 Y143.41
X39.146 Y143.421
X39.715 Y143.431
X40.285
X40.854 Y143.421
X41.139 Y143.41
X41.423 Y143.397
X41.708 Y143.38
X41.993 Y143.361
X42.278 Y143.338
X42.562 Y143.314
X42.847 Y143.286
X43.268 Y143.237
X43.416 Y143.217
X43.701 Y143.176
X43.986 Y143.133
X44.27 Y143.083
X44.555 Y143.033
X44.947 Y142.952
X45.124 Y142.915
X45.694 Y142.768
X46.034 Y142.667
X46.263 Y142.598
X46.548 Y142.497
X46.864 Y142.382
X47.117 Y142.271
X47.402 Y142.14
X47.485 Y142.097
X47.971 Y141.829
X47.997 Y141.812
X48.374 Y141.527
X48.541 Y141.396
X48.69 Y141.242
X48.977 Y140.904
X48.987 Y140.886
X49.188 Y140.444
X49.192 Y140.43
X49.249 Y140.102
X49.266 Y139.817
Y139.532
Y0.468
Y0.183
X49.249 Y-0.102
X49.192 Y-0.43
X49.188 Y-0.444
X48.987 Y-0.886
X48.977 Y-0.904
X48.69 Y-1.242
X48.541 Y-1.396
X48.374 Y-1.527
X47.997 Y-1.812
X47.971 Y-1.829
X47.485 Y-2.097
X47.402 Y-2.14
X47.117 Y-2.271
X46.864 Y-2.382
X46.548 Y-2.497
X46.263 Y-2.598
X45.979 Y-2.684
X45.694 Y-2.768
X45.124 Y-2.915
X44.84 Y-2.974
X44.555 Y-3.033
X44.27 Y-3.083
X43.986 Y-3.133
X43.701 Y-3.176
X43.416 Y-3.217
X43.268 Y-3.237
X42.847 Y-3.286
X42.562 Y-3.314
X42.278 Y-3.338
X41.993 Y-3.361
X41.708 Y-3.38
X41.423 Y-3.397
X41.139 Y-3.41
X40.854 Y-3.421
X40.285 Y-3.431
X39.715
X39.146 Y-3.421
X38.861 Y-3.41
X38.577 Y-3.397
X38.292 Y-3.38
X38.007 Y-3.361
X37.722 Y-3.338
X37.438 Y-3.314
X37.153 Y-3.286
X36.732 Y-3.237
X36.584 Y-3.217
X36.299 Y-3.176
X36.014 Y-3.133
X35.73 Y-3.083
X35.445 Y-3.033
X35.053 Y-2.952
X34.876 Y-2.915
X34.306 Y-2.768
X34.021 Y-2.684
X34.02 Y-2.683
G2 X33.834 Y-2.657 I0.208 J2.141
X33.695 Y-2.62 I0.174 J0.934
G1 X33.657 Y-2.607
X33.392 Y-2.515
X33.354 Y-2.501
G2 X33.222 Y-2.444 I0.313 J0.897
X33.06 Y-2.349 I1.006 J1.901
G1 X33.059 Y-2.348
X32.883 Y-2.271
X32.598 Y-2.14
X32.515 Y-2.097
X32.029 Y-1.829
X32.003 Y-1.812
X31.626 Y-1.527
X31.459 Y-1.396
X31.31 Y-1.242
X31.023 Y-0.904
X31.013 Y-0.886
X30.812 Y-0.444
X30.808 Y-0.43
X30.751 Y-0.102
X30.734 Y0.183
Y0.468
X30.733 Y3.41
X30.72 Y3.485 Z-3.772
X30.707 Y3.557 Z-3.748
X30.695 Y3.623 Z-3.71
X30.684 Y3.68 Z-3.659
X30.669 Y3.718 Z-3.604
X30.658 Y3.747 Z-3.542
X30.651 Y3.765 Z-3.476
X30.648 Y3.771 Z-3.407
G0 Z5
X25.096 Y1.133
Z-1.25
G1 Z-2.2 F1000
X25.102 Y1.132 Z-2.315
X25.122 Y1.127 Z-2.427
X25.155 Y1.118 Z-2.537
X25.201 Y1.107 Z-2.641
X25.259 Y1.092 Z-2.74
X25.327 Y1.075 Z-2.83
X25.406 Y1.055 Z-2.911
X25.493 Y1.033 Z-2.982
X25.589 Y1.009 Z-3.041
X25.69 Y0.983 Z-3.088
X25.796 Y0.956 Z-3.122
X25.906 Y0.929 Z-3.143
X26.017 Y0.901 Z-3.15
G3 X31.191 Y0.175 I5.936 J23.516
G1 X31.266
X31.397 Y0.294
X31.548 Y0.451
X31.717 Y0.654
X31.904 Y0.913
X32.108 Y1.242
X32.328 Y1.657
X32.562 Y2.187
X32.81 Y2.873
X33.038 Y3.673
X33.217 Y4.485
X33.337 Y5.187
X33.356 Y5.32
X33.368 Y5.454
X33.372 Y5.589
Y139.532
Y139.689
X33.373 Y139.978
X33.374 Y139.995
X33.46 Y140.405
X33.523 Y140.53
X33.596 Y140.672
X33.638 Y140.732
X33.646 Y140.742
X34.021 Y141.116
X34.109 Y141.183
X34.197 Y141.242
X34.306 Y141.313
X34.591 Y141.482
X34.876 Y141.621
X35.16 Y141.75
X35.445 Y141.859
X35.73 Y141.954
X36.014 Y142.037
X36.24 Y142.097
X36.584 Y142.178
X36.868 Y142.24
X37.153 Y142.294
X37.438 Y142.341
X37.746 Y142.382
X38.007 Y142.414
X38.292 Y142.443
X38.577 Y142.47
X38.861 Y142.491
X39.146 Y142.509
X39.715 Y142.524
X40.285
X40.854 Y142.509
X41.139 Y142.491
X41.423 Y142.47
X41.708 Y142.443
X41.993 Y142.414
X42.278 Y142.379
X42.562 Y142.341
X42.847 Y142.294
X43.132 Y142.24
X43.416 Y142.178
X43.76 Y142.097
X43.986 Y142.037
X44.27 Y141.954
X44.555 Y141.859
X44.84 Y141.75
X45.124 Y141.621
X45.409 Y141.482
X45.694 Y141.313
X45.803 Y141.242
X45.891 Y141.183
X45.979 Y141.116
X46.354 Y140.742
X46.362 Y140.732
X46.404 Y140.672
X46.477 Y140.53
X46.54 Y140.405
X46.626 Y139.995
X46.627 Y139.978
X46.628 Y139.532
Y0.468
Y0.311
X46.627 Y0.022
X46.626 Y0.005
X46.54 Y-0.405
X46.477 Y-0.53
X46.404 Y-0.672
X46.362 Y-0.732
X46.354 Y-0.742
X45.979 Y-1.116
X45.891 Y-1.183
X45.803 Y-1.242
X45.694 Y-1.313
X45.409 Y-1.482
X45.124 Y-1.621
X44.84 Y-1.75
X44.555 Y-1.859
X44.27 Y-1.955
X43.986 Y-2.037
X43.76 Y-2.097
X43.416 Y-2.178
X43.132 Y-2.24
X42.847 Y-2.294
X42.562 Y-2.341
X42.254 Y-2.382
X41.993 Y-2.414
X41.708 Y-2.443
X41.423 Y-2.47
X41.139 Y-2.491
X40.854 Y-2.509
X40.285 Y-2.524
X39.715
X39.146 Y-2.509
X38.861 Y-2.491
X38.577 Y-2.47
X38.292 Y-2.443
X38.007 Y-2.414
X37.722 Y-2.379
X37.438 Y-2.341
X37.153 Y-2.294
X36.868 Y-2.24
X36.584 Y-2.178
X36.24 Y-2.097
X36.014 Y-2.037
X35.73 Y-1.955
X35.445 Y-1.859
X35.16 Y-1.75
X34.876 Y-1.621
X34.591 Y-1.482
X34.306 Y-1.313
X34.197 Y-1.242
X34.109 Y-1.183
X34.021 Y-1.116
X33.646 Y-0.742
X33.638 Y-0.732
X33.596 Y-0.672
X33.523 Y-0.53
X33.46 Y-0.405
X33.374 Y0.005
X33.373 Y0.022
X33.372 Y0.468
Y5.589
X33.358 Y5.664 Z-3.142
X33.345 Y5.736 Z-3.118
X33.333 Y5.802 Z-3.08
X33.323 Y5.859 Z-3.029
X33.307 Y5.898 Z-2.974
X33.296 Y5.926 Z-2.912
X33.289 Y5.944 Z-2.846
X33.287 Y5.95 Z-2.777
G0 Z5
X28.003 Y1.097
Z-0.618
G1 Z-1.568 F1000
X28.009 Y1.096 Z-1.683
X28.029 Y1.091 Z-1.795
X28.062 Y1.082 Z-1.905
X28.108 Y1.071 Z-2.01
X28.166 Y1.056 Z-2.108
X28.234 Y1.039 Z-2.198
X28.313 Y1.02 Z-2.279
X28.401 Y0.998 Z-2.35
X28.496 Y0.974 Z-2.409
X28.597 Y0.949 Z-2.456
X28.704 Y0.922 Z-2.49
X28.813 Y0.895 Z-2.511
X28.924 Y0.867 Z-2.518
G3 X34.1 Y0.154 I5.878 J23.53
G1 X34.162
X34.319 Y0.312
X34.495 Y0.516
X34.688 Y0.778
X34.899 Y1.111
X35.125 Y1.534
X35.366 Y2.078
X35.62 Y2.787
X35.842 Y3.588
X36.015 Y4.402
X36.15 Y5.222
X36.255 Y6.047
X36.338 Y6.874
X36.404 Y7.703
X36.455 Y8.532
X36.496 Y9.363
X36.528 Y10.194
X36.554 Y11.025
X36.574 Y11.856
X36.59 Y12.687
X36.603 Y13.518
X36.613 Y14.35
X36.621 Y15.181
X36.627 Y16.012
X36.632 Y16.844
X36.636 Y17.675
X36.639 Y18.506
X36.641 Y19.338
X36.645 Y21
X36.648 Y23.495
X36.65 Y26.82
X36.651 Y33.471
Y50.099
Y100.813
Y134.068
X36.739 Y134.894
X36.914 Y135.707
X37.028 Y136.531
X37.076 Y136.944
X37.195 Y137.342
X37.383 Y137.713
X37.631 Y138.046
X37.935 Y138.33
X38.216 Y138.586
X38.46 Y138.876
X38.663 Y139.198
X38.821 Y139.543
X38.932 Y139.906
X38.936 Y139.924
X39.029 Y140.165
X39.039 Y140.177
X39.342 Y140.318
X39.359 Y140.324
X39.769 Y140.402
X39.786 Y140.403
X40.214
X40.231 Y140.402
X40.641 Y140.324
X40.658 Y140.318
X40.961 Y140.177
X40.971 Y140.165
X41.064 Y139.924
X41.068 Y139.906
X41.07 Y139.532
X41.074 Y139.458
X41.433 Y139.248
X41.75 Y138.979
X42.015 Y138.659
X42.426 Y137.936
X42.611 Y137.125
X42.759 Y136.307
X42.879 Y135.484
X42.974 Y134.659
X43.051 Y133.831
X43.112 Y133.002
X43.16 Y132.172
X43.199 Y131.341
X43.23 Y130.51
X43.254 Y129.679
X43.274 Y128.848
X43.289 Y128.017
X43.302 Y127.186
X43.311 Y126.354
X43.319 Y125.523
X43.325 Y124.692
X43.33 Y123.86
X43.334 Y123.029
X43.337 Y122.198
X43.34 Y121.366
X43.343 Y119.703
X43.346 Y117.209
X43.348 Y113.884
X43.349 Y106.401
Y89.774
Y39.06
Y5.805
X43.213 Y4.985
X43.055 Y4.169
X42.952 Y3.344
X42.812 Y2.952
X42.606 Y2.591
X42.34 Y2.272
X42.023 Y2.003
X41.748 Y1.763
X41.513 Y1.483
X41.323 Y1.171
X41.184 Y0.833
X41.099 Y0.478
X41.068 Y0.114
Y0.094
X41.064 Y0.076
X40.971 Y-0.165
X40.961 Y-0.177
X40.658 Y-0.318
X40.641 Y-0.324
X40.231 Y-0.402
X40.214 Y-0.403
X39.786
X39.769 Y-0.402
X39.359 Y-0.324
X39.342 Y-0.318
X39.039 Y-0.177
X39.029 Y-0.165
X38.936 Y0.076
X38.932 Y0.094
X38.929 Y0.468
Y1.038
Y135.169
X38.915 Y135.244 Z-2.51
X38.902 Y135.316 Z-2.486
X38.89 Y135.382 Z-2.448
X38.88 Y135.438 Z-2.397
X38.865 Y135.477 Z-2.342
X38.853 Y135.506 Z-2.28
X38.846 Y135.524 Z-2.214
X38.844 Y135.53 Z-2.145
G0 Z5
X25.722 Y-7.45
Z-10.7
G1 Z-11.65 F1000
X25.716 Y-7.447 Z-11.765
X25.698 Y-7.436 Z-11.877
X25.669 Y-7.418 Z-11.987
X25.629 Y-7.394 Z-12.091
X25.578 Y-7.363 Z-12.19
X25.518 Y-7.326 Z-12.28
X25.448 Y-7.284 Z-12.361
X25.371 Y-7.237 Z-12.432
X25.287 Y-7.186 Z-12.491
X25.198 Y-7.132 Z-12.538
X25.104 Y-7.075 Z-12.572
X25.008 Y-7.016 Z-12.593
X24.91 Y-6.957 Z-12.6
G3 X20.178 Y-4.741 I-12.592 J-20.728
G1 X19.918 Y-4.662
X19.787 Y-4.616
X19.502 Y-4.511
X19.217 Y-4.399
X18.933 Y-4.272
X18.648 Y-4.128
X18.363 Y-3.97
X18.084 Y-3.807
X18.079 Y-3.803
X17.901 Y-3.695
X17.541 Y-3.489
X17.085 Y-3.268
X16.504 Y-3.033
X15.75 Y-2.784
X14.945 Y-2.576
X14.13 Y-2.412
X13.309 Y-2.281
X12.484 Y-2.176
X11.657 Y-2.092
X10.828 Y-2.024
X9.999 Y-1.969
X9.169 Y-1.925
X8.338 Y-1.89
X7.507 Y-1.861
X6.676 Y-1.837
X5.845 Y-1.818
X5.014 Y-1.803
X4.182 Y-1.791
X3.357 Y-1.69
X2.595 Y-1.357
X1.918 Y-0.875
X1.327 Y-0.29
X0.819 Y0.368
X0.386 Y1.078
X0.02 Y1.824
X-0.288 Y2.597
X-0.545 Y3.387
X-0.758 Y4.191
X-0.935 Y5.003
X-1.081 Y5.822
X-1.201 Y6.644
X-1.3 Y7.47
X-1.381 Y8.297
X-1.447 Y9.126
X-1.501 Y9.956
X-1.545 Y10.786
X-1.581 Y11.616
X-1.611 Y12.447
X-1.634 Y13.278
X-1.654 Y14.109
X-1.67 Y14.941
X-1.682 Y15.772
X-1.693 Y16.603
X-1.701 Y17.435
X-1.708 Y18.266
X-1.714 Y19.097
X-1.718 Y19.929
X-1.722 Y20.76
X-1.725 Y21.591
X-1.729 Y23.254
X-1.732 Y24.917
X-1.735 Y27.411
X-1.737 Y31.568
Y32.399
X-1.738 Y43.207
Y83.113
Y133.827
Y136.321
X-1.483 Y137.113
X-1.053 Y137.824
X-0.504 Y138.449
X0.128 Y138.989
X0.819 Y139.451
X1.552 Y139.843
X2.315 Y140.172
X3.1 Y140.448
X3.899 Y140.678
X4.708 Y140.869
X5.524 Y141.026
X6.345 Y141.156
X7.17 Y141.263
X7.997 Y141.35
X8.825 Y141.422
X9.654 Y141.481
X10.484 Y141.528
X11.315 Y141.567
X12.145 Y141.599
X12.976 Y141.625
X13.807 Y141.646
X14.639 Y141.663
X14.814 Y141.666
X15.232 Y141.709
X15.636 Y141.823
X16.015 Y142.003
X16.358 Y142.246
X16.655 Y142.544
X16.759 Y142.667
X17.021 Y142.952
X17.225 Y143.154
X17.509 Y143.39
X17.673 Y143.522
X17.794 Y143.609
X18.084 Y143.807
X18.363 Y143.97
X18.583 Y144.092
X18.584 Y144.093
G2 X18.871 Y144.33 I21.018 J-25.114
X20.853 Y145.829 I20.732 J-25.351
X21.382 Y146 I0.544 J-0.779
G1 X56.963 Y146.561
G2 X57.497 Y146.406 I0.015 J-0.95
X59.527 Y144.969 I-17.894 J-27.427
X59.819 Y144.742 I-19.924 J-25.99
G1 X59.822 Y144.741
X60.082 Y144.662
X60.213 Y144.616
X60.498 Y144.511
X60.783 Y144.399
X61.067 Y144.272
X61.352 Y144.128
X61.637 Y143.97
X61.916 Y143.807
X61.921 Y143.803
X62.099 Y143.695
X62.459 Y143.489
X62.915 Y143.268
X63.496 Y143.033
X64.25 Y142.784
X65.055 Y142.576
X65.87 Y142.412
X66.691 Y142.281
X67.516 Y142.176
X68.343 Y142.092
X69.172 Y142.024
X70.001 Y141.969
X70.831 Y141.925
X71.662 Y141.89
X72.493 Y141.861
X73.324 Y141.837
X74.155 Y141.818
X74.986 Y141.803
X75.818 Y141.791
X76.643 Y141.69
X77.405 Y141.357
X78.082 Y140.875
X78.673 Y140.29
X79.181 Y139.632
X79.614 Y138.922
X79.98 Y138.176
X80.288 Y137.403
X80.545 Y136.613
X80.758 Y135.809
X80.935 Y134.997
X81.081 Y134.178
X81.201 Y133.356
X81.3 Y132.53
X81.381 Y131.703
X81.447 Y130.874
X81.501 Y130.044
X81.545 Y129.214
X81.581 Y128.384
X81.611 Y127.553
X81.634 Y126.722
X81.654 Y125.891
X81.67 Y125.059
X81.682 Y124.228
X81.693 Y123.397
X81.701 Y122.565
X81.708 Y121.734
X81.714 Y120.903
X81.718 Y120.071
X81.722 Y119.24
X81.725 Y118.409
X81.729 Y116.746
X81.732 Y115.083
X81.735 Y112.589
X81.737 Y108.432
Y107.601
X81.738 Y96.793
Y56.887
Y6.173
Y3.679
X81.483 Y2.887
X81.053 Y2.176
X80.504 Y1.551
X79.872 Y1.011
X79.181 Y0.549
X78.448 Y0.157
X77.685 Y-0.172
X76.9 Y-0.448
X76.101 Y-0.678
X75.292 Y-0.869
X74.476 Y-1.026
X73.655 Y-1.156
X72.83 Y-1.263
X72.003 Y-1.35
X71.175 Y-1.422
X70.346 Y-1.481
X69.516 Y-1.528
X68.685 Y-1.567
X67.855 Y-1.599
X67.024 Y-1.625
X66.193 Y-1.646
X65.361 Y-1.663
X65.186 Y-1.666
X64.768 Y-1.709
X64.364 Y-1.823
X63.985 Y-2.003
X63.642 Y-2.246
X63.345 Y-2.544
X63.241 Y-2.667
X62.979 Y-2.952
X62.775 Y-3.154
X62.491 Y-3.39
X62.327 Y-3.522
X62.206 Y-3.609
X61.916 Y-3.807
X61.637 Y-3.97
X61.417 Y-4.092
X61.416 Y-4.093
G2 X61.129 Y-4.33 I-21.498 J25.687
X59.095 Y-5.869 I-21.212 J25.924
X58.545 Y-6.04 I-0.544 J0.779
G1 X20.924 Y-5.789
G2 X20.376 Y-5.611 I0.006 J0.95
X18.079 Y-3.804 I19.542 J27.205
G1 Y-3.803
X17.794 Y-3.609
X17.673 Y-3.522
X17.509 Y-3.39
X17.225 Y-3.154
X17.021 Y-2.952
X16.759 Y-2.667
X16.655 Y-2.544
X16.533 Y-2.382
X16.506 Y-2.343
X16.475 Y-2.301
X16.333 Y-2.124
X16.152 Y-1.927
X15.932 Y-1.715
X15.658 Y-1.486
X15.33 Y-1.246
X14.924 Y-0.99
X14.427 Y-0.72
X13.818 Y-0.44
X13.055 Y-0.149
X12.261 Y0.096
X11.454 Y0.297
X10.639 Y0.462
X9.819 Y0.599
X8.996 Y0.713
X8.17 Y0.81
X7.349 Y0.943
X6.523 Y1.034
X5.695 Y1.103
X4.889 Y1.31
X4.181 Y1.745
X3.597 Y2.337
X3.128 Y3.023
X2.754 Y3.766
X2.457 Y4.542
X2.222 Y5.34
X2.034 Y6.149
X1.883 Y6.967
X1.763 Y7.79
X1.666 Y8.615
X1.588 Y9.443
X1.526 Y10.272
X1.475 Y11.102
X1.435 Y11.932
X1.402 Y12.763
X1.375 Y13.594
X1.354 Y14.425
X1.336 Y15.256
X1.322 Y16.088
X1.311 Y16.919
X1.302 Y17.75
X1.294 Y18.582
X1.288 Y19.413
X1.283 Y20.244
X1.279 Y21.076
X1.276 Y21.907
X1.271 Y23.57
X1.268 Y25.233
X1.265 Y27.727
X1.263 Y31.052
X1.262 Y37.703
Y38.535
Y89.249
Y134.143
X1.365 Y134.968
X1.743 Y135.709
X2.306 Y136.32
X2.977 Y136.811
X3.712 Y137.199
X4.485 Y137.507
X5.279 Y137.751
X6.088 Y137.945
X6.904 Y138.101
X7.726 Y138.225
X8.552 Y138.324
X9.379 Y138.403
X10.208 Y138.467
X11.038 Y138.519
X11.868 Y138.56
X12.698 Y138.615
X13.502 Y138.705
X13.984 Y138.791
X14.367 Y138.896
X14.725 Y139.068
X15.046 Y139.302
X15.321 Y139.589
X15.539 Y139.92
X15.695 Y140.285
X15.782 Y140.672
G3 X15.779 Y141.043 I-0.934 J0.176
G1 X15.755 Y141.155 Z-12.593
X15.732 Y141.265 Z-12.572
X15.71 Y141.373 Z-12.538
X15.688 Y141.475 Z-12.491
X15.668 Y141.571 Z-12.432
X15.65 Y141.66 Z-12.361
X15.633 Y141.739 Z-12.28
X15.619 Y141.808 Z-12.19
X15.606 Y141.866 Z-12.091
X15.597 Y141.912 Z-11.987
X15.59 Y141.946 Z-11.877
X15.586 Y141.966 Z-11.765
X15.584 Y141.973 Z-11.65
G0 Z5
X61.588 Y145.062
Z-10.7
G1 Z-11.65 F1000
X61.589 Y145.056 Z-11.765
X61.592 Y145.035 Z-11.877
X61.597 Y145.001 Z-11.987
X61.604 Y144.955 Z-12.091
X61.613 Y144.896 Z-12.19
X61.623 Y144.826 Z-12.28
X61.635 Y144.746 Z-12.361
X61.649 Y144.657 Z-12.432
X61.663 Y144.56 Z-12.491
X61.679 Y144.456 Z-12.538
X61.695 Y144.348 Z-12.572
X61.712 Y144.236 Z-12.593
X61.729 Y144.123 Z-12.6
G3 X61.921 Y143.803 I0.481 J0.072
G1 X62.206 Y143.609
X62.327 Y143.522
X62.491 Y143.39
X62.775 Y143.154
X62.979 Y142.952
X63.241 Y142.667
X63.345 Y142.544
X63.467 Y142.382
X63.494 Y142.343
X63.525 Y142.301
X63.667 Y142.124
X63.848 Y141.927
X64.068 Y141.715
X64.342 Y141.486
X64.67 Y141.246
X65.076 Y140.99
X65.573 Y140.72
X66.182 Y140.44
X66.945 Y140.149
X67.739 Y139.904
X68.546 Y139.703
X69.361 Y139.538
X70.181 Y139.401
X71.004 Y139.287
X71.83 Y139.19
X72.651 Y139.057
X73.477 Y138.966
X74.305 Y138.897
X75.111 Y138.69
X75.819 Y138.255
X76.403 Y137.663
X76.872 Y136.977
X77.246 Y136.234
X77.543 Y135.458
X77.778 Y134.66
X77.966 Y133.851
X78.117 Y133.033
X78.237 Y132.21
X78.334 Y131.385
X78.411 Y130.557
X78.474 Y129.728
X78.525 Y128.898
X78.565 Y128.068
X78.598 Y127.237
X78.625 Y126.406
X78.646 Y125.575
X78.664 Y124.744
X78.678 Y123.912
X78.689 Y123.081
X78.698 Y122.25
X78.706 Y121.418
X78.712 Y120.587
X78.717 Y119.756
X78.721 Y118.924
X78.724 Y118.093
X78.729 Y116.43
X78.732 Y114.767
X78.735 Y112.273
X78.737 Y108.948
X78.738 Y102.297
Y101.465
Y50.751
Y5.857
X78.635 Y5.032
X78.257 Y4.291
X77.694 Y3.68
X77.023 Y3.189
X76.288 Y2.801
X75.515 Y2.493
X74.721 Y2.249
X73.912 Y2.055
X73.096 Y1.899
X72.274 Y1.775
X71.448 Y1.676
X70.621 Y1.597
X69.792 Y1.533
X68.962 Y1.481
X68.132 Y1.44
X67.302 Y1.385
X66.498 Y1.295
X66.016 Y1.209
X65.633 Y1.104
X65.275 Y0.932
X64.954 Y0.698
X64.679 Y0.411
X64.461 Y0.08
X64.305 Y-0.285
X64.218 Y-0.672
G3 X64.221 Y-1.043 I0.934 J-0.176
G1 X64.245 Y-1.155 Z-12.593
X64.268 Y-1.265 Z-12.572
X64.29 Y-1.373 Z-12.538
X64.312 Y-1.475 Z-12.491
X64.332 Y-1.571 Z-12.432
X64.35 Y-1.66 Z-12.361
X64.367 Y-1.739 Z-12.28
X64.381 Y-1.808 Z-12.19
X64.394 Y-1.866 Z-12.091
X64.403 Y-1.912 Z-11.987
X64.41 Y-1.946 Z-11.877
X64.414 Y-1.966 Z-11.765
X64.416 Y-1.973 Z-11.65
G0 Z5
X16.362 Y-3.637
Z-10.7
G1 Z-11.65 F1000
X16.363 Y-3.63 Z-11.765
X16.368 Y-3.61 Z-11.877
X16.376 Y-3.577 Z-11.987
X16.386 Y-3.531 Z-12.091
X16.399 Y-3.473 Z-12.19
X16.414 Y-3.404 Z-12.28
X16.432 Y-3.325 Z-12.361
X16.452 Y-3.237 Z-12.432
X16.473 Y-3.141 Z-12.491
X16.496 Y-3.039 Z-12.538
X16.52 Y-2.932 Z-12.572
X16.545 Y-2.822 Z-12.593
X16.57 Y-2.71 Z-12.6
G3 X16.506 Y-2.343 I-0.475 J0.107
G1 X16.37 Y-2.145
X16.34 Y-2.097
X16.086 Y-1.625
X16.039 Y-1.527
X15.934 Y-1.242
X15.847 Y-0.957
X15.831 Y-0.908
X15.766 Y-0.738
X15.682 Y-0.557
X15.566 Y-0.345
X15.431 Y-0.133
X15.257 Y0.103
X15.047 Y0.352
X14.792 Y0.617
X14.488 Y0.893
X14.116 Y1.189
X13.681 Y1.489
X13.155 Y1.803
X12.512 Y2.13
X11.748 Y2.458
X10.967 Y2.743
X10.174 Y2.991
X9.404 Y3.304
X8.608 Y3.545
X7.797 Y3.729
X7.403 Y3.86
X6.67 Y4.252
X6.1 Y4.858
X5.672 Y5.571
X5.351 Y6.337
X5.109 Y7.133
X4.925 Y7.943
X4.784 Y8.763
X4.674 Y9.587
X4.589 Y10.414
X4.523 Y11.243
X4.47 Y12.072
X4.429 Y12.903
X4.396 Y13.733
X4.37 Y14.564
X4.349 Y15.395
X4.332 Y16.227
X4.319 Y17.058
X4.308 Y17.889
X4.299 Y18.721
X4.292 Y19.552
X4.286 Y20.383
X4.282 Y21.215
X4.278 Y22.046
X4.275 Y22.877
X4.271 Y24.54
X4.268 Y26.203
X4.265 Y28.697
X4.263 Y32.854
X4.262 Y41.168
Y43.662
Y94.376
Y131.788
X4.264 Y132.203
X4.308 Y132.617
X4.424 Y133.016
X4.608 Y133.389
X4.854 Y133.724
X5.155 Y134.011
X5.847 Y134.471
X6.629 Y134.753
X7.432 Y134.968
X8.247 Y135.133
X9.069 Y135.26
X9.894 Y135.359
X10.722 Y135.441
X11.547 Y135.54
X12.368 Y135.671
X13.013 Y135.816
X13.588 Y135.986
X14.067 Y136.163
X14.499 Y136.356
X14.885 Y136.561
X15.239 Y136.78
X15.438 Y136.961
X15.589 Y137.184
X15.682 Y137.436
X15.714 Y137.704
Y139.532
X15.715 Y139.817
X15.72 Y140.102
X15.744 Y140.387
X15.782 Y140.672
G3 X15.746 Y141.041 I-0.945 J0.093
G1 X15.713 Y141.151 Z-12.593
X15.68 Y141.259 Z-12.572
X15.648 Y141.364 Z-12.538
X15.618 Y141.464 Z-12.491
X15.589 Y141.558 Z-12.432
X15.563 Y141.644 Z-12.361
X15.54 Y141.722 Z-12.28
X15.519 Y141.789 Z-12.19
X15.502 Y141.846 Z-12.091
X15.488 Y141.891 Z-11.987
X15.478 Y141.924 Z-11.877
X15.472 Y141.944 Z-11.765
X15.47 Y141.95 Z-11.65
G0 Z5
X63.638 Y143.637
Z-10.7
G1 Z-11.65 F1000
X63.637 Y143.63 Z-11.765
X63.632 Y143.61 Z-11.877
X63.625 Y143.577 Z-11.987
X63.614 Y143.531 Z-12.091
X63.601 Y143.473 Z-12.19
X63.586 Y143.404 Z-12.28
X63.568 Y143.325 Z-12.361
X63.548 Y143.237 Z-12.432
X63.527 Y143.141 Z-12.491
X63.504 Y143.039 Z-12.538
X63.48 Y142.932 Z-12.572
X63.455 Y142.822 Z-12.593
X63.43 Y142.71 Z-12.6
G3 X63.494 Y142.343 I0.475 J-0.107
G1 X63.63 Y142.145
X63.66 Y142.097
X63.914 Y141.625
X63.961 Y141.527
X64.066 Y141.242
X64.153 Y140.957
X64.169 Y140.908
X64.234 Y140.738
X64.318 Y140.557
X64.434 Y140.345
X64.569 Y140.133
X64.743 Y139.897
X64.953 Y139.648
X65.208 Y139.383
X65.512 Y139.107
X65.884 Y138.811
X66.319 Y138.511
X66.845 Y138.197
X67.488 Y137.87
X68.252 Y137.542
X69.033 Y137.257
X69.826 Y137.009
X70.596 Y136.695
X71.392 Y136.455
X72.203 Y136.271
X72.597 Y136.14
X73.331 Y135.748
X73.9 Y135.142
X74.328 Y134.429
X74.649 Y133.663
X74.891 Y132.867
X75.075 Y132.057
X75.216 Y131.237
X75.326 Y130.413
X75.411 Y129.586
X75.477 Y128.757
X75.53 Y127.928
X75.571 Y127.097
X75.604 Y126.267
X75.63 Y125.436
X75.651 Y124.605
X75.668 Y123.773
X75.682 Y122.942
X75.692 Y122.111
X75.701 Y121.279
X75.708 Y120.448
X75.714 Y119.617
X75.718 Y118.785
X75.722 Y117.954
X75.725 Y117.123
X75.729 Y115.46
X75.732 Y113.797
X75.735 Y111.303
X75.737 Y107.146
X75.738 Y98.832
Y96.338
Y45.624
Y8.212
X75.736 Y7.797
X75.692 Y7.383
X75.576 Y6.984
X75.392 Y6.611
X75.146 Y6.276
X74.845 Y5.989
X74.153 Y5.529
X73.371 Y5.247
X72.567 Y5.032
X71.753 Y4.867
X70.931 Y4.739
X70.106 Y4.641
X69.278 Y4.559
X68.453 Y4.46
X67.632 Y4.329
X66.987 Y4.184
X66.412 Y4.014
X65.933 Y3.837
X65.501 Y3.644
X65.115 Y3.439
X64.761 Y3.22
X64.562 Y3.039
X64.411 Y2.816
X64.318 Y2.564
X64.286 Y2.296
Y0.468
X64.285 Y0.183
X64.28 Y-0.102
X64.256 Y-0.387
X64.218 Y-0.672
G3 X64.254 Y-1.041 I0.945 J-0.093
G1 X64.287 Y-1.151 Z-12.593
X64.32 Y-1.259 Z-12.572
X64.352 Y-1.364 Z-12.538
X64.382 Y-1.464 Z-12.491
X64.411 Y-1.558 Z-12.432
X64.437 Y-1.644 Z-12.361
X64.46 Y-1.722 Z-12.28
X64.481 Y-1.789 Z-12.19
X64.498 Y-1.846 Z-12.091
X64.512 Y-1.891 Z-11.987
X64.522 Y-1.924 Z-11.877
X64.528 Y-1.944 Z-11.765
X64.53 Y-1.95 Z-11.65
G0 Z5
X15.233 Y-2.106
Z-10.7
G1 Z-11.65 F1000
X15.237 Y-2.1 Z-11.765
X15.248 Y-2.083 Z-11.877
X15.268 Y-2.055 Z-11.987
X15.294 Y-2.016 Z-12.091
X15.328 Y-1.967 Z-12.19
X15.368 Y-1.909 Z-12.28
X15.414 Y-1.842 Z-12.361
X15.465 Y-1.768 Z-12.432
X15.52 Y-1.687 Z-12.491
X15.579 Y-1.6 Z-12.538
X15.641 Y-1.51 Z-12.572
X15.705 Y-1.417 Z-12.593
X15.77 Y-1.322 Z-12.6
G3 X15.847 Y-0.957 I-0.401 J0.275
G1 X15.782 Y-0.672
X15.744 Y-0.387
X15.72 Y-0.102
X15.715 Y0.183
Y0.269
X15.709 Y0.373
X15.695 Y0.525
X15.667 Y0.702
X15.623 Y0.89
X15.56 Y1.1
X15.475 Y1.325
X15.365 Y1.568
X15.223 Y1.833
X15.052 Y2.106
X14.833 Y2.409
X14.576 Y2.719
X14.261 Y3.052
X13.834 Y3.445
X13.242 Y3.924
X12.562 Y4.402
X11.856 Y4.842
X11.191 Y5.341
X10.467 Y5.749
X9.715 Y6.104
X9.09 Y6.652
X8.627 Y7.343
X8.287 Y8.101
X8.038 Y8.895
X7.855 Y9.706
X7.718 Y10.526
X7.615 Y11.351
X7.537 Y12.178
X7.478 Y13.008
X7.432 Y13.838
X7.396 Y14.668
X7.369 Y15.499
X7.347 Y16.33
X7.33 Y17.161
X7.316 Y17.993
X7.306 Y18.824
X7.297 Y19.655
X7.29 Y20.487
X7.285 Y21.318
X7.28 Y22.149
X7.277 Y22.981
X7.274 Y23.812
X7.27 Y25.475
X7.267 Y27.138
X7.265 Y29.632
X7.263 Y33.789
X7.262 Y42.934
Y47.091
Y97.805
Y129.813
X7.263 Y130.228
X7.336 Y130.638
X7.479 Y131.028
X7.688 Y131.387
X7.957 Y131.704
X8.276 Y131.97
X8.638 Y132.176
X9.421 Y132.455
X10.248 Y132.54
X11.071 Y132.654
X11.889 Y132.801
X12.7 Y132.988
X13.489 Y133.219
X14.074 Y133.434
X14.303 Y133.535
X14.646 Y133.723
X14.953 Y133.964
X15.217 Y134.252
X15.43 Y134.58
X15.587 Y134.938
X15.682 Y135.316
X15.714 Y135.706
Y137.704
G3 X15.629 Y138.064 I-0.949 J-0.033
G1 X15.582 Y138.169 Z-12.593
X15.535 Y138.271 Z-12.572
X15.49 Y138.371 Z-12.538
X15.446 Y138.466 Z-12.491
X15.406 Y138.556 Z-12.432
X15.368 Y138.638 Z-12.361
X15.334 Y138.712 Z-12.28
X15.305 Y138.776 Z-12.19
X15.281 Y138.83 Z-12.091
X15.261 Y138.873 Z-11.987
X15.247 Y138.904 Z-11.877
X15.238 Y138.923 Z-11.765
X15.235 Y138.929 Z-11.65
G0 Z5
X64.767 Y142.106
Z-10.7
G1 Z-11.65 F1000
X64.763 Y142.1 Z-11.765
X64.752 Y142.083 Z-11.877
X64.732 Y142.055 Z-11.987
X64.706 Y142.016 Z-12.091
X64.672 Y141.967 Z-12.19
X64.632 Y141.909 Z-12.28
X64.586 Y141.842 Z-12.361
X64.535 Y141.767 Z-12.432
X64.48 Y141.687 Z-12.491
X64.421 Y141.6 Z-12.538
X64.359 Y141.51 Z-12.572
X64.295 Y141.417 Z-12.593
X64.23 Y141.322 Z-12.6
G3 X64.153 Y140.957 I0.401 J-0.275
G1 X64.218 Y140.672
X64.256 Y140.387
X64.28 Y140.102
X64.285 Y139.817
Y139.731
X64.291 Y139.627
X64.305 Y139.475
X64.333 Y139.298
X64.377 Y139.11
X64.44 Y138.9
X64.525 Y138.674
X64.635 Y138.432
X64.777 Y138.167
X64.948 Y137.894
X65.167 Y137.591
X65.424 Y137.281
X65.739 Y136.948
X66.166 Y136.555
X66.758 Y136.076
X67.438 Y135.598
X68.144 Y135.158
X68.809 Y134.659
X69.533 Y134.251
X70.285 Y133.896
X70.91 Y133.348
X71.373 Y132.657
X71.713 Y131.899
X71.962 Y131.105
X72.145 Y130.294
X72.282 Y129.474
X72.385 Y128.649
X72.463 Y127.822
X72.522 Y126.992
X72.568 Y126.162
X72.604 Y125.332
X72.631 Y124.501
X72.653 Y123.67
X72.67 Y122.839
X72.684 Y122.007
X72.694 Y121.176
X72.703 Y120.345
X72.71 Y119.513
X72.715 Y118.682
X72.72 Y117.851
X72.723 Y117.019
X72.726 Y116.188
X72.73 Y114.525
X72.733 Y112.862
X72.735 Y110.368
X72.737 Y106.211
X72.738 Y97.066
Y92.909
Y42.195
Y10.187
X72.737 Y9.772
X72.664 Y9.362
X72.521 Y8.972
X72.312 Y8.613
X72.043 Y8.296
X71.724 Y8.03
X71.362 Y7.824
X70.579 Y7.545
X69.752 Y7.46
X68.929 Y7.346
X68.111 Y7.199
X67.3 Y7.012
X66.511 Y6.781
X65.926 Y6.566
X65.697 Y6.465
X65.354 Y6.277
X65.047 Y6.036
X64.783 Y5.748
X64.57 Y5.42
X64.413 Y5.062
X64.318 Y4.684
X64.286 Y4.294
Y2.296
G3 X64.371 Y1.936 I0.949 J0.033
G1 X64.418 Y1.831 Z-12.593
X64.465 Y1.729 Z-12.572
X64.51 Y1.629 Z-12.538
X64.554 Y1.534 Z-12.491
X64.594 Y1.445 Z-12.432
X64.632 Y1.362 Z-12.361
X64.666 Y1.289 Z-12.28
X64.695 Y1.224 Z-12.19
X64.719 Y1.17 Z-12.091
X64.739 Y1.127 Z-11.987
X64.753 Y1.096 Z-11.877
X64.762 Y1.077 Z-11.765
X64.765 Y1.071 Z-11.65
G0 Z5
X14.865 Y-0.718
Z-10.7
G1 Z-11.65 F1000
X14.87 Y-0.714 Z-11.765
X14.885 Y-0.7 Z-11.877
X14.91 Y-0.676 Z-11.987
X14.945 Y-0.644 Z-12.091
X14.988 Y-0.604 Z-12.19
X15.04 Y-0.556 Z-12.28
X15.099 Y-0.5 Z-12.361
X15.165 Y-0.439 Z-12.432
X15.237 Y-0.372 Z-12.491
X15.314 Y-0.3 Z-12.538
X15.394 Y-0.226 Z-12.572
X15.476 Y-0.149 Z-12.593
X15.56 Y-0.071 Z-12.6
G3 X15.715 Y0.269 I-0.332 J0.356
G1 X15.714 Y1.607
Y2.177
X15.704 Y2.385
X15.686 Y2.579
X15.652 Y2.799
X15.595 Y3.05
X15.518 Y3.308
X15.406 Y3.611
X15.266 Y3.922
X15.04 Y4.346
X14.74 Y4.831
X14.429 Y5.265
X13.901 Y5.907
X13.388 Y6.561
X12.856 Y7.2
X12.267 Y7.786
X11.774 Y8.456
X11.395 Y9.196
X11.114 Y9.979
X10.905 Y10.783
X10.75 Y11.6
X10.634 Y12.423
X10.548 Y13.25
X10.483 Y14.079
X10.433 Y14.909
X10.395 Y15.739
X10.367 Y16.57
X10.344 Y17.401
X10.327 Y18.233
X10.314 Y19.064
X10.303 Y19.895
X10.295 Y20.726
X10.288 Y21.558
X10.283 Y22.389
X10.279 Y23.221
X10.276 Y24.052
X10.273 Y24.883
X10.269 Y26.546
X10.266 Y29.04
X10.264 Y32.366
X10.262 Y38.185
Y51.487
Y102.201
Y127.974
X10.335 Y128.383
X10.477 Y128.774
X10.686 Y129.133
X10.954 Y129.451
X11.273 Y129.717
X11.995 Y130.13
X12.758 Y130.308
X13.369 Y130.493
X13.869 Y130.683
X14.341 Y130.899
X14.468 Y130.967
X14.822 Y131.202
X15.129 Y131.496
X15.379 Y131.84
X15.563 Y132.223
X15.676 Y132.633
X15.714 Y133.057
Y135.706
G3 X15.629 Y136.067 I-0.949 J-0.033
G1 X15.582 Y136.171 Z-12.593
X15.535 Y136.274 Z-12.572
X15.49 Y136.373 Z-12.538
X15.446 Y136.468 Z-12.491
X15.406 Y136.558 Z-12.432
X15.368 Y136.64 Z-12.361
X15.334 Y136.714 Z-12.28
X15.305 Y136.778 Z-12.19
X15.281 Y136.832 Z-12.091
X15.261 Y136.875 Z-11.987
X15.247 Y136.906 Z-11.877
X15.238 Y136.925 Z-11.765
X15.235 Y136.931 Z-11.65
G0 Z5
X65.135 Y140.718
Z-10.7
G1 Z-11.65 F1000
X65.13 Y140.714 Z-11.765
X65.115 Y140.7 Z-11.877
X65.09 Y140.676 Z-11.987
X65.055 Y140.644 Z-12.091
X65.012 Y140.604 Z-12.19
X64.96 Y140.556 Z-12.28
X64.901 Y140.5 Z-12.361
X64.835 Y140.439 Z-12.432
X64.763 Y140.372 Z-12.491
X64.686 Y140.3 Z-12.538
X64.606 Y140.226 Z-12.572
X64.524 Y140.149 Z-12.593
X64.44 Y140.071 Z-12.6
G3 X64.285 Y139.731 I0.332 J-0.356
G1 X64.286 Y138.393
Y137.823
X64.296 Y137.615
X64.314 Y137.421
X64.348 Y137.201
X64.405 Y136.95
X64.482 Y136.692
X64.594 Y136.389
X64.734 Y136.078
X64.96 Y135.654
X65.26 Y135.169
X65.571 Y134.735
X66.099 Y134.093
X66.612 Y133.439
X67.144 Y132.8
X67.733 Y132.214
X68.226 Y131.544
X68.605 Y130.804
X68.886 Y130.021
X69.095 Y129.217
X69.25 Y128.4
X69.366 Y127.577
X69.452 Y126.75
X69.517 Y125.921
X69.567 Y125.091
X69.605 Y124.261
X69.633 Y123.43
X69.656 Y122.599
X69.673 Y121.767
X69.686 Y120.936
X69.697 Y120.105
X69.705 Y119.274
X69.712 Y118.442
X69.717 Y117.611
X69.721 Y116.779
X69.724 Y115.948
X69.727 Y115.117
X69.731 Y113.454
X69.734 Y110.96
X69.736 Y107.634
X69.738 Y101.815
Y88.513
Y37.799
Y12.026
X69.665 Y11.617
X69.523 Y11.226
X69.314 Y10.867
X69.046 Y10.549
X68.727 Y10.283
X68.005 Y9.87
X67.242 Y9.692
X66.631 Y9.507
X66.131 Y9.317
X65.659 Y9.101
X65.532 Y9.033
X65.178 Y8.798
X64.871 Y8.504
X64.621 Y8.16
X64.437 Y7.777
X64.324 Y7.367
X64.286 Y6.943
Y4.294
G3 X64.371 Y3.933 I0.949 J0.033
G1 X64.418 Y3.829 Z-12.593
X64.465 Y3.726 Z-12.572
X64.51 Y3.627 Z-12.538
X64.554 Y3.532 Z-12.491
X64.594 Y3.442 Z-12.432
X64.632 Y3.36 Z-12.361
X64.666 Y3.286 Z-12.28
X64.695 Y3.222 Z-12.19
X64.719 Y3.168 Z-12.091
X64.739 Y3.125 Z-11.987
X64.753 Y3.094 Z-11.877
X64.762 Y3.075 Z-11.765
X64.765 Y3.069 Z-11.65
G0 Z5
X14.863 Y1.191
Z-10.7
G1 Z-11.65 F1000
X14.868 Y1.196 Z-11.765
X14.884 Y1.21 Z-11.877
X14.909 Y1.233 Z-11.987
X14.943 Y1.265 Z-12.091
X14.987 Y1.306 Z-12.19
X15.038 Y1.354 Z-12.28
X15.098 Y1.409 Z-12.361
X15.164 Y1.471 Z-12.432
X15.236 Y1.538 Z-12.491
X15.313 Y1.609 Z-12.538
X15.393 Y1.683 Z-12.572
X15.475 Y1.76 Z-12.593
X15.559 Y1.838 Z-12.6
G3 X15.714 Y2.177 I-0.331 J0.356
G1 Y4.742
X15.694 Y5.157
X15.653 Y5.504
X15.584 Y5.874
X15.437 Y6.45
X15.178 Y7.24
X14.677 Y8.825
X14.412 Y9.613
X14.175 Y10.41
X13.977 Y11.217
X13.818 Y12.033
X13.692 Y12.855
X13.595 Y13.681
X13.52 Y14.509
X13.462 Y15.338
X13.417 Y16.168
X13.383 Y16.999
X13.357 Y17.83
X13.337 Y18.661
X13.321 Y19.492
X13.308 Y20.324
X13.299 Y21.155
X13.291 Y21.986
X13.285 Y22.818
X13.281 Y23.649
X13.277 Y24.48
X13.274 Y25.312
X13.27 Y26.974
X13.267 Y28.637
X13.265 Y31.131
X13.263 Y35.288
X13.262 Y45.265
Y55.241
Y105.955
Y125.492
X13.263 Y125.908
X13.337 Y126.317
X13.481 Y126.707
X13.691 Y127.066
X14.229 Y127.7
X14.624 Y127.954
X14.937 Y128.194
X15.206 Y128.484
X15.424 Y128.813
X15.584 Y129.175
X15.681 Y129.558
X15.714 Y129.951
Y133.057
G3 X15.629 Y133.418 I-0.949 J-0.033
G1 X15.582 Y133.522 Z-12.593
X15.535 Y133.625 Z-12.572
X15.49 Y133.724 Z-12.538
X15.446 Y133.819 Z-12.491
X15.406 Y133.909 Z-12.432
X15.368 Y133.991 Z-12.361
X15.334 Y134.065 Z-12.28
X15.305 Y134.129 Z-12.19
X15.281 Y134.183 Z-12.091
X15.261 Y134.226 Z-11.987
X15.247 Y134.257 Z-11.877
X15.238 Y134.276 Z-11.765
X15.235 Y134.282 Z-11.65
G0 Z5
X65.137 Y138.809
Z-10.7
G1 Z-11.65 F1000
X65.132 Y138.804 Z-11.765
X65.116 Y138.79 Z-11.877
X65.091 Y138.767 Z-11.987
X65.057 Y138.735 Z-12.091
X65.013 Y138.694 Z-12.19
X64.962 Y138.646 Z-12.28
X64.902 Y138.591 Z-12.361
X64.836 Y138.529 Z-12.432
X64.764 Y138.462 Z-12.491
X64.687 Y138.391 Z-12.538
X64.607 Y138.317 Z-12.572
X64.525 Y138.24 Z-12.593
X64.441 Y138.162 Z-12.6
G3 X64.286 Y137.823 I0.331 J-0.356
G1 Y135.258
X64.306 Y134.843
X64.347 Y134.496
X64.416 Y134.126
X64.563 Y133.55
X64.822 Y132.76
X65.323 Y131.175
X65.588 Y130.387
X65.825 Y129.59
X66.023 Y128.783
X66.182 Y127.967
X66.308 Y127.145
X66.405 Y126.319
X66.48 Y125.491
X66.538 Y124.662
X66.583 Y123.832
X66.617 Y123.001
X66.643 Y122.17
X66.663 Y121.339
X66.679 Y120.508
X66.692 Y119.676
X66.701 Y118.845
X66.709 Y118.014
X66.715 Y117.182
X66.719 Y116.351
X66.723 Y115.52
X66.726 Y114.688
X66.73 Y113.026
X66.733 Y111.363
X66.735 Y108.869
X66.737 Y104.712
X66.738 Y94.735
Y84.759
Y34.045
Y14.507
X66.737 Y14.092
X66.663 Y13.683
X66.519 Y13.293
X66.309 Y12.934
X65.771 Y12.3
X65.376 Y12.046
X65.063 Y11.806
X64.794 Y11.516
X64.576 Y11.187
X64.416 Y10.825
X64.319 Y10.442
X64.286 Y10.049
Y6.943
G3 X64.371 Y6.582 I0.949 J0.033
G1 X64.418 Y6.478 Z-12.593
X64.465 Y6.375 Z-12.572
X64.51 Y6.276 Z-12.538
X64.554 Y6.181 Z-12.491
X64.594 Y6.091 Z-12.432
X64.632 Y6.009 Z-12.361
X64.666 Y5.935 Z-12.28
X64.695 Y5.871 Z-12.19
X64.719 Y5.817 Z-12.091
X64.739 Y5.774 Z-11.987
X64.753 Y5.743 Z-11.877
X64.762 Y5.724 Z-11.765
X64.765 Y5.718 Z-11.65
G0 Z5
X14.863 Y3.756
Z-10.7
G1 Z-11.65 F1000
X14.868 Y3.761 Z-11.765
X14.884 Y3.775 Z-11.877
X14.909 Y3.798 Z-11.987
X14.943 Y3.83 Z-12.091
X14.987 Y3.871 Z-12.19
X15.038 Y3.919 Z-12.28
X15.098 Y3.974 Z-12.361
X15.164 Y4.035 Z-12.432
X15.236 Y4.102 Z-12.491
X15.313 Y4.173 Z-12.538
X15.393 Y4.248 Z-12.572
X15.475 Y4.325 Z-12.593
X15.559 Y4.403 Z-12.6
G3 X15.714 Y4.742 I-0.331 J0.356
G1 Y129.951
G3 X15.629 Y130.312 I-0.949 J-0.033
G1 X15.582 Y130.416 Z-12.593
X15.535 Y130.519 Z-12.572
X15.49 Y130.619 Z-12.538
X15.446 Y130.714 Z-12.491
X15.406 Y130.803 Z-12.432
X15.368 Y130.885 Z-12.361
X15.334 Y130.959 Z-12.28
X15.305 Y131.024 Z-12.19
X15.281 Y131.078 Z-12.091
X15.261 Y131.12 Z-11.987
X15.247 Y131.152 Z-11.877
X15.238 Y131.17 Z-11.765
X15.235 Y131.177 Z-11.65
G0 Z5
X65.137 Y136.244
Z-10.7
G1 Z-11.65 F1000
X65.132 Y136.239 Z-11.765
X65.116 Y136.225 Z-11.877
X65.091 Y136.202 Z-11.987
X65.057 Y136.17 Z-12.091
X65.013 Y136.129 Z-12.19
X64.962 Y136.081 Z-12.28
X64.902 Y136.026 Z-12.361
X64.836 Y135.965 Z-12.432
X64.764 Y135.898 Z-12.491
X64.687 Y135.827 Z-12.538
X64.607 Y135.752 Z-12.572
X64.525 Y135.675 Z-12.593
X64.441 Y135.597 Z-12.6
G3 X64.286 Y135.258 I0.331 J-0.356
G1 Y10.049
X64.299 Y9.973 Z-12.592
X64.312 Y9.901 Z-12.568
X64.324 Y9.836 Z-12.53
X64.335 Y9.779 Z-12.479
X64.35 Y9.74 Z-12.424
X64.361 Y9.711 Z-12.362
X64.368 Y9.694 Z-12.296
X64.371 Y9.688 Z-12.227
G0 Z5
X26.544 Y-7.378
Z-10.07
G1 Z-11.02 F1000
X26.538 Y-7.375 Z-11.135
X26.52 Y-7.364 Z-11.247
X26.49 Y-7.347 Z-11.357
X26.45 Y-7.323 Z-11.461
X26.399 Y-7.293 Z-11.56
X26.338 Y-7.257 Z-11.65
X26.268 Y-7.216 Z-11.731
X26.19 Y-7.17 Z-11.802
X26.106 Y-7.12 Z-11.861
X26.016 Y-7.067 Z-11.908
X25.921 Y-7.011 Z-11.942
X25.824 Y-6.954 Z-11.963
X25.725 Y-6.896 Z-11.97
G3 X20.966 Y-4.74 I-12.326 J-20.888
G1 X20.926 Y-4.729
X20.641 Y-4.641
X20.356 Y-4.543
X20.071 Y-4.437
X19.914 Y-4.377
X19.787 Y-4.321
X19.502 Y-4.19
X19.309 Y-4.092
X18.933 Y-3.884
X18.795 Y-3.807
X18.648 Y-3.713
X18.363 Y-3.511
X18.079 Y-3.289
X18.014 Y-3.237
X17.794 Y-3.046
X17.697 Y-2.952
X17.431 Y-2.667
X17.225 Y-2.417
X17.197 Y-2.382
X17 Y-2.097
X16.843 Y-1.812
X16.689 Y-1.527
X16.655 Y-1.44
X16.582 Y-1.242
X16.493 Y-0.957
X16.428 Y-0.672
X16.388 Y-0.387
X16.363 Y-0.102
X16.358 Y0.183
X16.357 Y1.038
X16.358 Y139.532
Y139.817
X16.363 Y140.102
X16.388 Y140.387
X16.428 Y140.672
X16.493 Y140.957
X16.582 Y141.242
X16.655 Y141.44
X16.689 Y141.527
X16.843 Y141.812
X17 Y142.097
X17.197 Y142.382
X17.225 Y142.417
X17.431 Y142.667
X17.697 Y142.952
X17.794 Y143.046
X18.014 Y143.237
X18.079 Y143.289
X18.363 Y143.511
X18.648 Y143.713
X18.795 Y143.807
X18.933 Y143.884
X19.309 Y144.092
X19.502 Y144.19
X19.503 Y144.191
G2 X19.798 Y144.417 I20.128 J-25.833
X21.831 Y145.846 I19.834 J-26.06
X22.334 Y145.999 I0.516 J-0.797
G1 X56.151 Y146.471
G2 X56.658 Y146.332 I0.013 J-0.95
X58.732 Y144.959 I-17.027 J-27.975
X59.032 Y144.742 I-19.101 J-26.602
G1 X59.034 Y144.74
X59.074 Y144.729
X59.359 Y144.641
X59.644 Y144.543
X59.929 Y144.437
X60.086 Y144.377
X60.213 Y144.321
X60.498 Y144.19
X60.691 Y144.092
X61.067 Y143.884
X61.205 Y143.807
X61.352 Y143.713
X61.637 Y143.511
X61.921 Y143.289
X61.986 Y143.237
X62.206 Y143.046
X62.303 Y142.952
X62.569 Y142.667
X62.775 Y142.417
X62.803 Y142.382
X63 Y142.097
X63.157 Y141.812
X63.311 Y141.527
X63.345 Y141.44
X63.418 Y141.242
X63.507 Y140.957
X63.572 Y140.672
X63.612 Y140.387
X63.637 Y140.102
X63.642 Y139.817
X63.643 Y138.962
Y0.468
X63.642 Y0.183
X63.637 Y-0.102
X63.612 Y-0.387
X63.572 Y-0.672
X63.507 Y-0.957
X63.418 Y-1.242
X63.345 Y-1.44
X63.311 Y-1.527
X63.157 Y-1.812
X63 Y-2.097
X62.803 Y-2.382
X62.775 Y-2.417
X62.569 Y-2.667
X62.303 Y-2.952
X62.206 Y-3.046
X61.986 Y-3.237
X61.921 Y-3.289
X61.637 Y-3.511
X61.352 Y-3.713
X61.205 Y-3.807
X61.067 Y-3.884
X60.691 Y-4.092
X60.498 Y-4.19
X60.437 Y-4.236 Z-11.962
X60.379 Y-4.28 Z-11.938
X60.326 Y-4.321 Z-11.9
X60.28 Y-4.355 Z-11.849
X60.252 Y-4.387 Z-11.794
X60.232 Y-4.41 Z-11.732
X60.219 Y-4.424 Z-11.666
X60.215 Y-4.429 Z-11.597
G0 Z5
X27.446 Y-7.243
Z-9.44
G1 Z-10.39 F1000
X27.44 Y-7.239 Z-10.505
X27.422 Y-7.229 Z-10.617
X27.392 Y-7.212 Z-10.727
X27.351 Y-7.19 Z-10.831
X27.299 Y-7.161 Z-10.93
X27.237 Y-7.126 Z-11.02
X27.166 Y-7.087 Z-11.101
X27.087 Y-7.043 Z-11.172
X27.002 Y-6.995 Z-11.231
X26.91 Y-6.944 Z-11.278
X26.815 Y-6.89 Z-11.312
X26.716 Y-6.835 Z-11.333
X26.616 Y-6.78 Z-11.34
G3 X21.806 Y-4.74 I-11.818 J-21.179
G1 X21.78 Y-4.733
X21.545 Y-4.662
X21.21 Y-4.556
X20.926 Y-4.452
X20.641 Y-4.343
X20.356 Y-4.221
X20.071 Y-4.085
X19.787 Y-3.931
X19.502 Y-3.772
X19.217 Y-3.586
X18.933 Y-3.385
X18.744 Y-3.237
X18.648 Y-3.159
X18.418 Y-2.952
X18.363 Y-2.902
X18.141 Y-2.667
X18.079 Y-2.599
X17.905 Y-2.382
X17.794 Y-2.237
X17.697 Y-2.097
X17.509 Y-1.764
X17.379 Y-1.527
X17.264 Y-1.242
X17.225 Y-1.134
X17.176 Y-0.957
X17.108 Y-0.672
X17.067 Y-0.387
X17.041 Y-0.102
X17.036 Y0.183
X17.035 Y0.753
X17.036 Y139.532
Y139.817
X17.039 Y139.974
Y139.976
G2 X17.018 Y140.131 I1.769 J0.311
X17.024 Y140.345 I0.946 J0.082
X17.027 Y140.363 I0.941 J-0.132
G1 X17.092 Y140.769
G2 X17.095 Y140.786 I0.938 J-0.15
X17.156 Y140.992 I0.935 J-0.168
X17.224 Y141.134 I1.652 J-0.706
G1 X17.225
X17.264 Y141.242
X17.379 Y141.527
X17.509 Y141.764
X17.697 Y142.097
X17.794 Y142.237
X17.905 Y142.382
X18.079 Y142.599
X18.141 Y142.667
X18.363 Y142.902
X18.418 Y142.952
X18.648 Y143.159
X18.744 Y143.237
X18.933 Y143.385
X19.217 Y143.586
X19.502 Y143.772
X19.787 Y143.931
X20.071 Y144.085
X20.356 Y144.221
X20.641 Y144.343
X20.642 Y144.344
G2 X20.95 Y144.551 I19.074 J-28.034
X23.158 Y145.9 I18.765 J-28.241
X23.612 Y146.021 I0.464 J-0.829
G1 X55.188 Y146.355
G2 X55.644 Y146.243 I0.01 J-0.95
X57.88 Y144.941 I-15.928 J-29.933
X58.192 Y144.741 I-18.165 J-28.631
G1 X58.194 Y144.74
X58.22 Y144.733
X58.455 Y144.662
X58.79 Y144.556
X59.074 Y144.452
X59.359 Y144.343
X59.644 Y144.221
X59.929 Y144.085
X60.213 Y143.931
X60.498 Y143.772
X60.783 Y143.586
X61.067 Y143.385
X61.256 Y143.237
X61.352 Y143.159
X61.582 Y142.952
X61.637 Y142.902
X61.859 Y142.667
X61.921 Y142.599
X62.095 Y142.382
X62.206 Y142.237
X62.303 Y142.097
X62.491 Y141.764
X62.621 Y141.527
X62.736 Y141.242
X62.775 Y141.134
X62.824 Y140.957
X62.892 Y140.672
X62.933 Y140.387
X62.959 Y140.102
X62.964 Y139.817
X62.965 Y139.247
X62.964 Y0.468
Y0.183
X62.961 Y0.026
Y0.024
G2 X62.982 Y-0.131 I-1.769 J-0.311
X62.976 Y-0.345 I-0.946 J-0.082
X62.973 Y-0.363 I-0.941 J0.132
G1 X62.908 Y-0.769
G2 X62.905 Y-0.786 I-0.938 J0.15
X62.844 Y-0.992 I-0.935 J0.168
X62.776 Y-1.134 I-1.652 J0.706
G1 X62.775
X62.736 Y-1.242
X62.621 Y-1.527
X62.491 Y-1.764
X62.303 Y-2.097
X62.206 Y-2.237
X62.095 Y-2.382
X61.921 Y-2.599
X61.859 Y-2.667
X61.637 Y-2.902
X61.582 Y-2.952
X61.352 Y-3.159
X61.256 Y-3.237
X61.067 Y-3.385
X60.783 Y-3.586
X60.498 Y-3.772
X60.213 Y-3.931
X59.929 Y-4.085
X59.644 Y-4.221
X59.359 Y-4.343
X59.295 Y-4.386 Z-11.332
X59.234 Y-4.426 Z-11.308
X59.179 Y-4.463 Z-11.27
X59.131 Y-4.495 Z-11.219
X59.101 Y-4.524 Z-11.164
X59.079 Y-4.546 Z-11.102
X59.066 Y-4.559 Z-11.036
X59.061 Y-4.564 Z-10.967
G0 Z5
X28.349 Y-7.272
Z-8.81
G1 Z-9.76 F1000
X28.343 Y-7.269 Z-9.875
X28.325 Y-7.259 Z-9.987
X28.296 Y-7.242 Z-10.097
X28.255 Y-7.219 Z-10.201
X28.203 Y-7.189 Z-10.3
X28.141 Y-7.155 Z-10.39
X28.071 Y-7.115 Z-10.471
X27.992 Y-7.07 Z-10.542
X27.907 Y-7.022 Z-10.601
X27.816 Y-6.97 Z-10.648
X27.72 Y-6.917 Z-10.682
X27.622 Y-6.861 Z-10.703
X27.522 Y-6.805 Z-10.71
G3 X22.723 Y-4.739 I-11.933 J-21.114
G1 X22.438 Y-4.662
X22.349 Y-4.637
X21.78 Y-4.451
X21.495 Y-4.34
X21.21 Y-4.228
X20.641 Y-3.956
X20.356 Y-3.796
X20.071 Y-3.63
X19.517 Y-3.237
X19.502 Y-3.225
X19.217 Y-2.976
X19.191 Y-2.952
X18.933 Y-2.71
X18.892 Y-2.667
X18.658 Y-2.382
X18.435 Y-2.097
X18.27 Y-1.812
X18.11 Y-1.527
X17.99 Y-1.242
X17.897 Y-0.957
X17.828 Y-0.672
X17.794 Y-0.486
X17.758 Y-0.102
X17.752 Y0.183
Y0.753
Y139.532
Y139.817
X17.755 Y139.974
Y139.976
G2 X17.737 Y140.113 I1.57 J0.274
X17.744 Y140.33 I0.947 J0.081
G1 X17.746 Y140.345
X17.783 Y140.604
X17.785 Y140.619
G2 X17.841 Y140.829 I0.94 J-0.136
X17.897 Y140.956 I1.484 J-0.58
G1 Y140.957
X17.99 Y141.242
X18.11 Y141.527
X18.27 Y141.812
X18.435 Y142.097
X18.658 Y142.382
X18.892 Y142.667
X18.933 Y142.71
X19.191 Y142.952
X19.217 Y142.976
X19.502 Y143.225
X19.517 Y143.237
X20.071 Y143.63
X20.356 Y143.796
X20.641 Y143.956
X21.21 Y144.228
X21.495 Y144.34
X21.59 Y144.377
X21.591 Y144.378
G2 X21.906 Y144.574 I18.135 J-28.705
X24.162 Y145.849 I17.82 J-28.901
X24.587 Y145.955 I0.435 J-0.844
G1 X54.247 Y146.255
G2 X54.675 Y146.159 I0.01 J-0.95
X56.956 Y144.93 I-14.949 J-30.486
X57.275 Y144.74 I-17.23 J-29.257
G1 X57.277 Y144.739
X57.562 Y144.662
X57.651 Y144.637
X58.22 Y144.451
X58.505 Y144.34
X58.79 Y144.228
X59.359 Y143.956
X59.644 Y143.796
X59.929 Y143.63
X60.483 Y143.237
X60.498 Y143.225
X60.783 Y142.976
X60.809 Y142.952
X61.067 Y142.71
X61.108 Y142.667
X61.342 Y142.382
X61.565 Y142.097
X61.73 Y141.812
X61.89 Y141.527
X62.01 Y141.242
X62.103 Y140.957
X62.172 Y140.672
X62.206 Y140.486
X62.242 Y140.102
X62.248 Y139.817
Y139.247
Y0.468
Y0.183
X62.245 Y0.026
Y0.024
G2 X62.263 Y-0.113 I-1.57 J-0.274
X62.256 Y-0.33 I-0.947 J-0.081
G1 X62.254 Y-0.345
X62.217 Y-0.604
X62.215 Y-0.619
G2 X62.159 Y-0.829 I-0.94 J0.136
X62.103 Y-0.956 I-1.484 J0.58
G1 Y-0.957
X62.01 Y-1.242
X61.89 Y-1.527
X61.73 Y-1.812
X61.565 Y-2.097
X61.342 Y-2.382
X61.108 Y-2.667
X61.067 Y-2.71
X60.809 Y-2.952
X60.783 Y-2.976
X60.498 Y-3.225
X60.483 Y-3.237
X59.929 Y-3.63
X59.644 Y-3.796
X59.359 Y-3.956
X58.79 Y-4.228
X58.505 Y-4.34
X58.41 Y-4.377
X58.345 Y-4.417 Z-10.702
X58.283 Y-4.455 Z-10.678
X58.226 Y-4.49 Z-10.64
X58.177 Y-4.52 Z-10.589
X58.146 Y-4.549 Z-10.534
X58.124 Y-4.57 Z-10.472
X58.11 Y-4.583 Z-10.406
X58.105 Y-4.587 Z-10.337
G0 Z5
X29.368 Y-7.185
Z-8.18
G1 Z-9.13 F1000
X29.361 Y-7.182 Z-9.245
X29.343 Y-7.172 Z-9.357
X29.313 Y-7.156 Z-9.467
X29.272 Y-7.133 Z-9.571
X29.22 Y-7.105 Z-9.67
X29.158 Y-7.071 Z-9.76
X29.087 Y-7.032 Z-9.841
X29.007 Y-6.989 Z-9.912
X28.921 Y-6.942 Z-9.971
X28.829 Y-6.892 Z-10.018
X28.733 Y-6.839 Z-10.052
X28.634 Y-6.785 Z-10.073
X28.533 Y-6.73 Z-10.08
G3 X23.703 Y-4.738 I-11.611 J-21.293
G1 X23.488 Y-4.683
X23.203 Y-4.602
X22.918 Y-4.516
X22.511 Y-4.377
X22.349 Y-4.319
X22.064 Y-4.205
X21.806 Y-4.092
X21.495 Y-3.939
X21.232 Y-3.807
X20.926 Y-3.63
X20.75 Y-3.522
X20.641 Y-3.445
X20.356 Y-3.237
X20.071 Y-3.015
X19.999 Y-2.952
X19.787 Y-2.755
X19.697 Y-2.667
X19.502 Y-2.442
X19.217 Y-2.088
X19.041 Y-1.812
X18.933 Y-1.622
X18.883 Y-1.527
X18.766 Y-1.242
X18.657 Y-0.957
X18.648 Y-0.925
X18.585 Y-0.672
X18.546 Y-0.387
X18.518 Y-0.102
X18.513 Y0.183
X18.512 Y0.753
Y139.532
X18.513 Y139.817
X18.516 Y139.974
Y139.976
G2 X18.498 Y140.111 I1.548 J0.268
X18.504 Y140.322 I0.947 J0.08
G1 X18.507 Y140.345
X18.538 Y140.57
X18.542 Y140.593
G2 X18.594 Y140.798 I0.941 J-0.131
X18.648 Y140.924 I1.47 J-0.554
G1 Y140.925
X18.657 Y140.957
X18.766 Y141.242
X18.883 Y141.527
X18.933 Y141.622
X19.041 Y141.812
X19.217 Y142.088
X19.502 Y142.442
X19.697 Y142.667
X19.787 Y142.755
X19.999 Y142.952
X20.071 Y143.015
X20.356 Y143.237
X20.641 Y143.445
X20.75 Y143.522
X20.926 Y143.63
X21.232 Y143.807
X21.495 Y143.939
X21.806 Y144.092
X22.064 Y144.205
X22.349 Y144.319
X22.511 Y144.377
X22.79 Y144.472
X22.792 Y144.473
G2 X23.115 Y144.656 I16.988 J-29.63
X25.439 Y145.841 I16.664 J-29.813
X25.83 Y145.928 I0.399 J-0.862
G1 X53.234 Y146.146
G2 X53.626 Y146.064 I0.008 J-0.95
X55.969 Y144.916 I-13.847 J-31.221
X56.295 Y144.738 I-16.19 J-30.073
G1 X56.297
X56.512 Y144.683
X56.797 Y144.602
X57.082 Y144.516
X57.489 Y144.377
X57.651 Y144.319
X57.936 Y144.205
X58.194 Y144.092
X58.505 Y143.939
X58.768 Y143.807
X59.074 Y143.63
X59.25 Y143.522
X59.359 Y143.445
X59.644 Y143.237
X59.929 Y143.015
X60.001 Y142.952
X60.213 Y142.755
X60.303 Y142.667
X60.498 Y142.442
X60.783 Y142.088
X60.959 Y141.812
X61.067 Y141.622
X61.117 Y141.527
X61.234 Y141.242
X61.343 Y140.957
X61.352 Y140.925
X61.415 Y140.672
X61.454 Y140.387
X61.482 Y140.102
X61.487 Y139.817
X61.488 Y139.247
Y0.468
X61.487 Y0.183
X61.484 Y0.026
Y0.024
G2 X61.502 Y-0.111 I-1.548 J-0.268
X61.496 Y-0.322 I-0.947 J-0.08
G1 X61.493 Y-0.345
X61.462 Y-0.57
X61.458 Y-0.593
G2 X61.406 Y-0.798 I-0.941 J0.131
X61.352 Y-0.924 I-1.47 J0.554
G1 Y-0.925
X61.343 Y-0.957
X61.234 Y-1.242
X61.117 Y-1.527
X61.067 Y-1.622
X60.959 Y-1.812
X60.783 Y-2.088
X60.498 Y-2.442
X60.303 Y-2.667
X60.213 Y-2.755
X60.001 Y-2.952
X59.929 Y-3.015
X59.644 Y-3.237
X59.359 Y-3.445
X59.25 Y-3.522
X59.074 Y-3.63
X58.768 Y-3.807
X58.505 Y-3.939
X58.194 Y-4.092
X57.936 Y-4.205
X57.651 Y-4.319
X57.489 Y-4.377
X57.21 Y-4.472
X57.143 Y-4.509 Z-10.072
X57.079 Y-4.545 Z-10.048
X57.021 Y-4.578 Z-10.01
X56.97 Y-4.606 Z-9.959
X56.939 Y-4.633 Z-9.904
X56.915 Y-4.653 Z-9.842
