%
(1)
(T1  D=9.5 CR=4.75 - ZMIN=-32 - ball end mill)
G90 G94
G17
G21
G28 G91 Z0
G90

(Contour1)
M9
T1 M6
S21000 M3
G54
M8
G0 X87.964 Y-0.682
Z15
Z-1.798
G1 Z-3 F1000
G3 X89.585 Y-0.008 I0.671 J0.672
G1 Y0.003
Y140.004
Y140.008
G3 X87.964 Y140.684 I-0.95 J0.002
G0 Z5
X37.036 Y140.682
Z-1.798
G1 Z-3 F1000
G3 X35.415 Y140.008 I-0.671 J-0.672
G1 Y139.997
Y-0.004
Y-0.008
G3 X37.036 Y-0.684 I0.95 J-0.002
G0 Z5
X87.006 Y-0.682
Z-2.888
G1 Z-4 F1000
G3 X88.627 Y-0.008 I0.671 J0.672
G1 Y0.003
Y140.004
Y140.008
G3 X87.006 Y140.683 I-0.95 J0.001
G0 Z5
X37.994 Y140.682
Z-2.888
G1 Z-4 F1000
G3 X36.373 Y140.008 I-0.671 J-0.672
G1 Y139.997
Y-0.004
Y-0.008
G3 X37.321 Y-0.96 I0.95 J-0.001
G1 X37.325
X86.406 Y-1.201
X86.412
G3 X87.398 Y-0.675 J1.187 F333.3
X87.416 Y-0.647 Z-4.001 I-0.987 J0.661
X85.407 Y0.619 Z-4.131 I-1.005 J0.633
X87.416 Y-0.647 Z-4.261 I1.005 J-0.633
X85.407 Y0.619 Z-4.391 I-1.005 J0.633
X87.416 Y-0.647 Z-4.521 I1.005 J-0.633
X85.407 Y0.619 Z-4.652 I-1.005 J0.633
X87.416 Y-0.647 Z-4.782 I1.005 J-0.633
X85.407 Y0.619 Z-4.912 I-1.005 J0.633
X86.379 Y-1.201 Z-4.999 I1.005 J-0.633
X86.412 Z-5 I0.033 J1.187
G1 X86.892 F1000
G3 X88.084 Y-0.008 J1.192
G1 Y0.015
Y140.004
Y140.008
G3 X86.463 Y140.682 I-0.95 J0.001
G0 Z5
X38.537 Y140.681
Z-3.809
G1 Z-5 F1000
G3 X36.916 Y140.008 I-0.672 J-0.672
G1 Y139.985
Y-0.004
Y-0.008
G3 X37.865 Y-0.96 I0.95 J-0.001
G1 X37.868
X86.131 Y-1.201
X86.137
G3 X87.124 Y-0.675 J1.187 F333.3
X87.142 Y-0.647 Z-5.001 I-0.987 J0.661
X85.132 Y0.619 Z-5.131 I-1.005 J0.633
X87.142 Y-0.647 Z-5.261 I1.005 J-0.633
X85.132 Y0.619 Z-5.391 I-1.005 J0.633
X87.142 Y-0.647 Z-5.521 I1.005 J-0.633
X85.132 Y0.619 Z-5.652 I-1.005 J0.633
X87.142 Y-0.647 Z-5.782 I1.005 J-0.633
X85.132 Y0.619 Z-5.912 I-1.005 J0.633
X86.104 Y-1.201 Z-5.999 I1.005 J-0.633
X86.137 Z-6 I0.033 J1.187
G1 X86.617 F1000
G3 X87.81 Y-0.008 J1.192
G1 Y0.015
Y140.007
Y140.008
G3 X86.189 Y140.683 I-0.95 J0.002
G0 Z5
X38.812 Y140.681
Z-4.457
G1 Z-6 F1000
G3 X37.19 Y140.008 I-0.672 J-0.672
G1 Y139.985
Y-0.007
Y-0.008
G3 X38.139 Y-0.96 I0.95 J-0.002
G1 X38.142
X86.068 Y-1.201
X86.074
G3 X87.06 Y-0.675 J1.187 F333.3
X87.078 Y-0.647 Z-6.001 I-0.987 J0.661
X85.069 Y0.619 Z-6.131 I-1.005 J0.633
X87.078 Y-0.647 Z-6.261 I1.005 J-0.633
X85.069 Y0.619 Z-6.391 I-1.005 J0.633
X87.078 Y-0.647 Z-6.521 I1.005 J-0.633
X85.069 Y0.619 Z-6.652 I-1.005 J0.633
X87.078 Y-0.647 Z-6.782 I1.005 J-0.633
X85.069 Y0.619 Z-6.912 I-1.005 J0.633
X86.041 Y-1.201 Z-6.999 I1.005 J-0.633
X86.074 Z-7 I0.033 J1.187
G1 X86.554 F1000
G3 X87.746 Y-0.008 J1.192
G1 Y0.015
Y140.007
Y140.008
G3 X86.126 Y140.683 I-0.95 J0.002
G0 Z5
X39.153 Y140.959
Z-6.05
G1 X39.146 Z-6.165 F1000
X39.126 Z-6.277
X39.092 Z-6.387
X39.045 Z-6.491
X38.985 Z-6.59
X38.914 Z-6.68
X38.833 Z-6.761
X38.743 Z-6.832
X38.645 Z-6.891
X38.54 Z-6.938
X38.431 Z-6.972
X38.318 Z-6.993
X38.203 Z-7
G3 X37.254 Y140.008 J-0.95
G1 Y139.985
Y-0.007
Y-0.008
G3 X38.202 Y-0.96 I0.95 J-0.002
G1 X38.205
X86.039 Y-1.201
X86.046
G3 X87.032 Y-0.675 J1.187 F333.3
X87.05 Y-0.647 Z-7.001 I-0.987 J0.661
X85.041 Y0.619 Z-7.131 I-1.005 J0.633
X87.05 Y-0.647 Z-7.261 I1.005 J-0.633
X85.041 Y0.619 Z-7.391 I-1.005 J0.633
X87.05 Y-0.647 Z-7.521 I1.005 J-0.633
X85.041 Y0.619 Z-7.652 I-1.005 J0.633
X87.05 Y-0.647 Z-7.782 I1.005 J-0.633
X85.041 Y0.619 Z-7.912 I-1.005 J0.633
X86.013 Y-1.201 Z-7.999 I1.005 J-0.633
X86.046 Z-8 I0.033 J1.187
G1 X86.526 F1000
G3 X87.718 Y-0.008 J1.192
G1 Y0.015
Y140.007
Y140.008
G3 X86.097 Y140.683 I-0.95 J0.002
G1 X86.016 Y140.602 Z-7.993
X85.936 Y140.522 Z-7.972
X85.859 Y140.445 Z-7.938
X85.784 Y140.371 Z-7.891
X85.715 Y140.302 Z-7.832
X85.651 Y140.238 Z-7.761
X85.594 Y140.181 Z-7.68
X85.543 Y140.131 Z-7.59
X85.501 Y140.089 Z-7.491
X85.468 Y140.056 Z-7.387
X85.444 Y140.032 Z-7.277
X85.429 Y140.017 Z-7.165
X85.424 Y140.012 Z-7.05
G0 Z5
X39.182 Y140.959
Z-6.734
G1 Z-7.05 F1000
X39.175 Z-7.165
X39.154 Z-7.277
X39.12 Z-7.387
X39.073 Z-7.491
X39.014 Z-7.59
X38.943 Z-7.68
X38.862 Z-7.761
X38.772 Z-7.832
X38.673 Z-7.891
X38.569 Z-7.938
X38.459 Z-7.972
X38.346 Z-7.993
X38.232 Z-8
G3 X37.282 Y140.008 J-0.95
G1 Y139.985
Y-0.007
Y-0.008
G3 X38.231 Y-0.96 I0.95 J-0.002
G1 X38.234
X85.969 Y-1.201
X85.975
G3 X86.961 Y-0.675 J1.187 F333.3
X86.98 Y-0.647 Z-8.001 I-0.987 J0.661
X84.97 Y0.619 Z-8.131 I-1.005 J0.633
X86.98 Y-0.647 Z-8.261 I1.005 J-0.633
X84.97 Y0.619 Z-8.391 I-1.005 J0.633
X86.98 Y-0.647 Z-8.521 I1.005 J-0.633
X84.97 Y0.619 Z-8.652 I-1.005 J0.633
X86.98 Y-0.647 Z-8.782 I1.005 J-0.633
X84.97 Y0.619 Z-8.912 I-1.005 J0.633
X85.942 Y-1.201 Z-8.999 I1.005 J-0.633
X85.975 Z-9 I0.033 J1.187
G1 X86.455 F1000
G3 X87.647 Y-0.008 J1.192
G1 Y0.015
Y140.007
Y140.008
G3 X86.027 Y140.683 I-0.95 J0.002
G1 X85.946 Y140.602 Z-8.993
X85.866 Y140.522 Z-8.972
X85.788 Y140.445 Z-8.938
X85.714 Y140.371 Z-8.891
X85.644 Y140.302 Z-8.832
X85.581 Y140.238 Z-8.761
X85.523 Y140.181 Z-8.68
X85.473 Y140.131 Z-8.59
X85.431 Y140.089 Z-8.491
X85.398 Y140.056 Z-8.387
X85.373 Y140.032 Z-8.277
X85.359 Y140.017 Z-8.165
X85.354 Y140.012 Z-8.05
G0 Z5
X39.252 Y140.959
Z-8.05
G1 X39.245 Z-8.165 F1000
X39.225 Z-8.277
X39.191 Z-8.387
X39.144 Z-8.491
X39.084 Z-8.59
X39.013 Z-8.68
X38.932 Z-8.761
X38.842 Z-8.832
X38.744 Z-8.891
X38.639 Z-8.938
X38.53 Z-8.972
X38.417 Z-8.993
X38.302 Z-9
G3 X37.353 Y140.008 J-0.95
G1 Y139.985
Y-0.007
Y-0.008
G3 X38.301 Y-0.96 I0.95 J-0.002
G1 X38.304
X85.86 Y-1.201
X85.867
G3 X86.853 Y-0.675 J1.187 F333.3
X86.871 Y-0.647 Z-9.001 I-0.987 J0.661
X84.862 Y0.619 Z-9.131 I-1.005 J0.633
X86.871 Y-0.647 Z-9.261 I1.005 J-0.633
X84.862 Y0.619 Z-9.391 I-1.005 J0.633
X86.871 Y-0.647 Z-9.521 I1.005 J-0.633
X84.862 Y0.619 Z-9.652 I-1.005 J0.633
X86.871 Y-0.647 Z-9.782 I1.005 J-0.633
X84.862 Y0.619 Z-9.912 I-1.005 J0.633
X85.834 Y-1.201 Z-9.999 I1.005 J-0.633
X85.867 Z-10 I0.033 J1.187
G1 X86.347 F1000
G3 X87.539 Y-0.008 J1.192
G1 Y0.015
Y140.007
Y140.008
G3 X85.918 Y140.683 I-0.95 J0.002
G1 X85.837 Y140.602 Z-9.993
X85.757 Y140.522 Z-9.972
X85.68 Y140.445 Z-9.938
X85.606 Y140.371 Z-9.891
X85.536 Y140.302 Z-9.832
X85.472 Y140.238 Z-9.761
X85.415 Y140.181 Z-9.68
X85.365 Y140.131 Z-9.59
X85.323 Y140.089 Z-9.491
X85.289 Y140.056 Z-9.387
X85.265 Y140.032 Z-9.277
X85.25 Y140.017 Z-9.165
X85.245 Y140.012 Z-9.05
G0 Z5
X39.361 Y140.959
Z-9.05
G1 X39.354 Z-9.165 F1000
X39.333 Z-9.277
X39.299 Z-9.387
X39.252 Z-9.491
X39.193 Z-9.59
X39.122 Z-9.68
X39.041 Z-9.761
X38.95 Z-9.832
X38.852 Z-9.891
X38.748 Z-9.938
X38.638 Z-9.972
X38.525 Z-9.993
X38.411 Z-10
G3 X37.461 Y140.008 J-0.95
G1 Y139.985
Y-0.007
Y-0.008
G3 X38.409 Y-0.96 I0.95 J-0.002
G1 X38.413
X85.709 Y-1.201
X85.715
G3 X86.701 Y-0.675 J1.187 F333.3
X86.719 Y-0.647 Z-10.001 I-0.987 J0.661
X84.71 Y0.619 Z-10.131 I-1.005 J0.633
X86.719 Y-0.647 Z-10.261 I1.005 J-0.633
X84.71 Y0.619 Z-10.391 I-1.005 J0.633
X86.719 Y-0.647 Z-10.521 I1.005 J-0.633
X84.71 Y0.619 Z-10.652 I-1.005 J0.633
X86.719 Y-0.647 Z-10.782 I1.005 J-0.633
X84.71 Y0.619 Z-10.912 I-1.005 J0.633
X85.682 Y-1.201 Z-10.999 I1.005 J-0.633
X85.715 Z-11 I0.033 J1.187
G1 X86.195 F1000
G3 X87.387 Y-0.008 J1.192
G1 Y0.015
Y140.007
Y140.008
G3 X86.437 Y140.96 I-0.95 J0.002
G1 X38.563 Y140.959
G3 X37.891 Y140.68 J-0.95
X37.613 Y140.008 I0.672 J-0.672
G1 Y139.985
Y-0.007
Y-0.008
G3 X38.561 Y-0.96 I0.95 J-0.002
G1 X38.565
X85.519 Y-1.201
X85.526
G3 X86.512 Y-0.675 J1.187 F333.3
X86.53 Y-0.647 Z-11.001 I-0.987 J0.661
X84.521 Y0.619 Z-11.131 I-1.005 J0.633
X86.53 Y-0.647 Z-11.261 I1.005 J-0.633
X84.521 Y0.619 Z-11.391 I-1.005 J0.633
X86.53 Y-0.647 Z-11.521 I1.005 J-0.633
X84.521 Y0.619 Z-11.652 I-1.005 J0.633
X86.53 Y-0.647 Z-11.782 I1.005 J-0.633
X84.521 Y0.619 Z-11.912 I-1.005 J0.633
X85.492 Y-1.201 Z-11.999 I1.005 J-0.633
X85.526 Z-12 I0.033 J1.187
G1 X86.006 F1000
G3 X87.198 Y-0.008 J1.192
G1 Y0.015
Y140.004
Y140.008
G3 X86.248 Y140.96 I-0.95 J0.001
G1 X38.752 Y140.959
G3 X38.08 Y140.68 J-0.95
X37.802 Y140.008 I0.672 J-0.672
G1 Y139.985
Y-0.004
Y-0.008
G3 X38.751 Y-0.96 I0.95 J-0.001
G1 X38.755
X85.283 Y-1.201
X85.29
G3 X86.276 Y-0.675 J1.187 F333.3
X86.294 Y-0.647 Z-12.001 I-0.987 J0.661
X84.284 Y0.619 Z-12.131 I-1.005 J0.633
X86.294 Y-0.647 Z-12.261 I1.005 J-0.633
X84.284 Y0.619 Z-12.391 I-1.005 J0.633
X86.294 Y-0.647 Z-12.521 I1.005 J-0.633
X84.284 Y0.619 Z-12.652 I-1.005 J0.633
X86.294 Y-0.647 Z-12.782 I1.005 J-0.633
X84.284 Y0.619 Z-12.912 I-1.005 J0.633
X85.256 Y-1.201 Z-12.999 I1.005 J-0.633
X85.29 Z-13 I0.033 J1.187
G1 X85.77 F1000
G3 X86.962 Y-0.008 J1.192
G1 Y0.015
Y140.004
Y140.008
G3 X86.012 Y140.96 I-0.95 J0.001
G1 X38.988 Y140.959
G3 X38.316 Y140.68 J-0.95
X38.038 Y140.008 I0.672 J-0.672
G1 Y139.985
Y-0.004
Y-0.008
G3 X38.987 Y-0.96 I0.95 J-0.001
G1 X38.991
X85.007 Y-1.201
X85.013
G3 X86 Y-0.675 J1.187 F333.3
X86.018 Y-0.647 Z-13.001 I-0.987 J0.661
X84.008 Y0.619 Z-13.131 I-1.005 J0.633
X86.018 Y-0.647 Z-13.261 I1.005 J-0.633
X84.008 Y0.619 Z-13.391 I-1.005 J0.633
X86.018 Y-0.647 Z-13.521 I1.005 J-0.633
X84.008 Y0.619 Z-13.652 I-1.005 J0.633
X86.018 Y-0.647 Z-13.782 I1.005 J-0.633
X84.008 Y0.619 Z-13.912 I-1.005 J0.633
X84.98 Y-1.201 Z-13.999 I1.005 J-0.633
X85.013 Z-14 I0.033 J1.187
G1 X85.493 F1000
G3 X86.685 Y-0.008 J1.192
G1 Y0.015
Y140.004
Y140.008
G3 X85.735 Y140.96 I-0.95 J0.001
G1 X39.265 Y140.959
G3 X38.315 Y140.008 J-0.95
G1 Y139.985
Y-0.004
Y-0.008
G3 X39.263 Y-0.96 I0.95 J-0.001
G1 X39.267
X84.683 Y-1.201
X84.69
G3 X85.676 Y-0.675 J1.187 F333.3
X85.694 Y-0.647 Z-14.001 I-0.987 J0.661
X83.685 Y0.619 Z-14.131 I-1.005 J0.633
X85.694 Y-0.647 Z-14.261 I1.005 J-0.633
X83.685 Y0.619 Z-14.391 I-1.005 J0.633
X85.694 Y-0.647 Z-14.521 I1.005 J-0.633
X83.685 Y0.619 Z-14.652 I-1.005 J0.633
X85.694 Y-0.647 Z-14.782 I1.005 J-0.633
X83.685 Y0.619 Z-14.912 I-1.005 J0.633
X84.657 Y-1.201 Z-14.999 I1.005 J-0.633
X84.69 Z-15 I0.033 J1.187
G1 X85.17 F1000
G3 X86.362 Y-0.008 J1.192
G1 Y0.015
Y140.004
Y140.008
G3 X86.085 Y140.681 I-0.95 J0.001
X85.412 Y140.96 I-0.673 J-0.671
G1 X39.588 Y140.959
G3 X38.916 Y140.68 J-0.95
X38.638 Y140.008 I0.672 J-0.672
G1 Y139.985
Y-0.004
Y-0.008
G3 X39.587 Y-0.96 I0.95 J-0.001
G1 X39.591
X84.313 Y-1.201
X84.32
G3 X85.306 Y-0.675 J1.187 F333.3
X85.324 Y-0.647 Z-15.001 I-0.987 J0.661
X83.315 Y0.619 Z-15.131 I-1.005 J0.633
X85.324 Y-0.647 Z-15.261 I1.005 J-0.633
X83.315 Y0.619 Z-15.391 I-1.005 J0.633
X85.324 Y-0.647 Z-15.521 I1.005 J-0.633
X83.315 Y0.619 Z-15.652 I-1.005 J0.633
X85.324 Y-0.647 Z-15.782 I1.005 J-0.633
X83.315 Y0.619 Z-15.912 I-1.005 J0.633
X84.287 Y-1.201 Z-15.999 I1.005 J-0.633
X84.32 Z-16 I0.033 J1.187
G1 X84.8 F1000
G3 X85.992 Y-0.008 J1.192
G1 Y0.015
Y140.004
Y140.008
G3 X85.715 Y140.681 I-0.95 J0.001
X85.042 Y140.96 I-0.673 J-0.671
G1 X39.958 Y140.959
G3 X39.008 Y140.008 J-0.95
G1 Y139.985
Y-0.004
Y-0.008
G3 X39.957 Y-0.96 I0.95 J-0.001
G1 X39.96
X83.898 Y-1.201
X83.905
G3 X84.892 Y-0.675 J1.187 F333.3
X84.91 Y-0.647 Z-16.001 I-0.987 J0.661
X82.9 Y0.619 Z-16.131 I-1.005 J0.633
X84.91 Y-0.647 Z-16.261 I1.005 J-0.633
X82.9 Y0.619 Z-16.391 I-1.005 J0.633
X84.91 Y-0.647 Z-16.521 I1.005 J-0.633
X82.9 Y0.619 Z-16.652 I-1.005 J0.633
X84.91 Y-0.647 Z-16.782 I1.005 J-0.633
X82.9 Y0.619 Z-16.912 I-1.005 J0.633
X83.872 Y-1.201 Z-16.999 I1.005 J-0.633
X83.905 Z-17 I0.033 J1.187
G1 X84.385 F1000
G3 X85.577 Y-0.008 J1.192
G1 Y0.015
Y140.004
Y140.008
G3 X84.627 Y140.96 I-0.95 J0.001
G1 X40.373 Y140.959
G3 X39.423 Y140.008 J-0.95
G1 Y139.985
Y-0.004
Y-0.008
G3 X40.371 Y-0.96 I0.95 J-0.001
G1 X40.375
X83.423 Y-1.202
X83.431
G3 X84.417 Y-0.675 I-0.001 J1.187 F333.3
X84.435 Y-0.647 Z-17.001 I-0.987 J0.66
X84.618 Y-0.014 Z-17.024 I-1.005 J0.633
X82.243 Y-0.016 Z-17.154 I-1.187 J-0.001
X84.618 Y-0.014 Z-17.284 I1.187 J0.001
X82.243 Y-0.016 Z-17.415 I-1.187 J-0.001
X84.618 Y-0.014 Z-17.545 I1.187 J0.001
X82.243 Y-0.016 Z-17.675 I-1.187 J-0.001
X84.618 Y-0.014 Z-17.805 I1.187 J0.001
X82.243 Y-0.016 Z-17.935 I-1.187 J-0.001
X83.398 Y-1.202 Z-17.999 I1.187 J0.001
X83.431 Z-18 I0.032 J1.187
G1 X83.911 F1000
G3 X85.103 Y-0.008 I-0.001 J1.192
G1 Y0.003
Y140.004
Y140.008
G3 X84.825 Y140.681 I-0.95 J0.001
X84.153 Y140.96 I-0.673 J-0.671
G1 X40.847 Y140.959
G3 X39.897 Y140.008 J-0.95
G1 Y139.997
Y-0.004
Y-0.008
G3 X40.846 Y-0.96 I0.95 J-0.001
G1 X40.85
X82.898 Y-1.202
X82.906
G3 X83.892 Y-0.675 I-0.001 J1.187 F333.3
X83.91 Y-0.647 Z-18.001 I-0.987 J0.66
X81.9 Y0.618 Z-18.131 I-1.005 J0.633
X83.91 Y-0.647 Z-18.261 I1.005 J-0.633
X81.9 Y0.618 Z-18.391 I-1.005 J0.633
X83.91 Y-0.647 Z-18.521 I1.005 J-0.633
X81.9 Y0.618 Z-18.652 I-1.005 J0.633
X83.91 Y-0.647 Z-18.782 I1.005 J-0.633
X81.9 Y0.618 Z-18.912 I-1.005 J0.633
X82.873 Y-1.202 Z-18.999 I1.005 J-0.633
X82.906 Z-19 I0.032 J1.187
G1 X83.386 F1000
G3 X84.577 Y-0.008 I-0.001 J1.192
G1 Y0.003
Y140.004
Y140.008
G3 X83.627 Y140.96 I-0.95 J0.001
G1 X41.372 Y140.959
G3 X40.423 Y140.008 J-0.95
G1 Y139.997
Y-0.004
Y-0.008
G3 X41.371 Y-0.96 I0.95 J-0.001
G1 X41.375
X82.313 Y-1.202
X82.321
G3 X83.307 Y-0.675 I-0.001 J1.187 F333.3
X83.325 Y-0.647 Z-19.001 I-0.987 J0.66
X81.315 Y0.618 Z-19.131 I-1.005 J0.633
X83.325 Y-0.647 Z-19.261 I1.005 J-0.633
X81.315 Y0.618 Z-19.391 I-1.005 J0.633
X83.325 Y-0.647 Z-19.521 I1.005 J-0.633
X81.315 Y0.618 Z-19.652 I-1.005 J0.633
X83.325 Y-0.647 Z-19.782 I1.005 J-0.633
X81.315 Y0.618 Z-19.912 I-1.005 J0.633
X82.288 Y-1.202 Z-19.999 I1.005 J-0.633
X82.321 Z-20 I0.032 J1.187
G1 X82.801 F1000
G3 X83.993 Y-0.008 I-0.001 J1.192
G1 Y0.003
Y140.004
Y140.008
G3 X83.716 Y140.681 I-0.95 J0.001
X83.043 Y140.96 I-0.673 J-0.671
G1 X41.957 Y140.959
G3 X41.007 Y140.008 J-0.95
G1 Y139.997
Y-0.004
Y-0.008
G3 X41.956 Y-0.96 I0.95 J-0.001
G1 X41.96
X81.664 Y-1.202
X81.672
G3 X82.658 Y-0.675 I-0.001 J1.187 F333.3
X82.676 Y-0.647 Z-20.001 I-0.987 J0.66
X80.666 Y0.618 Z-20.131 I-1.005 J0.633
X82.676 Y-0.647 Z-20.261 I1.005 J-0.633
X80.666 Y0.618 Z-20.391 I-1.005 J0.633
X82.676 Y-0.647 Z-20.521 I1.005 J-0.633
X80.666 Y0.618 Z-20.652 I-1.005 J0.633
X82.676 Y-0.647 Z-20.782 I1.005 J-0.633
X80.666 Y0.618 Z-20.912 I-1.005 J0.633
X81.639 Y-1.202 Z-20.999 I1.005 J-0.633
X81.672 Z-21 I0.032 J1.187
G1 X82.152 F1000
G3 X83.343 Y-0.008 I-0.001 J1.192
G1 Y0.003
Y140.004
Y140.008
G3 X83.066 Y140.681 I-0.95 J0.001
X82.393 Y140.96 I-0.673 J-0.671
G1 X42.607 Y140.959
G3 X41.657 Y140.008 J-0.95
G1 Y139.997
Y-0.004
Y-0.008
G3 X42.605 Y-0.96 I0.95 J-0.001
G1 X42.61
X80.942 Y-1.202
X80.951
G3 X81.937 Y-0.675 I-0.001 J1.187 F333.3
X81.955 Y-0.647 Z-21.001 I-0.987 J0.66
X79.945 Y0.618 Z-21.131 I-1.005 J0.633
X81.955 Y-0.647 Z-21.261 I1.005 J-0.633
X79.945 Y0.618 Z-21.391 I-1.005 J0.633
X81.955 Y-0.647 Z-21.521 I1.005 J-0.633
X79.945 Y0.618 Z-21.652 I-1.005 J0.633
X81.955 Y-0.647 Z-21.782 I1.005 J-0.633
X79.945 Y0.618 Z-21.912 I-1.005 J0.633
X80.918 Y-1.202 Z-21.999 I1.005 J-0.633
X80.951 Z-22 I0.032 J1.187
G1 X81.431 F1000
G3 X82.622 Y-0.008 I-0.001 J1.192
G1 Y0.003
Y140.004
Y140.008
G3 X82.345 Y140.681 I-0.95 J0.001
X81.672 Y140.96 I-0.673 J-0.671
G1 X43.328 Y140.959
G3 X42.378 Y140.008 J-0.95
G1 Y139.997
Y-0.004
Y-0.008
G3 X43.326 Y-0.96 I0.95 J-0.002
G1 X43.331
X80.143 Y-1.202
X80.152
G3 X81.138 Y-0.675 I-0.001 J1.187 F333.3
X81.156 Y-0.647 Z-22.001 I-0.987 J0.66
X79.146 Y0.618 Z-22.131 I-1.005 J0.633
X81.156 Y-0.647 Z-22.261 I1.005 J-0.633
X79.146 Y0.618 Z-22.391 I-1.005 J0.633
X81.156 Y-0.647 Z-22.521 I1.005 J-0.633
X79.146 Y0.618 Z-22.652 I-1.005 J0.633
X81.156 Y-0.647 Z-22.782 I1.005 J-0.633
X79.146 Y0.618 Z-22.912 I-1.005 J0.633
X80.119 Y-1.202 Z-22.999 I1.005 J-0.633
X80.152 Z-23 I0.032 J1.187
G1 X80.632 F1000
G3 X81.823 Y-0.008 I-0.001 J1.192
G1 Y0.003
Y140.004
Y140.008
G3 X81.546 Y140.681 I-0.95 J0.002
X80.873 Y140.96 I-0.673 J-0.671
G1 X44.127 Y140.959
G3 X43.177 Y140.008 J-0.95
G1 Y139.997
Y-0.004
Y-0.008
G3 X44.125 Y-0.96 I0.95 J-0.002
G1 X44.13
X79.255 Y-1.202
X79.265
G3 X80.251 Y-0.675 I-0.001 J1.187 F333.3
X80.269 Y-0.647 Z-23.001 I-0.987 J0.66
X78.259 Y0.618 Z-23.131 I-1.005 J0.632
X80.269 Y-0.647 Z-23.261 I1.005 J-0.632
X78.259 Y0.618 Z-23.391 I-1.005 J0.632
X80.269 Y-0.647 Z-23.521 I1.005 J-0.632
X78.259 Y0.618 Z-23.652 I-1.005 J0.632
X80.269 Y-0.647 Z-23.782 I1.005 J-0.632
X78.259 Y0.618 Z-23.912 I-1.005 J0.632
X79.232 Y-1.202 Z-23.999 I1.005 J-0.632
X79.265 Z-24 I0.032 J1.187
G1 X79.745 F1000
G3 X80.936 Y-0.008 I-0.001 J1.192
G1 Y0.003
Y140.004
Y140.008
G3 X79.986 Y140.96 I-0.95 J0.002
G1 X45.014 Y140.959
G3 X44.341 Y140.68 J-0.95
X44.064 Y140.008 I0.672 J-0.671
G1 Y139.997
Y-0.004
Y-0.008
G3 X45.012 Y-0.96 I0.95 J-0.002
G1 X45.017
X78.267 Y-1.202
X78.276 Y-1.203
G3 X79.262 Y-0.675 I-0.001 J1.187 F333.3
X79.28 Y-0.647 Z-24.001 I-0.987 J0.66
X77.27 Y0.617 Z-24.131 I-1.005 J0.632
X79.28 Y-0.647 Z-24.261 I1.005 J-0.632
X77.27 Y0.617 Z-24.391 I-1.005 J0.632
X79.28 Y-0.647 Z-24.521 I1.005 J-0.632
X77.27 Y0.617 Z-24.652 I-1.005 J0.632
X79.28 Y-0.647 Z-24.782 I1.005 J-0.632
X77.27 Y0.617 Z-24.912 I-1.005 J0.632
X78.243 Y-1.202 Z-24.999 I1.005 J-0.632
X78.276 Y-1.203 Z-25 I0.032 J1.187
G1 X78.756 Y-1.202 F1000
G3 X79.948 Y-0.008 I-0.001 J1.192
G1 Y0.003
Y140.004
Y140.008
G3 X79.671 Y140.681 I-0.95 J0.002
X78.998 Y140.96 I-0.673 J-0.671
G1 X46.002 Y140.959
G3 X45.33 Y140.68 J-0.95
X45.052 Y140.008 I0.672 J-0.671
G1 Y139.997
Y-0.004
Y-0.008
G3 X46 Y-0.96 I0.95 J-0.002
G1 X46.006
X77.156 Y-1.203
G3 X77.167 I0.009 J1.187
X78.153 Y-0.675 I-0.001 J1.187 F333.3
X78.171 Y-0.648 Z-25.001 I-0.987 J0.66
X76.16 Y0.617 Z-25.131 I-1.005 J0.632
X78.171 Y-0.648 Z-25.261 I1.005 J-0.632
X76.16 Y0.617 Z-25.391 I-1.005 J0.632
X78.171 Y-0.648 Z-25.521 I1.005 J-0.632
X76.16 Y0.617 Z-25.652 I-1.005 J0.632
X78.171 Y-0.648 Z-25.782 I1.005 J-0.632
X76.16 Y0.617 Z-25.912 I-1.005 J0.632
X77.134 Y-1.202 Z-25.999 I1.005 J-0.632
X77.167 Y-1.203 Z-26 I0.032 J1.187
G1 X77.647 Y-1.202 F1000
G3 X78.838 Y-0.008 I-0.001 J1.192
G1 Y0.003
Y140.004
Y140.008
G3 X77.888 Y140.96 I-0.95 J0.002
G1 X47.112 Y140.959
G3 X46.439 Y140.68 J-0.95
X46.162 Y140.008 I0.672 J-0.671
G1 Y139.997
Y-0.004
Y-0.008
G3 X47.11 Y-0.96 I0.95 J-0.002
G1 X47.116
X75.896 Y-1.203
G3 X75.908 I0.01 J1.187
X76.894 Y-0.675 I-0.001 J1.187 F333.3
X76.912 Y-0.648 Z-26.001 I-0.987 J0.66
X77.094 Y-0.014 Z-26.024 I-1.005 J0.632
X74.719 Y-0.017 Z-26.154 I-1.187 J-0.001
X77.094 Y-0.014 Z-26.284 I1.187 J0.001
X74.719 Y-0.017 Z-26.415 I-1.187 J-0.001
X77.094 Y-0.014 Z-26.545 I1.187 J0.001
X74.719 Y-0.017 Z-26.675 I-1.187 J-0.001
X77.094 Y-0.014 Z-26.805 I1.187 J0.001
X74.719 Y-0.017 Z-26.935 I-1.187 J-0.001
X75.875 Y-1.202 Z-26.999 I1.187 J0.001
X75.908 Y-1.203 Z-27 I0.032 J1.187
G1 X76.388 Y-1.202 F1000
G3 X77.579 Y-0.008 I-0.001 J1.192
G1 Y0.003
Y140.004
Y140.008
G3 X76.629 Y140.96 I-0.95 J0.002
G1 X48.371 Y140.959
G3 X47.699 Y140.68 J-0.95
X47.421 Y140.008 I0.673 J-0.671
G1 Y139.997
Y-0.004
Y-0.008
G3 X48.369 Y-0.96 I0.95 J-0.002
G1 X48.376
X74.451 Y-1.205
G3 X74.465 I0.011 J1.187
X75.45 Y-0.676 I-0.003 J1.187 F333.3
X75.468 Y-0.648 Z-27.001 I-0.988 J0.659
X73.456 Y0.614 Z-27.131 I-1.006 J0.631
X75.468 Y-0.648 Z-27.261 I1.006 J-0.631
X73.456 Y0.614 Z-27.391 I-1.006 J0.631
X75.468 Y-0.648 Z-27.521 I1.006 J-0.631
X73.456 Y0.614 Z-27.652 I-1.006 J0.631
X75.468 Y-0.648 Z-27.782 I1.006 J-0.631
X73.456 Y0.614 Z-27.912 I-1.006 J0.631
X74.432 Y-1.205 Z-27.999 I1.006 J-0.631
X74.465 Z-28 I0.03 J1.187
G1 X74.945 Y-1.204 F1000
G3 X76.135 Y-0.008 I-0.003 J1.192
G1 Y-0.004
Y140.004
Y140.008
G3 X75.185 Y140.961 I-0.95 J0.002
G1 X49.815
G3 X48.865 Y140.008 J-0.95
G1 Y140.004
Y-0.004
Y-0.008
G3 X49.813 Y-0.961 I0.95 J-0.002
G1 X49.821
X72.748 Y-1.205
G3 X72.764 I0.013 J1.187
X73.749 Y-0.676 I-0.003 J1.187 F333.3
X73.767 Y-0.649 Z-28.001 I-0.988 J0.658
X71.755 Y0.613 Z-28.131 I-1.006 J0.631
X73.767 Y-0.649 Z-28.261 I1.006 J-0.631
X71.755 Y0.613 Z-28.391 I-1.006 J0.631
X73.767 Y-0.649 Z-28.521 I1.006 J-0.631
X71.755 Y0.613 Z-28.652 I-1.006 J0.631
X73.767 Y-0.649 Z-28.782 I1.006 J-0.631
X71.755 Y0.613 Z-28.912 I-1.006 J0.631
X72.731 Y-1.205 Z-28.999 I1.006 J-0.631
X72.764 Z-29 I0.03 J1.187
G1 X73.244 Y-1.204 F1000
G3 X74.434 Y-0.008 I-0.003 J1.192
G1 Y-0.004
Y140.004
Y140.008
G3 X73.484 Y140.961 I-0.95 J0.003
G1 X51.516
G3 X50.566 Y140.008 J-0.95
G1 Y140.004
Y-0.004
Y-0.008
G3 X51.514 Y-0.961 I0.95 J-0.003
G1 X51.523
X70.656 Y-1.206
G3 X70.675 I0.015 J1.187
X71.659 Y-0.677 I-0.004 J1.187 F333.3
X71.677 Y-0.649 Z-29.001 I-0.989 J0.658
X69.664 Y0.611 Z-29.131 I-1.007 J0.63
X71.677 Y-0.649 Z-29.261 I1.007 J-0.63
X69.664 Y0.611 Z-29.391 I-1.007 J0.63
X71.677 Y-0.649 Z-29.521 I1.007 J-0.63
X69.664 Y0.611 Z-29.652 I-1.007 J0.63
X71.677 Y-0.649 Z-29.782 I1.007 J-0.63
X69.664 Y0.611 Z-29.912 I-1.007 J0.63
X70.641 Y-1.206 Z-29.999 I1.007 J-0.63
X70.675 Z-30 I0.029 J1.187
G1 X71.155 Y-1.205 F1000
G3 X72.343 Y-0.008 I-0.004 J1.192
G1 Y-0.004
Y140.004
Y140.008
G3 X72.067 Y140.681 I-0.95 J0.003
X71.393 Y140.961 I-0.674 J-0.67
G1 X53.607
G3 X52.657 Y140.008 J-0.95
G1 Y140.004
Y-0.004
Y-0.008
G3 X53.604 Y-0.961 I0.95 J-0.003
G2 X53.617 Y-0.962 I-0.003 J-0.95
G1 X67.836 Y-1.209
G3 X67.862 I0.021 J1.187
X68.846 Y-0.678 I-0.006 J1.187 F333.3
X68.864 Y-0.65 Z-30.001 I-0.989 J0.657
X66.849 Y0.607 Z-30.131 I-1.007 J0.629
X68.864 Y-0.65 Z-30.261 I1.007 J-0.629
X66.849 Y0.607 Z-30.391 I-1.007 J0.629
X68.864 Y-0.65 Z-30.521 I1.007 J-0.629
X66.849 Y0.607 Z-30.652 I-1.007 J0.629
X68.864 Y-0.65 Z-30.782 I1.007 J-0.629
X66.849 Y0.607 Z-30.912 I-1.007 J0.629
X67.829 Y-1.208 Z-30.999 I1.007 J-0.629
X67.862 Y-1.209 Z-31 I0.028 J1.187
G1 X68.342 Y-1.206 F1000
G3 X69.529 Y-0.008 I-0.006 J1.192
G1 Y-0.004
Y0.091
Y139.997
Y140.004
Y140.008
G3 X68.579 Y140.963 I-0.95 J0.004
G1 X56.421
G3 X55.471 Y140.008 J-0.95
G1 Y140.004
Y139.909
Y0.003
Y-0.004
Y-0.008
G3 X57.09 Y-0.688 I0.95 J-0.004
G0 Z5
X62.85 Y31.026
Z-29.995
G1 Z-29.999 F1000
G19 G2 Y30.109 Z-30.949 J-0.95 F333.3
G1 Y0.025 Z-31.999
G2 Y0.003 Z-32 J-0.033 K0.949
G1 Y-0.004
Y-0.007
X62.851 Y-0.008
X62.85 Y-0.007 F1000
Y-0.004
Y0.003
Y139.997
Y140.004
Y140.007
X62.851 Y140.008
G0 Z5
X62.15 Y108.974
Z-29.995
G1 Z-29.999 F1000
G3 Y109.891 Z-30.949 J0.95 F333.3
G1 Y139.975 Z-31.999
G3 Y139.997 Z-32 J0.033 K0.949
G1 Y140.004
Y140.007
X62.149 Y140.008
X62.15 Y140.007 F1000
Y140.004
Y139.997
Y0.003
Y-0.004
Y-0.007
X62.149 Y-0.008
G0 Z15
G17
M9
G28 G91 Z0
G28 X0 Y0
M30
%
