(1001)
(T2  D=0.6 CR=0. - ZMIN=4. - FLAT END MILL)
G0 G90 G94 G17
G21
G53 Z0.

(XY-FINISHING - 0.6MM)
M5
M9
T2
S16400 M3
G4 P4.
G55
M9
G0 X7.93 Y30.295
Z27.
Z8.06
G1 Z6.76 F1500.
X7.927 Y30.297 Z6.737
X7.917 Y30.306 Z6.718
X7.902 Y30.318 Z6.705
X7.884 Y30.333 Z6.7
X7.315 Y30.815
G3 X7.23 Y30.808 I-0.039 J-0.046
G1 X7.228 Y30.805
X7.219 Y30.795
X7.208 Y30.784
X7.198 Y30.774
X7.187 Y30.766
X7.166 Y30.75
X7.119 Y30.722
X6.49 Y30.359
X6.489 Y30.358
X7.166 Y30.013
X7.191 Y29.999
X7.203 Y29.991
X7.215 Y29.982
X7.228 Y29.972
X7.241 Y29.96
X7.254 Y29.946
X7.265 Y29.933
X7.275 Y29.921
X7.29 Y29.899
X7.301 Y29.879
X7.306 Y29.869
X7.308 Y29.864
G3 X7.341 Y29.832 I0.055 J0.025
G2 X7.379 Y29.769 I-0.021 J-0.056
G1 X7.361 Y29.632
G2 X7.308 Y29.58 I-0.059 J0.008
G3 X7.268 Y29.558 I0.007 J-0.06
G1 X7.266 Y29.555
X7.262 Y29.551
X7.247 Y29.533
X7.228 Y29.516
X7.21 Y29.501
X7.191 Y29.489
X6.557 Y29.077
X6.558 Y29.075
X7.228 Y28.777
X7.257 Y28.764
X7.271 Y28.757
X7.285 Y28.749
X7.29 Y28.746
X7.305 Y28.736
X7.321 Y28.724
X7.336 Y28.711
X7.344 Y28.703
X7.348 Y28.699
G3 X7.39 Y28.681 I0.043 J0.042
G2 X7.449 Y28.623 I-0.001 J-0.06
G1 X7.457 Y28.381
G2 X7.402 Y28.319 I-0.06 J-0.002
G3 X7.361 Y28.298 I0.005 J-0.06
G1 X7.358 Y28.295
X7.351 Y28.287
X7.334 Y28.27
X7.317 Y28.255
X7.29 Y28.235
X6.692 Y27.801
X6.69 Y27.799
X7.351 Y27.545
X7.413 Y27.522
X7.427 Y27.515
X7.439 Y27.509
X7.451 Y27.502
X7.463 Y27.495
X7.475 Y27.486
X7.479 Y27.483
G3 X7.524 Y27.471 I0.036 J0.048
G2 X7.591 Y27.419 I0.008 J-0.059
G1 X7.624 Y27.147
G2 X7.57 Y27.08 I-0.06 J-0.007
G3 X7.53 Y27.058 I0.006 J-0.06
G1 X7.528 Y27.056
X7.518 Y27.044
X7.507 Y27.033
X7.495 Y27.022
X7.475 Y27.005
X6.891 Y26.532
X6.893 Y26.531
X7.598 Y26.302
X7.625 Y26.293
X7.638 Y26.288
X7.652 Y26.282
X7.66 Y26.278
X7.675 Y26.27
X7.679 Y26.267
X7.681 Y26.266
G3 X7.726 Y26.259 I0.031 J0.051
G2 X7.799 Y26.214 I0.014 J-0.058
G1 X7.86 Y25.939
G2 X7.812 Y25.867 I-0.059 J-0.013
G3 X7.773 Y25.842 I0.011 J-0.059
G1 X7.768 Y25.835
X7.756 Y25.819
X7.742 Y25.804
X7.727 Y25.788
X7.721 Y25.784
X7.158 Y25.276
X7.159 Y25.275
X7.845 Y25.092
X7.906 Y25.075
X7.922 Y25.07
X7.937 Y25.064
X7.945 Y25.06
X7.946 Y25.059
G3 X7.992 Y25.057 I0.026 J0.054
G2 X8.069 Y25.021 I0.02 J-0.056
G1 X8.159 Y24.763
G2 X8.122 Y24.686 I-0.057 J-0.02
G3 X8.087 Y24.656 I0.019 J-0.057
G1 X8.086 Y24.653
X8.079 Y24.641
X8.072 Y24.629
X8.064 Y24.617
X8.048 Y24.596
X8.039 Y24.586
X8.03 Y24.576
X7.49 Y24.037
X7.492 Y24.035
X8.215 Y23.882
X8.239 Y23.877
X8.258 Y23.872
X8.276 Y23.866
X8.292 Y23.86
X8.307 Y23.853
X8.323 Y23.845
X8.33 Y23.84
G3 X8.376 Y23.834 I0.03 J0.052
G2 X8.447 Y23.796 I0.015 J-0.058
G1 X8.519 Y23.602
G2 X8.49 Y23.527 I-0.056 J-0.021
G3 X8.46 Y23.492 I0.027 J-0.053
G1 X8.459 Y23.489
X8.457 Y23.483
X8.452 Y23.47
X8.447 Y23.458
X8.441 Y23.445
X8.432 Y23.43
X8.423 Y23.415
X8.412 Y23.4
X8.4 Y23.385
X8.398 Y23.383
X7.888 Y22.817
X7.89 Y22.814
X8.585 Y22.704
X8.646 Y22.695
X8.662 Y22.691
X8.677 Y22.687
X8.693 Y22.682
X8.708 Y22.677
X8.723 Y22.67
X8.731 Y22.666
X8.733 Y22.665
G3 X8.779 Y22.661 I0.028 J0.053
G2 X8.852 Y22.627 I0.018 J-0.057
G1 X8.938 Y22.419
G2 X8.91 Y22.343 I-0.055 J-0.023
G3 X8.88 Y22.308 I0.027 J-0.054
G1 X8.879 Y22.304
X8.873 Y22.288
X8.866 Y22.273
X8.859 Y22.259
X8.851 Y22.244
X8.842 Y22.23
X8.831 Y22.216
X8.828 Y22.211
X8.347 Y21.618
X8.349 Y21.616
X9.078 Y21.54
X9.132 Y21.533
X9.14 Y21.531
X9.155 Y21.527
X9.171 Y21.523
X9.186 Y21.517
X9.202 Y21.51
X9.209 Y21.507
X9.213 Y21.505
G3 X9.259 Y21.501 I0.027 J0.053
G2 X9.333 Y21.467 I0.019 J-0.057
G1 X9.421 Y21.259
G2 X9.391 Y21.182 I-0.055 J-0.023
G3 X9.361 Y21.147 I0.026 J-0.054
G1 X9.355 Y21.132
X9.349 Y21.117
X9.342 Y21.101
X9.334 Y21.087
X9.325 Y21.072
X9.301 Y21.04
X8.87 Y20.445
X8.871 Y20.444
X9.633 Y20.404
X9.649 Y20.402
X9.664 Y20.4
X9.679 Y20.397
X9.695 Y20.394
X9.71 Y20.389
X9.726 Y20.383
X9.741 Y20.377
X9.757 Y20.369
X9.764 Y20.365
G3 X9.809 Y20.36 I0.029 J0.053
G2 X9.882 Y20.324 I0.017 J-0.058
G1 X9.96 Y20.122
G2 X9.931 Y20.047 I-0.056 J-0.022
G3 X9.901 Y20.012 I0.027 J-0.053
G1 Y20.01
X9.899 Y20.006
X9.894 Y19.991
X9.887 Y19.976
X9.88 Y19.962
X9.86 Y19.929
X9.452 Y19.302
X9.454 Y19.3
X10.188
X10.219
X10.235 Y19.299
X10.25 Y19.298
X10.265 Y19.296
X10.281 Y19.293
X10.296 Y19.289
X10.312 Y19.284
X10.314 Y19.283
G3 X10.359 Y19.286 I0.019 J0.057
G2 X10.439 Y19.259 I0.026 J-0.054
G1 X10.557 Y19.024
G2 X10.531 Y18.944 I-0.054 J-0.027
G3 X10.501 Y18.909 I0.027 J-0.053
G1 Y18.907
X10.497 Y18.896
X10.491 Y18.881
X10.484 Y18.865
X10.475 Y18.85
X10.094 Y18.19
X10.096 Y18.188
X10.805 Y18.226
X10.867 Y18.229
X10.882 Y18.228
X10.898
X10.913 Y18.226
X10.928 Y18.223
X10.932
X10.934 Y18.222
G3 X10.979 Y18.231 I0.012 J0.059
G2 X11.063 Y18.212 I0.033 J-0.05
G1 X11.211 Y17.974
G2 X11.19 Y17.89 I-0.051 J-0.032
G3 X11.162 Y17.854 I0.03 J-0.052
G1 Y17.852
X11.161 Y17.848
X11.156 Y17.832
X11.15 Y17.817
X11.144 Y17.802
X11.128 Y17.771
X10.793 Y17.114
X10.795 Y17.112
X11.545 Y17.191
X11.576 Y17.193
X11.591
X11.607 Y17.192
X11.614
G3 X11.658 Y17.205 I0.005 J0.06
G2 X11.744 Y17.197 I0.038 J-0.046
G1 X11.914 Y16.982
G2 X11.904 Y16.897 I-0.047 J-0.037
G3 X11.881 Y16.857 I0.037 J-0.047
G1 Y16.853
X11.88 Y16.846
X11.877 Y16.83
X11.873 Y16.815
X11.869 Y16.799
X11.863 Y16.784
X11.853 Y16.762
X11.548 Y16.075
X11.549 Y16.073
X12.285 Y16.19
X12.316 Y16.195
X12.331 Y16.196
X12.347
X12.362
X12.37
X12.374 Y16.195
X12.376
G3 X12.419 Y16.209 I0.005 J0.06
G2 X12.502 Y16.204 I0.039 J-0.046
G1 X12.667 Y16.027
G2 X12.666 Y15.944 I-0.044 J-0.041
G3 X12.648 Y15.901 I0.043 J-0.042
G1 Y15.897
Y15.89
Y15.874
X12.646 Y15.859
X12.644 Y15.843
X12.641 Y15.828
X12.637 Y15.813
X12.632 Y15.797
X12.608 Y15.735
X12.356 Y15.077
X12.357 Y15.076
X13.087 Y15.231
X13.118 Y15.237
X13.133 Y15.239
X13.149 Y15.24
X13.164 Y15.241
X13.179 Y15.24
X13.187
X13.191
X13.193
G3 X13.237 Y15.253 I0.005 J0.06
G2 X13.311 Y15.255 I0.038 J-0.046
G1 X13.427 Y15.168
G2 X13.445 Y15.095 I-0.036 J-0.048
G3 X13.444 Y15.049 I0.055 J-0.024
G1 X13.445 Y15.048
X13.446 Y15.045
X13.45 Y15.033
X13.457 Y15.008
X13.46 Y14.995
X13.462 Y14.98
X13.464 Y14.965
Y14.949
Y14.934
Y14.919
X13.462 Y14.904
X13.46 Y14.889
X13.457 Y14.874
Y14.872
X13.438 Y14.81
X13.214 Y14.124
X13.217 Y14.122
X13.95 Y14.319
X13.966 Y14.323
X13.981 Y14.326
X13.997 Y14.328
X14.012 Y14.329
X14.027
X14.043
X14.058 Y14.328
X14.06
G3 X14.104 Y14.341 I0.006 J0.06
G2 X14.184 Y14.337 I0.038 J-0.046
G1 X14.337 Y14.185
G2 X14.341 Y14.105 I-0.042 J-0.042
G3 X14.328 Y14.061 I0.046 J-0.038
G1 Y14.059
Y14.055
X14.329 Y14.039
Y14.024
Y14.009
X14.328 Y13.995
X14.326 Y13.982
X14.323 Y13.969
X14.32 Y13.956
X14.318 Y13.947
X14.122 Y13.216
X14.125 Y13.215
X14.814 Y13.439
X14.86 Y13.454
X14.875 Y13.457
X14.891 Y13.46
X14.906 Y13.463
X14.922 Y13.464
X14.937
X14.952
X14.968 Y13.463
X14.983 Y13.462
X14.999 Y13.459
X15.021 Y13.454
X15.041 Y13.447
X15.046 Y13.446
X15.048 Y13.445
G3 X15.094 Y13.446 I0.021 J0.056
G2 X15.167 Y13.428 I0.025 J-0.055
G1 X15.255 Y13.312
G2 X15.253 Y13.237 I-0.048 J-0.036
G3 X15.239 Y13.193 I0.046 J-0.038
G1 X15.24 Y13.191
X15.241 Y13.176
Y13.161
X15.24 Y13.145
X15.239 Y13.13
X15.237 Y13.114
X15.23 Y13.083
X15.076 Y12.357
X15.078 Y12.356
X15.739 Y12.609
X15.8 Y12.633
X15.816 Y12.637
X15.831 Y12.641
X15.847 Y12.644
X15.862 Y12.647
X15.877 Y12.648
X15.893
X15.901
X15.903
G3 X15.945 Y12.665 I0.001 J0.06
G2 X16.028 Y12.666 I0.042 J-0.043
G1 X16.204 Y12.502
G2 X16.209 Y12.42 I-0.041 J-0.044
G3 X16.195 Y12.376 I0.046 J-0.038
G1 Y12.374
X16.196 Y12.359
Y12.343
Y12.328
X16.194 Y12.313
X16.189 Y12.282
X16.074 Y11.55
X16.076 Y11.548
X16.754 Y11.85
X16.787 Y11.864
X16.803 Y11.87
X16.818 Y11.874
X16.833 Y11.878
X16.849 Y11.88
X16.857 Y11.881
G3 X16.896 Y11.904 I-0.008 J0.059
G2 X16.981 Y11.915 I0.048 J-0.036
G1 X17.196 Y11.744
G2 X17.205 Y11.659 I-0.037 J-0.047
G3 X17.192 Y11.615 I0.046 J-0.038
G1 Y11.611
X17.193 Y11.603
Y11.588
Y11.572
X17.19 Y11.542
X17.112 Y10.795
X17.113 Y10.793
X17.774 Y11.13
X17.805 Y11.145
X17.82 Y11.152
X17.836 Y11.157
X17.851 Y11.162
X17.853
G3 X17.889 Y11.19 I-0.015 J0.058
G2 X17.973 Y11.211 I0.052 J-0.03
G1 X18.214 Y11.062
G2 X18.232 Y10.978 I-0.032 J-0.051
G3 X18.222 Y10.933 I0.05 J-0.034
G1 X18.224 Y10.925
X18.226 Y10.909
X18.228 Y10.894
X18.229 Y10.879
Y10.863
X18.225 Y10.801
X18.188 Y10.097
X18.191 Y10.095
X18.822 Y10.459
X18.853 Y10.477
X18.869 Y10.485
X18.884 Y10.492
X18.887 Y10.493
X18.901 Y10.499
X18.909 Y10.501
G3 X18.943 Y10.531 I-0.019 J0.057
G2 X19.024 Y10.558 I0.054 J-0.027
G1 X19.259 Y10.44
G2 X19.286 Y10.36 I-0.027 J-0.054
G3 X19.283 Y10.314 I0.054 J-0.026
G1 X19.284 Y10.312
X19.285 Y10.308
X19.29 Y10.293
X19.294 Y10.277
X19.296 Y10.262
X19.298 Y10.246
X19.3 Y10.231
Y10.216
Y9.455
X19.302 Y9.453
X19.932 Y9.862
X19.955 Y9.876
X19.975 Y9.886
X19.994 Y9.895
X20.002 Y9.898
X20.006 Y9.899
X20.008 Y9.9
G3 X20.042 Y9.93 I-0.02 J0.057
G2 X20.117 Y9.96 I0.054 J-0.026
G1 X20.323 Y9.882
G2 X20.359 Y9.81 I-0.021 J-0.056
G3 X20.365 Y9.764 I0.058 J-0.016
G1 X20.366 Y9.763
X20.368 Y9.759
X20.371 Y9.753
X20.378 Y9.738
X20.385 Y9.722
X20.39 Y9.707
X20.395 Y9.691
X20.398 Y9.676
X20.401 Y9.661
X20.403 Y9.645
X20.404 Y9.63
X20.444 Y8.871
X20.445 Y8.869
X21.043 Y9.303
X21.067 Y9.321
X21.086 Y9.333
X21.104 Y9.343
X21.12 Y9.35
X21.135 Y9.357
X21.143 Y9.359
X21.147 Y9.361
X21.148
G3 X21.184 Y9.391 I-0.018 J0.057
G2 X21.259 Y9.419 I0.053 J-0.028
G1 X21.468 Y9.335
G2 X21.502 Y9.259 I-0.023 J-0.056
G3 X21.504 Y9.213 I0.057 J-0.02
G1 X21.512 Y9.198
X21.518 Y9.183
X21.524 Y9.167
X21.528 Y9.152
X21.532 Y9.136
X21.536 Y9.113
X21.54 Y9.075
X21.616 Y8.349
X21.618 Y8.347
X22.211 Y8.828
X22.214 Y8.83
X22.23 Y8.842
X22.245 Y8.851
X22.261 Y8.86
X22.276 Y8.868
X22.291 Y8.874
X22.307 Y8.879
G3 X22.341 Y8.91 I-0.02 J0.057
G2 X22.418 Y8.94 I0.054 J-0.026
G1 X22.627 Y8.852
G2 X22.661 Y8.778 I-0.023 J-0.055
G3 X22.665 Y8.733 I0.057 J-0.018
G1 X22.666 Y8.731
X22.668 Y8.727
X22.672 Y8.72
X22.678 Y8.705
X22.684 Y8.689
X22.688 Y8.674
X22.692 Y8.658
X22.695 Y8.643
X22.754 Y8.273
X22.815 Y7.889
X22.816 Y7.887
X23.381 Y8.396
X23.386 Y8.4
X23.401 Y8.413
X23.417 Y8.424
X23.432 Y8.434
X23.448 Y8.442
X23.466 Y8.451
X23.485 Y8.458
X23.491 Y8.46
G3 X23.525 Y8.49 I-0.019 J0.057
G2 X23.6 Y8.52 I0.054 J-0.027
G1 X23.796 Y8.447
G2 X23.833 Y8.376 I-0.021 J-0.056
G3 X23.84 Y8.331 I0.058 J-0.015
G1 X23.842 Y8.327
X23.847 Y8.319
X23.854 Y8.304
X23.861 Y8.288
X23.867 Y8.273
X23.874 Y8.249
X23.879 Y8.226
X24.035 Y7.492
X24.037 Y7.49
X24.572 Y8.026
X24.584 Y8.038
X24.596 Y8.048
X24.608 Y8.057
X24.619 Y8.066
X24.639 Y8.078
X24.648 Y8.083
X24.653 Y8.085
X24.655 Y8.087
G3 X24.685 Y8.121 I-0.027 J0.054
G2 X24.762 Y8.159 I0.057 J-0.019
G1 X25.021 Y8.069
G2 X25.058 Y7.992 I-0.02 J-0.057
G3 X25.06 Y7.946 I0.056 J-0.02
G1 X25.061 Y7.944
X25.062 Y7.94
X25.066 Y7.933
X25.071 Y7.918
X25.076 Y7.903
X25.093 Y7.841
X25.275 Y7.159
X25.276 Y7.158
X25.78 Y7.718
X25.791 Y7.73
X25.806 Y7.745
X25.822 Y7.758
X25.837 Y7.769
X25.841 Y7.772
X25.843 Y7.773
G3 X25.868 Y7.812 I-0.034 J0.05
G2 X25.939 Y7.859 I0.059 J-0.011
G1 X26.216 Y7.799
G2 X26.261 Y7.725 I-0.013 J-0.059
G3 X26.267 Y7.679 I0.058 J-0.015
G1 X26.272 Y7.671
X26.28 Y7.656
X26.285 Y7.646
X26.29 Y7.633
X26.295 Y7.62
X26.303 Y7.594
X26.531 Y6.891
X26.533 Y6.892
X27.002 Y7.471
X27.025 Y7.498
X27.034 Y7.508
X27.043 Y7.517
X27.053 Y7.525
X27.057 Y7.529
G3 X27.079 Y7.57 I-0.038 J0.046
G2 X27.145 Y7.623 I0.06 J-0.006
G1 X27.417 Y7.593
G2 X27.47 Y7.525 I-0.007 J-0.06
G3 X27.482 Y7.481 I0.059 J-0.008
G1 X27.489 Y7.471
X27.497 Y7.459
X27.505 Y7.446
X27.512 Y7.434
X27.518 Y7.421
X27.523 Y7.409
X27.547 Y7.348
X27.799 Y6.69
X27.801 Y6.692
X28.233 Y7.286
X28.258 Y7.32
X28.27 Y7.334
X28.283 Y7.348
X28.292 Y7.356
X28.297 Y7.36
X28.299 Y7.362
G3 X28.32 Y7.403 I-0.039 J0.046
G2 X28.382 Y7.458 I0.06 J-0.005
G1 X28.624 Y7.451
G2 X28.682 Y7.39 I-0.002 J-0.06
G3 X28.699 Y7.348 I0.06 J-0.001
G1 X28.714 Y7.332
X28.727 Y7.317
X28.739 Y7.301
X28.748 Y7.286
X28.751 Y7.281
X28.759 Y7.267
X28.766 Y7.253
X29.076 Y6.557
X29.077
X29.492 Y7.195
X29.502 Y7.21
X29.513 Y7.224
X29.523 Y7.235
X29.533 Y7.246
X29.543 Y7.256
X29.553 Y7.264
X29.557 Y7.267
X29.559 Y7.269
G3 X29.581 Y7.309 I-0.037 J0.047
G2 X29.633 Y7.362 I0.06 J-0.007
G1 X29.769 Y7.379
G2 X29.833 Y7.341 I0.008 J-0.06
G3 X29.864 Y7.308 I0.056 J0.022
G1 X29.867 Y7.306
X29.872 Y7.304
X29.883 Y7.299
X29.905 Y7.286
X29.923 Y7.273
X29.936 Y7.263
X29.949 Y7.252
X29.963 Y7.238
X29.975 Y7.224
X29.985 Y7.212
X29.994 Y7.199
X30.001 Y7.187
X30.015 Y7.163
X30.357 Y6.49
X30.358 Y6.489
X30.725 Y7.124
X30.748 Y7.163
X30.756 Y7.175
X30.765 Y7.187
X30.775 Y7.199
X30.787 Y7.211
X30.801 Y7.224
X30.807 Y7.229
X30.808 Y7.231
G3 X30.83 Y7.271 I-0.038 J0.046
G2 X30.889 Y7.326 I0.06 J-0.005
G1 X31.112
G2 X31.171 Y7.271 I0. J-0.06
G3 X31.193 Y7.23 I0.06 J0.005
G1 X31.194 Y7.229
X31.199 Y7.224
X31.209 Y7.215
X31.218 Y7.206
X31.228 Y7.195
X31.237 Y7.184
X31.245 Y7.173
X31.252 Y7.163
X31.28 Y7.115
X31.641 Y6.49
X31.643
X31.985 Y7.163
X32.001 Y7.19
X32.01 Y7.204
X32.02 Y7.218
X32.025 Y7.224
X32.038 Y7.239
X32.053 Y7.254
X32.068 Y7.266
X32.082 Y7.277
X32.095 Y7.286
X32.107 Y7.293
X32.119 Y7.3
X32.131 Y7.306
X32.134 Y7.307
X32.136 Y7.308
G3 X32.168 Y7.341 I-0.024 J0.055
G2 X32.231 Y7.379 I0.056 J-0.022
G1 X32.366 Y7.362
G2 X32.419 Y7.309 I-0.007 J-0.06
G3 X32.441 Y7.269 I0.06 J0.007
G1 X32.443 Y7.267
X32.452 Y7.26
X32.461 Y7.252
X32.471 Y7.242
X32.487 Y7.224
X32.501 Y7.206
X32.513 Y7.187
X32.923 Y6.557
X32.925 Y6.558
X33.222 Y7.224
X33.235 Y7.255
X33.243 Y7.271
X33.252 Y7.286
X33.254 Y7.289
X33.263 Y7.304
X33.274 Y7.318
X33.287 Y7.333
X33.301 Y7.348
G3 X33.318 Y7.39 I-0.043 J0.042
G2 X33.376 Y7.451 I0.06 J0.001
G1 X33.619 Y7.46
G2 X33.681 Y7.403 I0.002 J-0.06
G3 X33.701 Y7.362 I0.06 J0.003
G1 X33.717 Y7.348
X33.733 Y7.331
X33.747 Y7.314
X33.767 Y7.286
X34.199 Y6.692
X34.201 Y6.69
X34.453 Y7.348
X34.477 Y7.409
X34.487 Y7.431
X34.498 Y7.451
X34.511 Y7.471
X34.515 Y7.476
X34.517 Y7.479
X34.518 Y7.48
G3 X34.53 Y7.525 I-0.047 J0.037
G2 X34.583 Y7.592 I0.06 J0.007
G1 X34.853 Y7.623
G2 X34.92 Y7.57 I0.007 J-0.06
G3 X34.942 Y7.53 I0.06 J0.006
G1 X34.943 Y7.529
X34.949 Y7.524
X34.959 Y7.515
X34.97 Y7.504
X34.98 Y7.493
X34.998 Y7.471
X35.467 Y6.892
X35.47 Y6.894
X35.697 Y7.594
X35.707 Y7.625
X35.713 Y7.641
X35.72 Y7.656
X35.728 Y7.672
X35.733 Y7.679
G3 X35.739 Y7.725 I-0.052 J0.03
G2 X35.784 Y7.799 I0.058 J0.015
G1 X36.061 Y7.859
G2 X36.133 Y7.811 I0.013 J-0.059
G3 X36.158 Y7.773 I0.059 J0.011
G1 X36.16 Y7.772
X36.167 Y7.766
X36.183 Y7.754
X36.198 Y7.74
X36.214 Y7.724
X36.724 Y7.158
X36.725 Y7.159
X36.907 Y7.841
X36.924 Y7.903
X36.929 Y7.918
X36.935 Y7.934
X36.938 Y7.941
X36.94 Y7.945
X36.941 Y7.947
G3 X36.943 Y7.993 I-0.054 J0.026
G2 X36.98 Y8.07 I0.056 J0.02
G1 X37.237 Y8.159
G2 X37.313 Y8.122 I0.02 J-0.057
G3 X37.344 Y8.087 I0.057 J0.019
G1 X37.345 Y8.086
X37.348 Y8.085
X37.353 Y8.082
X37.364 Y8.076
X37.386 Y8.062
X37.396 Y8.054
X37.407 Y8.046
X37.428 Y8.026
X37.964 Y7.49
X37.965 Y7.492
X38.117 Y8.211
X38.126 Y8.248
X38.133 Y8.273
X38.139 Y8.288
X38.146 Y8.304
X38.153 Y8.319
X38.158 Y8.327
X38.16 Y8.331
G3 X38.167 Y8.376 I-0.051 J0.031
G2 X38.204 Y8.447 I0.058 J0.015
G1 X38.399 Y8.519
G2 X38.473 Y8.49 I0.021 J-0.056
G3 X38.508 Y8.46 I0.053 J0.027
G1 X38.51
X38.515 Y8.458
X38.536 Y8.45
X38.557 Y8.44
X38.573 Y8.431
X38.588 Y8.421
X38.603 Y8.409
X38.619 Y8.396
X39.183 Y7.888
X39.185 Y7.889
X39.297 Y8.596
X39.305 Y8.643
X39.308 Y8.658
X39.312 Y8.674
X39.316 Y8.689
X39.322 Y8.705
X39.329 Y8.72
X39.332 Y8.728
X39.334 Y8.732
X39.335 Y8.733
G3 X39.339 Y8.779 I-0.053 J0.028
G2 X39.374 Y8.853 I0.057 J0.018
G1 X39.581 Y8.938
G2 X39.657 Y8.91 I0.023 J-0.056
G3 X39.692 Y8.88 I0.053 J0.027
G1 X39.694 Y8.879
X39.698 Y8.878
X39.714 Y8.872
X39.729 Y8.865
X39.744 Y8.858
X39.759 Y8.849
X39.774 Y8.839
X39.789 Y8.828
X40.382 Y8.347
X40.384 Y8.349
X40.463 Y9.105
X40.465 Y9.121
X40.468 Y9.136
X40.469 Y9.141
X40.473 Y9.155
X40.477 Y9.17
X40.482 Y9.184
X40.488 Y9.198
X40.496 Y9.213
G3 X40.498 Y9.259 I-0.054 J0.026
G2 X40.532 Y9.335 I0.057 J0.02
G1 X40.742 Y9.419
G2 X40.818 Y9.391 I0.022 J-0.056
G3 X40.853 Y9.361 I0.053 J0.027
G1 X40.855 Y9.36
X40.87 Y9.355
X40.885 Y9.348
X40.901 Y9.341
X40.917 Y9.332
X40.933 Y9.321
X40.962 Y9.3
X41.555 Y8.869
X41.556 Y8.871
X41.596 Y9.63
X41.597 Y9.645
X41.599 Y9.661
X41.602 Y9.676
X41.605 Y9.691
X41.61 Y9.707
X41.615 Y9.722
X41.622 Y9.738
X41.629 Y9.753
X41.635 Y9.764
Y9.765
G3 X41.641 Y9.81 I-0.052 J0.03
G2 X41.677 Y9.882 I0.058 J0.016
G1 X41.88 Y9.96
G2 X41.955 Y9.931 I0.022 J-0.056
G3 X41.99 Y9.901 I0.054 J0.027
G1 X41.992 Y9.9
X41.995 Y9.899
X42.011 Y9.893
X42.028 Y9.885
X42.045 Y9.876
X42.073 Y9.859
X42.699 Y9.452
X42.7 Y9.455
Y10.216
Y10.231
X42.702 Y10.246
X42.704 Y10.262
X42.706 Y10.277
X42.71 Y10.293
X42.715 Y10.308
X42.716 Y10.312
X42.717 Y10.314
G3 X42.714 Y10.36 I-0.057 J0.02
G2 X42.741 Y10.44 I0.054 J0.026
G1 X42.976 Y10.557
G2 X43.056 Y10.531 I0.027 J-0.054
G3 X43.091 Y10.501 I0.053 J0.027
G1 X43.093
X43.1 Y10.498
X43.113 Y10.493
X43.121 Y10.49
X43.136 Y10.483
X43.152 Y10.474
X43.81 Y10.094
X43.812 Y10.096
X43.775 Y10.801
X43.771 Y10.863
Y10.879
X43.772 Y10.894
X43.774 Y10.909
X43.776 Y10.925
X43.778 Y10.933
Y10.934
G3 X43.769 Y10.98 I-0.059 J0.012
G2 X43.788 Y11.063 I0.05 J0.033
G1 X44.026 Y11.212
G2 X44.11 Y11.19 I0.032 J-0.051
G3 X44.146 Y11.162 I0.052 J0.03
G1 X44.154 Y11.16
X44.169 Y11.155
X44.185 Y11.15
X44.2 Y11.143
X44.231 Y11.127
X44.887 Y10.793
X44.888 Y10.795
X44.81 Y11.542
X44.807 Y11.572
Y11.588
Y11.603
X44.808 Y11.611
Y11.615
G3 X44.795 Y11.659 I-0.06 J0.006
G2 X44.804 Y11.744 I0.046 J0.038
G1 X45.018 Y11.914
G2 X45.103 Y11.904 I0.037 J-0.047
G3 X45.143 Y11.881 I0.047 J0.037
G1 X45.145
X45.148
X45.156 Y11.88
X45.172 Y11.877
X45.187 Y11.873
X45.202 Y11.868
X45.218 Y11.862
X45.246 Y11.85
X45.925 Y11.548
X45.926 Y11.55
X45.811 Y12.282
X45.806 Y12.313
X45.804 Y12.328
Y12.343
Y12.359
X45.805 Y12.374
G3 X45.79 Y12.418 I-0.06 J0.004
G2 X45.794 Y12.502 I0.045 J0.04
G1 X45.973 Y12.667
G2 X46.056 Y12.665 I0.041 J-0.044
G3 X46.099 Y12.648 I0.042 J0.043
G1 X46.1
X46.104
X46.112
X46.127
X46.143 Y12.646
X46.158 Y12.643
X46.174 Y12.64
X46.189 Y12.636
X46.205 Y12.631
X46.266 Y12.607
X46.921 Y12.356
X46.924 Y12.358
X46.77 Y13.083
X46.763 Y13.114
X46.761 Y13.13
X46.76 Y13.145
Y13.148
X46.759 Y13.165
X46.76 Y13.181
Y13.188
Y13.191
Y13.193
G3 X46.747 Y13.236 I-0.06 J0.005
G2 X46.745 Y13.311 I0.046 J0.038
G1 X46.834 Y13.429
G2 X46.907 Y13.447 I0.048 J-0.036
G3 X46.953 Y13.445 I0.026 J0.054
G1 X46.962 Y13.448
X46.979 Y13.454
X46.992 Y13.457
X47.006 Y13.46
X47.022 Y13.462
X47.037 Y13.464
X47.053
X47.068
X47.083
X47.099 Y13.462
X47.114 Y13.459
X47.13 Y13.456
X47.14 Y13.454
X47.191 Y13.437
X47.877 Y13.214
X47.878 Y13.216
X47.682 Y13.947
X47.678 Y13.962
X47.675 Y13.978
X47.673 Y13.993
X47.671 Y14.009
Y14.024
Y14.039
X47.672 Y14.055
Y14.059
Y14.061
G3 X47.659 Y14.105 I-0.06 J0.006
G2 X47.663 Y14.185 I0.046 J0.038
G1 X47.814 Y14.337
G2 X47.895 Y14.341 I0.043 J-0.042
G3 X47.939 Y14.328 I0.038 J0.046
G1 X47.947
X47.962 Y14.329
X47.978
X47.993
X48.008 Y14.327
X48.024 Y14.325
X48.055 Y14.317
X48.783 Y14.122
X48.786 Y14.124
X48.562 Y14.81
X48.548 Y14.855
X48.543 Y14.872
X48.54 Y14.887
X48.538 Y14.903
X48.536 Y14.918
Y14.934
Y14.949
Y14.965
X48.538 Y14.98
X48.54 Y14.995
X48.544 Y15.011
X48.548 Y15.027
X48.553 Y15.042
X48.556 Y15.05
G3 X48.554 Y15.095 I-0.056 J0.021
G2 X48.573 Y15.168 I0.055 J0.025
G1 X48.688 Y15.255
G2 X48.762 Y15.253 I0.036 J-0.048
G3 X48.806 Y15.239 I0.038 J0.046
G1 X48.81 Y15.24
X48.826 Y15.241
X48.841
X48.856 Y15.24
X48.872 Y15.239
X48.887 Y15.236
X48.918 Y15.23
X49.643 Y15.076
X49.644 Y15.078
X49.392 Y15.735
X49.368 Y15.797
X49.363 Y15.813
X49.359 Y15.828
X49.356 Y15.843
X49.354 Y15.859
X49.352 Y15.874
Y15.89
Y15.897
Y15.901
G3 X49.334 Y15.944 I-0.06 J0.001
G2 X49.333 Y16.027 I0.043 J0.042
G1 X49.499 Y16.204
G2 X49.582 Y16.209 I0.044 J-0.041
G3 X49.625 Y16.195 I0.039 J0.046
G1 X49.627
X49.643 Y16.196
X49.658
X49.674 Y16.195
X49.689 Y16.194
X49.72 Y16.189
X50.45 Y16.074
X50.452 Y16.075
X50.152 Y16.75
X50.137 Y16.784
X50.131 Y16.799
X50.127 Y16.815
X50.123 Y16.83
X50.12 Y16.846
X50.119 Y16.853
Y16.857
G3 X50.096 Y16.897 I-0.06 J-0.008
G2 X50.086 Y16.982 I0.037 J0.047
G1 X50.258 Y17.197
G2 X50.343 Y17.205 I0.047 J-0.038
G3 X50.387 Y17.192 I0.038 J0.046
G1 X50.391
X50.398 Y17.193
X50.414
X50.429
X50.46 Y17.19
X51.205 Y17.112
X51.206 Y17.114
X50.872 Y17.771
X50.856 Y17.802
X50.85 Y17.817
X50.844 Y17.832
X50.839 Y17.848
X50.838 Y17.852
Y17.854
G3 X50.81 Y17.89 I-0.058 J-0.015
G2 X50.789 Y17.974 I0.03 J0.052
G1 X50.938 Y18.213
G2 X51.022 Y18.231 I0.051 J-0.032
G3 X51.067 Y18.222 I0.033 J0.05
G1 X51.069 Y18.223
X51.077 Y18.224
X51.092 Y18.226
X51.107 Y18.228
X51.123 Y18.229
X51.138 Y18.228
X51.2 Y18.225
X51.904 Y18.188
X51.906 Y18.19
X51.525 Y18.85
X51.516 Y18.865
X51.509 Y18.881
X51.508 Y18.883
X51.503 Y18.898
X51.5 Y18.905
X51.499 Y18.907
G3 X51.469 Y18.942 I-0.057 J-0.019
G2 X51.443 Y19.022 I0.027 J0.054
G1 X51.559 Y19.259
G2 X51.64 Y19.286 I0.054 J-0.026
G3 X51.686 Y19.283 I0.027 J0.054
G1 X51.693 Y19.286
X51.709 Y19.29
X51.724 Y19.294
X51.74 Y19.297
X51.755 Y19.299
X51.77 Y19.3
X51.786
X52.546
X52.548 Y19.302
X52.14 Y19.929
X52.125 Y19.953
X52.115 Y19.972
X52.106 Y19.991
X52.101 Y20.006
X52.1 Y20.008
G3 X52.07 Y20.043 I-0.057 J-0.019
G2 X52.04 Y20.118 I0.026 J0.054
G1 X52.118 Y20.324
G2 X52.191 Y20.36 I0.056 J-0.021
G3 X52.236 Y20.365 I0.016 J0.058
G1 X52.239 Y20.367
X52.248 Y20.372
X52.264 Y20.379
X52.279 Y20.385
X52.295 Y20.391
X52.31 Y20.395
X52.325 Y20.398
X52.341 Y20.401
X52.356 Y20.403
X52.372 Y20.404
X53.129 Y20.444
X53.131 Y20.445
X52.699 Y21.04
X52.68 Y21.065
X52.668 Y21.083
X52.658 Y21.101
X52.651 Y21.117
X52.645 Y21.132
X52.639 Y21.147
G3 X52.609 Y21.182 I-0.057 J-0.02
G2 X52.579 Y21.259 I0.026 J0.054
G1 X52.667 Y21.469
G2 X52.742 Y21.503 I0.055 J-0.023
G3 X52.788 Y21.505 I0.02 J0.057
G1 X52.803 Y21.513
X52.819 Y21.519
X52.834 Y21.524
X52.85 Y21.529
X52.865 Y21.532
X52.868 Y21.533
X52.927 Y21.54
X53.651 Y21.616
X53.653 Y21.618
X53.172 Y22.211
X53.16 Y22.227
X53.15 Y22.242
X53.141 Y22.258
X53.134 Y22.273
X53.127 Y22.288
X53.121 Y22.304
X53.12 Y22.308
G3 X53.09 Y22.343 I-0.057 J-0.019
G2 X53.062 Y22.418 I0.027 J0.054
G1 X53.145 Y22.627
G2 X53.22 Y22.662 I0.056 J-0.022
G3 X53.266 Y22.665 I0.019 J0.057
G1 X53.281 Y22.672
X53.297 Y22.679
X53.312 Y22.684
X53.328 Y22.689
X53.343 Y22.693
X53.358 Y22.695
X54.11 Y22.814
X54.112 Y22.817
X53.602 Y23.383
X53.589 Y23.399
X53.578 Y23.414
X53.568 Y23.429
X53.559 Y23.445
X53.551 Y23.463
X53.544 Y23.481
X53.539 Y23.494
G3 X53.509 Y23.528 I-0.057 J-0.019
G2 X53.479 Y23.603 I0.027 J0.054
G1 X53.553 Y23.796
G2 X53.623 Y23.833 I0.056 J-0.021
G3 X53.669 Y23.839 I0.014 J0.058
G1 X53.671 Y23.841
X53.675 Y23.843
X53.682 Y23.847
X53.698 Y23.855
X53.713 Y23.862
X53.729 Y23.868
X53.745 Y23.873
X53.761 Y23.877
X53.79 Y23.883
X54.508 Y24.035
X54.51 Y24.036
X53.975 Y24.571
X53.954 Y24.594
X53.945 Y24.605
X53.936 Y24.617
X53.924 Y24.636
X53.914 Y24.655
X53.913 Y24.656
G3 X53.878 Y24.687 I-0.054 J-0.027
G2 X53.841 Y24.763 I0.019 J0.057
G1 X53.931 Y25.021
G2 X54.008 Y25.058 I0.057 J-0.02
G3 X54.054 Y25.06 I0.02 J0.056
G1 X54.056 Y25.061
X54.06 Y25.062
X54.068 Y25.066
X54.083 Y25.072
X54.099 Y25.076
X54.16 Y25.093
X54.84 Y25.275
X54.841 Y25.277
X54.284 Y25.779
X54.273 Y25.788
X54.258 Y25.804
X54.244 Y25.819
X54.232 Y25.835
X54.227 Y25.842
G3 X54.188 Y25.867 I-0.049 J-0.034
G2 X54.14 Y25.939 I0.01 J0.059
G1 X54.202 Y26.215
G2 X54.275 Y26.26 I0.059 J-0.013
G3 X54.32 Y26.267 I0.015 J0.058
G1 X54.322 Y26.268
X54.33 Y26.272
X54.345 Y26.28
X54.348 Y26.282
X54.363 Y26.288
X54.378 Y26.294
X54.407 Y26.303
X55.108 Y26.531
X55.109 Y26.532
X54.53 Y27.001
X54.505 Y27.022
X54.495 Y27.031
X54.485 Y27.041
X54.476 Y27.051
X54.472 Y27.055
X54.47 Y27.058
G3 X54.43 Y27.08 I-0.047 J-0.038
G2 X54.377 Y27.146 I0.006 J0.06
G1 X54.407 Y27.418
G2 X54.475 Y27.471 I0.06 J-0.007
G3 X54.52 Y27.482 I0.009 J0.059
G1 X54.53 Y27.49
X54.552 Y27.504
X54.573 Y27.515
X54.592 Y27.524
X54.654 Y27.547
X55.309 Y27.799
Y27.8
X54.715 Y28.232
X54.683 Y28.255
X54.668 Y28.268
X54.654 Y28.282
X54.638 Y28.3
G3 X54.596 Y28.319 I-0.045 J-0.04
G2 X54.54 Y28.382 I0.003 J0.06
G1 X54.551 Y28.623
G2 X54.61 Y28.681 I0.06 J-0.003
G3 X54.652 Y28.699 I-0.001 J0.06
G1 X54.654 Y28.701
X54.669 Y28.715
X54.684 Y28.728
X54.699 Y28.739
X54.715 Y28.749
X54.731 Y28.758
X54.746 Y28.765
X55.444 Y29.076
X55.443 Y29.077
X54.809 Y29.489
X54.793 Y29.5
X54.777 Y29.512
X54.767 Y29.52
X54.757 Y29.53
X54.747 Y29.54
X54.738 Y29.551
X54.732 Y29.558
G3 X54.691 Y29.58 I-0.047 J-0.038
G2 X54.638 Y29.632 I0.006 J0.06
G1 X54.621 Y29.77
G2 X54.659 Y29.834 I0.06 J0.007
G3 X54.693 Y29.865 I-0.021 J0.056
G1 X54.695 Y29.871
X54.701 Y29.883
X54.708 Y29.895
X54.715 Y29.907
X54.725 Y29.921
X54.735 Y29.935
X54.748 Y29.948
X54.762 Y29.963
X54.777 Y29.976
X54.785 Y29.982
X54.798 Y29.992
X54.812 Y30.001
X54.839 Y30.015
X55.509 Y30.357
X55.511 Y30.359
X54.881 Y30.722
X54.839 Y30.747
X54.827 Y30.755
X54.815 Y30.764
X54.803 Y30.773
X54.792 Y30.784
X54.777 Y30.799
X54.772 Y30.805
X54.769 Y30.808
G3 X54.729 Y30.829 I-0.046 J-0.039
G2 X54.674 Y30.889 I0.005 J0.06
G1 Y31.111
G2 X54.729 Y31.171 I0.06 J0.
G3 X54.769 Y31.192 I-0.005 J0.06
G1 X54.772 Y31.195
X54.777 Y31.201
X54.792 Y31.216
X54.803 Y31.227
X54.815 Y31.236
X54.827 Y31.245
X54.839 Y31.253
X54.881 Y31.278
X55.511 Y31.641
X55.509 Y31.643
X54.839 Y31.985
X54.812 Y31.999
X54.798 Y32.008
X54.785 Y32.018
X54.777 Y32.024
X54.762 Y32.037
X54.748 Y32.052
X54.735 Y32.065
X54.725 Y32.079
X54.715 Y32.093
X54.708 Y32.105
X54.701 Y32.117
X54.695 Y32.129
X54.693 Y32.135
G3 X54.659 Y32.166 I-0.055 J-0.025
G2 X54.621 Y32.23 I0.021 J0.056
G1 X54.638 Y32.368
G2 X54.691 Y32.42 I0.06 J-0.007
G3 X54.732 Y32.442 I-0.006 J0.06
G1 X54.738 Y32.449
X54.747 Y32.46
X54.757 Y32.471
X54.767 Y32.48
X54.777 Y32.488
X54.793 Y32.5
X54.809 Y32.511
X55.443 Y32.923
X55.444 Y32.924
X54.746 Y33.235
X54.731 Y33.242
X54.715 Y33.251
X54.699 Y33.261
X54.684 Y33.272
X54.669 Y33.285
X54.654 Y33.299
G3 X54.611 Y33.316 I-0.041 J-0.043
G2 X54.55 Y33.374 I-0.001 J0.06
G1 X54.54 Y33.618
G2 X54.596 Y33.681 I0.06 J0.002
G3 X54.638 Y33.7 I-0.003 J0.06
G1 X54.654 Y33.718
X54.668 Y33.732
X54.683 Y33.745
X54.715 Y33.768
X55.309 Y34.2
Y34.201
X54.654 Y34.453
X54.592 Y34.476
X54.573 Y34.485
X54.552 Y34.496
X54.53 Y34.51
X54.52 Y34.518
G3 X54.475 Y34.529 I-0.036 J-0.048
G2 X54.407 Y34.582 I-0.009 J0.059
G1 X54.377 Y34.854
G2 X54.43 Y34.92 I0.06 J0.007
G3 X54.47 Y34.942 I-0.006 J0.06
G1 X54.472 Y34.945
X54.476 Y34.949
X54.485 Y34.959
X54.495 Y34.969
X54.505 Y34.978
X54.53 Y34.999
X55.109 Y35.468
X55.108 Y35.469
X54.407 Y35.697
X54.378 Y35.706
X54.363 Y35.712
X54.348 Y35.718
X54.345 Y35.72
X54.33 Y35.728
X54.322 Y35.732
X54.32 Y35.733
G3 X54.275 Y35.74 I-0.031 J-0.051
G2 X54.202 Y35.785 I-0.015 J0.058
G1 X54.14 Y36.061
G2 X54.188 Y36.133 I0.059 J0.013
G3 X54.227 Y36.158 I-0.01 J0.059
G1 X54.232 Y36.165
X54.244 Y36.181
X54.258 Y36.196
X54.273 Y36.212
X54.284 Y36.221
X54.841 Y36.723
X54.84 Y36.725
X54.16 Y36.907
X54.099 Y36.924
X54.083 Y36.928
X54.068 Y36.934
X54.06 Y36.938
X54.056 Y36.939
X54.054 Y36.94
G3 X54.008 Y36.942 I-0.025 J-0.054
G2 X53.931 Y36.979 I-0.02 J0.056
G1 X53.841 Y37.237
G2 X53.878 Y37.313 I0.057 J0.02
G3 X53.913 Y37.344 I-0.019 J0.057
G1 X53.914 Y37.345
X53.924 Y37.364
X53.936 Y37.383
X53.945 Y37.395
X53.954 Y37.406
X53.975 Y37.429
X54.51 Y37.964
X54.508 Y37.965
X53.79 Y38.117
X53.761 Y38.123
X53.745 Y38.127
X53.729 Y38.132
X53.713 Y38.138
X53.698 Y38.145
X53.682 Y38.153
X53.675 Y38.157
X53.671 Y38.159
X53.669 Y38.161
G3 X53.623 Y38.167 I-0.031 J-0.051
G2 X53.553 Y38.205 I-0.014 J0.058
G1 X53.481 Y38.4
G2 X53.51 Y38.475 I0.056 J0.021
G3 X53.54 Y38.51 I-0.027 J0.054
G1 X53.541 Y38.513
X53.544 Y38.519
X53.551 Y38.537
X53.559 Y38.555
X53.568 Y38.571
X53.578 Y38.586
X53.589 Y38.601
X53.602 Y38.617
X54.112 Y39.183
X54.11 Y39.186
X53.358 Y39.305
X53.343 Y39.307
X53.328 Y39.311
X53.312 Y39.316
X53.297 Y39.321
X53.281 Y39.328
X53.266 Y39.335
G3 X53.22 Y39.338 I-0.026 J-0.054
G2 X53.145 Y39.373 I-0.019 J0.057
G1 X53.062 Y39.582
G2 X53.09 Y39.657 I0.056 J0.022
G3 X53.12 Y39.692 I-0.027 J0.054
G1 X53.121 Y39.696
X53.127 Y39.712
X53.134 Y39.727
X53.141 Y39.742
X53.15 Y39.758
X53.16 Y39.773
X53.172 Y39.789
X53.653 Y40.382
X53.651 Y40.384
X52.927 Y40.46
X52.868 Y40.467
X52.865 Y40.468
X52.85 Y40.471
X52.834 Y40.476
X52.819 Y40.481
X52.803 Y40.487
X52.788 Y40.495
G3 X52.742 Y40.497 I-0.026 J-0.054
G2 X52.667 Y40.531 I-0.02 J0.057
G1 X52.581 Y40.737
G2 X52.609 Y40.813 I0.055 J0.023
G3 X52.638 Y40.849 I-0.028 J0.053
G1 X52.639 Y40.853
X52.645 Y40.868
X52.651 Y40.883
X52.658 Y40.899
X52.668 Y40.917
X52.68 Y40.935
X52.699 Y40.961
X53.131 Y41.555
X53.129 Y41.556
X52.372 Y41.596
X52.356 Y41.597
X52.341 Y41.599
X52.325 Y41.602
X52.31 Y41.605
X52.295 Y41.609
X52.279 Y41.615
X52.264 Y41.621
X52.248 Y41.628
X52.239 Y41.633
X52.236 Y41.635
G3 X52.191 Y41.64 I-0.029 J-0.052
G2 X52.119 Y41.676 I-0.016 J0.058
G1 X52.04 Y41.878
G2 X52.069 Y41.953 I0.056 J0.022
G3 X52.099 Y41.988 I-0.027 J0.053
G1 Y41.99
X52.101 Y41.994
X52.106 Y42.009
X52.115 Y42.028
X52.125 Y42.047
X52.14 Y42.071
X52.548 Y42.698
X52.546 Y42.7
X51.786
X51.77
X51.755 Y42.701
X51.74 Y42.703
X51.724 Y42.706
X51.709 Y42.71
X51.693 Y42.714
X51.689 Y42.715
X51.688 Y42.716
G3 X51.642 Y42.713 I-0.019 J-0.057
G2 X51.561 Y42.74 I-0.027 J0.054
G1 X51.443 Y42.978
G2 X51.469 Y43.058 I0.054 J0.027
G3 X51.499 Y43.093 I-0.027 J0.054
G1 X51.5 Y43.095
X51.503 Y43.102
X51.508 Y43.117
X51.509 Y43.119
X51.516 Y43.135
X51.525 Y43.15
X51.906 Y43.81
X51.904 Y43.812
X51.2 Y43.775
X51.138 Y43.772
X51.123 Y43.771
X51.107 Y43.772
X51.092 Y43.774
X51.077 Y43.776
X51.069 Y43.777
X51.067 Y43.778
G3 X51.022 Y43.769 I-0.012 J-0.059
G2 X50.938 Y43.787 I-0.033 J0.05
G1 X50.789 Y44.026
G2 X50.81 Y44.11 I0.051 J0.032
G3 X50.838 Y44.146 I-0.03 J0.052
G1 Y44.148
X50.839 Y44.152
X50.844 Y44.168
X50.85 Y44.183
X50.856 Y44.198
X50.872 Y44.229
X51.206 Y44.886
X51.205 Y44.888
X50.46 Y44.81
X50.429 Y44.807
X50.414
X50.398
X50.391 Y44.808
X50.387
G3 X50.343 Y44.795 I-0.006 J-0.06
G2 X50.258 Y44.803 I-0.038 J0.046
G1 X50.086 Y45.018
G2 X50.096 Y45.103 I0.047 J0.038
G3 X50.119 Y45.143 I-0.037 J0.047
G1 Y45.147
X50.12 Y45.154
X50.123 Y45.17
X50.127 Y45.185
X50.131 Y45.201
X50.137 Y45.216
X50.152 Y45.25
X50.452 Y45.925
X50.45 Y45.926
X49.72 Y45.811
X49.689 Y45.806
X49.674 Y45.805
X49.658 Y45.804
X49.643
X49.627 Y45.805
X49.625
G3 X49.582 Y45.791 I-0.005 J-0.06
G2 X49.499 Y45.796 I-0.039 J0.046
G1 X49.333 Y45.973
G2 X49.334 Y46.056 I0.044 J0.041
G3 X49.352 Y46.099 I-0.043 J0.042
G1 Y46.103
Y46.11
Y46.126
X49.354 Y46.141
X49.356 Y46.157
X49.359 Y46.172
X49.363 Y46.187
X49.368 Y46.203
X49.392 Y46.265
X49.644 Y46.922
X49.643 Y46.924
X48.918 Y46.77
X48.887 Y46.764
X48.872 Y46.761
X48.856 Y46.76
X48.841 Y46.759
X48.826
X48.81 Y46.76
X48.806 Y46.761
G3 X48.762 Y46.747 I-0.005 J-0.06
G2 X48.688 Y46.745 I-0.038 J0.046
G1 X48.573 Y46.832
G2 X48.554 Y46.905 I0.036 J0.048
G3 X48.556 Y46.95 I-0.055 J0.025
G1 X48.553 Y46.958
X48.548 Y46.973
X48.544 Y46.989
X48.54 Y47.005
X48.538 Y47.02
X48.536 Y47.035
Y47.051
Y47.066
Y47.082
X48.538 Y47.097
X48.54 Y47.113
X48.543 Y47.128
X48.548 Y47.145
X48.562 Y47.19
X48.786 Y47.876
X48.783 Y47.878
X48.055 Y47.683
X48.024 Y47.675
X48.008 Y47.673
X47.993 Y47.671
X47.978
X47.962
X47.947 Y47.672
X47.939
G3 X47.895 Y47.659 I-0.006 J-0.06
G2 X47.814 Y47.663 I-0.038 J0.046
G1 X47.663 Y47.815
G2 X47.659 Y47.895 I0.043 J0.042
G3 X47.672 Y47.939 I-0.046 J0.038
G1 Y47.941
Y47.945
X47.671 Y47.961
Y47.976
Y47.991
X47.673 Y48.007
X47.675 Y48.022
X47.678 Y48.038
X47.682 Y48.053
X47.878 Y48.784
X47.877 Y48.786
X47.191 Y48.563
X47.14 Y48.547
X47.13 Y48.544
X47.114 Y48.541
X47.099 Y48.538
X47.083 Y48.536
X47.068
X47.053
X47.037
X47.022 Y48.538
X47.006 Y48.54
X46.992 Y48.543
X46.979 Y48.547
X46.962 Y48.552
X46.953 Y48.555
X46.951 Y48.556
G3 X46.905 Y48.554 I-0.021 J-0.056
G2 X46.833 Y48.573 I-0.024 J0.055
G1 X46.745 Y48.689
G2 X46.747 Y48.764 I0.048 J0.036
G3 X46.76 Y48.807 I-0.046 J0.038
G1 Y48.809
Y48.812
Y48.819
X46.759 Y48.835
X46.76 Y48.852
Y48.855
X46.761 Y48.87
X46.763 Y48.886
X46.77 Y48.917
X46.924 Y49.642
X46.921 Y49.644
X46.266 Y49.393
X46.205 Y49.369
X46.189 Y49.364
X46.174 Y49.36
X46.158 Y49.357
X46.143 Y49.354
X46.127 Y49.352
X46.112
X46.104
X46.1
X46.099
G3 X46.056 Y49.335 I-0.001 J-0.06
G2 X45.973 Y49.334 I-0.042 J0.043
G1 X45.796 Y49.498
G2 X45.791 Y49.58 I0.041 J0.044
G3 X45.805 Y49.624 I-0.046 J0.038
G1 Y49.626
X45.804 Y49.641
Y49.657
Y49.672
X45.806 Y49.688
X45.811 Y49.718
X45.926 Y50.45
X45.925 Y50.452
X45.246 Y50.15
X45.218 Y50.138
X45.202 Y50.132
X45.187 Y50.127
X45.172 Y50.123
X45.156 Y50.12
X45.148 Y50.119
X45.145
X45.143
G3 X45.103 Y50.096 I0.007 J-0.06
G2 X45.018 Y50.086 I-0.047 J0.037
G1 X44.804 Y50.256
G2 X44.795 Y50.341 I0.037 J0.047
G3 X44.808 Y50.385 I-0.046 J0.038
G1 Y50.389
X44.807 Y50.397
Y50.412
Y50.428
X44.81 Y50.458
X44.888 Y51.205
X44.887 Y51.207
X44.231 Y50.873
X44.2 Y50.857
X44.185 Y50.85
X44.169 Y50.845
X44.154 Y50.84
X44.146 Y50.838
G3 X44.11 Y50.81 I0.016 J-0.058
G2 X44.026 Y50.788 I-0.052 J0.03
G1 X43.788 Y50.937
G2 X43.769 Y51.02 I0.032 J0.051
G3 X43.778 Y51.066 I-0.05 J0.033
G1 Y51.067
X43.776 Y51.075
X43.774 Y51.091
X43.772 Y51.106
X43.771 Y51.121
Y51.137
X43.775 Y51.199
X43.812 Y51.904
X43.81 Y51.906
X43.152 Y51.526
X43.136 Y51.517
X43.121 Y51.51
X43.113 Y51.507
X43.1 Y51.502
X43.093 Y51.499
X43.091
G3 X43.057 Y51.469 I0.018 J-0.057
G2 X42.976 Y51.443 I-0.053 J0.027
G1 X42.741 Y51.56
G2 X42.714 Y51.64 I0.027 J0.054
G3 X42.717 Y51.686 I-0.054 J0.026
G1 X42.716 Y51.688
X42.715 Y51.692
X42.71 Y51.707
X42.706 Y51.723
X42.704 Y51.738
X42.702 Y51.754
X42.7 Y51.769
Y51.784
Y52.545
X42.699 Y52.548
X42.073 Y52.141
X42.045 Y52.124
X42.028 Y52.115
X42.011 Y52.107
X41.995 Y52.101
X41.992 Y52.1
G3 X41.957 Y52.069 I0.02 J-0.057
G2 X41.882 Y52.04 I-0.054 J0.026
G1 X41.678 Y52.118
G2 X41.641 Y52.19 I0.021 J0.056
G3 X41.635 Y52.235 I-0.058 J0.016
G1 Y52.236
X41.629 Y52.247
X41.622 Y52.262
X41.615 Y52.278
X41.61 Y52.293
X41.605 Y52.309
X41.602 Y52.324
X41.599 Y52.34
X41.597 Y52.355
X41.596 Y52.37
X41.556 Y53.129
X41.555 Y53.131
X40.962 Y52.7
X40.933 Y52.679
X40.917 Y52.668
X40.901 Y52.659
X40.885 Y52.652
X40.87 Y52.645
X40.855 Y52.64
X40.853 Y52.639
G3 X40.818 Y52.609 I0.018 J-0.057
G2 X40.741 Y52.581 I-0.053 J0.027
G1 X40.532 Y52.669
G2 X40.498 Y52.743 I0.023 J0.055
G3 X40.495 Y52.789 I-0.057 J0.019
G1 X40.494 Y52.791
X40.492 Y52.794
X40.488 Y52.802
X40.482 Y52.816
X40.477 Y52.83
X40.473 Y52.845
X40.469 Y52.859
X40.468 Y52.864
X40.465 Y52.879
X40.463 Y52.895
X40.384 Y53.651
X40.382 Y53.653
X39.789 Y53.172
X39.774 Y53.161
X39.759 Y53.151
X39.744 Y53.142
X39.729 Y53.135
X39.714 Y53.128
X39.698 Y53.122
X39.694 Y53.121
X39.692 Y53.12
G3 X39.657 Y53.09 I0.019 J-0.057
G2 X39.581 Y53.062 I-0.053 J0.027
G1 X39.374 Y53.147
G2 X39.339 Y53.221 I0.023 J0.056
G3 X39.335 Y53.267 I-0.057 J0.018
G1 X39.334 Y53.268
X39.332 Y53.272
X39.329 Y53.28
X39.322 Y53.295
X39.316 Y53.311
X39.312 Y53.326
X39.308 Y53.342
X39.305 Y53.357
X39.256 Y53.666
X39.185 Y54.111
X39.183 Y54.112
X38.619 Y53.604
X38.603 Y53.591
X38.588 Y53.579
X38.573 Y53.569
X38.557 Y53.56
X38.536 Y53.55
X38.515 Y53.542
X38.51 Y53.54
X38.508
G3 X38.473 Y53.51 I0.019 J-0.057
G2 X38.399 Y53.481 I-0.053 J0.027
G1 X38.204 Y53.553
G2 X38.167 Y53.624 I0.021 J0.056
G3 X38.16 Y53.669 I-0.058 J0.015
G1 X38.158 Y53.673
X38.153 Y53.681
X38.146 Y53.696
X38.139 Y53.712
X38.133 Y53.727
X38.126 Y53.752
X38.117 Y53.789
X37.965 Y54.508
X37.964 Y54.51
X37.428 Y53.974
X37.407 Y53.954
X37.396 Y53.946
X37.386 Y53.938
X37.364 Y53.924
X37.353 Y53.918
X37.348 Y53.915
X37.345 Y53.914
X37.344 Y53.913
G3 X37.314 Y53.878 I0.027 J-0.054
G2 X37.237 Y53.841 I-0.057 J0.019
G1 X36.98 Y53.93
G2 X36.943 Y54.007 I0.02 J0.057
G3 X36.941 Y54.053 I-0.056 J0.02
G1 X36.94 Y54.055
X36.938 Y54.059
X36.935 Y54.066
X36.929 Y54.082
X36.924 Y54.097
X36.907 Y54.159
X36.725 Y54.841
X36.724 Y54.842
X36.214 Y54.276
X36.198 Y54.26
X36.183 Y54.246
X36.167 Y54.234
X36.16 Y54.228
X36.158 Y54.227
G3 X36.133 Y54.189 I0.034 J-0.05
G2 X36.061 Y54.141 I-0.059 J0.011
G1 X35.784 Y54.201
G2 X35.739 Y54.275 I0.013 J0.059
G3 X35.733 Y54.321 I-0.058 J0.015
G1 X35.728 Y54.328
X35.72 Y54.344
X35.713 Y54.359
X35.707 Y54.375
X35.697 Y54.406
X35.47 Y55.106
X35.467 Y55.108
X34.998 Y54.529
X34.98 Y54.507
X34.97 Y54.496
X34.959 Y54.485
X34.949 Y54.476
X34.943 Y54.471
X34.942 Y54.47
G3 X34.92 Y54.43 I0.038 J-0.047
G2 X34.853 Y54.377 I-0.06 J0.006
G1 X34.583 Y54.408
G2 X34.53 Y54.475 I0.007 J0.06
G3 X34.518 Y54.52 I-0.06 J0.007
G1 X34.517 Y54.521
X34.515 Y54.524
X34.511 Y54.529
X34.498 Y54.549
X34.487 Y54.569
X34.477 Y54.591
X34.453 Y54.652
X34.201 Y55.31
X34.199 Y55.308
X33.767 Y54.714
X33.747 Y54.686
X33.733 Y54.669
X33.717 Y54.652
X33.701 Y54.638
G3 X33.681 Y54.597 I0.04 J-0.045
G2 X33.619 Y54.54 I-0.06 J0.003
G1 X33.376 Y54.549
G2 X33.318 Y54.61 I0.002 J0.06
G3 X33.301 Y54.652 I-0.06 J0.001
G1 X33.287 Y54.667
X33.274 Y54.682
X33.263 Y54.696
X33.254 Y54.711
X33.252 Y54.714
X33.243 Y54.729
X33.235 Y54.745
X33.112 Y55.022
X32.925 Y55.442
X32.923 Y55.443
X32.513 Y54.813
X32.501 Y54.794
X32.487 Y54.776
X32.471 Y54.758
X32.461 Y54.748
X32.452 Y54.74
X32.443 Y54.733
X32.441 Y54.731
G3 X32.419 Y54.691 I0.037 J-0.047
G2 X32.366 Y54.638 I-0.06 J0.007
G1 X32.231 Y54.621
G2 X32.168 Y54.659 I-0.007 J0.06
G3 X32.136 Y54.692 I-0.056 J-0.022
G1 X32.134 Y54.693
X32.131 Y54.694
X32.119 Y54.7
X32.107 Y54.707
X32.095 Y54.714
X32.082 Y54.723
X32.068 Y54.734
X32.053 Y54.746
X32.038 Y54.761
X32.025 Y54.776
X32.02 Y54.782
X32.01 Y54.796
X32.001 Y54.81
X31.985 Y54.837
X31.643 Y55.51
X31.641
X31.28 Y54.885
X31.252 Y54.837
X31.245 Y54.827
X31.237 Y54.816
X31.228 Y54.805
X31.218 Y54.794
X31.209 Y54.785
X31.199 Y54.776
X31.194 Y54.771
X31.193 Y54.77
G3 X31.171 Y54.729 I0.039 J-0.046
G2 X31.112 Y54.674 I-0.06 J0.005
G1 X30.889
G2 X30.829 Y54.729 I0. J0.06
G3 X30.808 Y54.769 I-0.06 J-0.005
G1 X30.807 Y54.771
X30.801 Y54.776
X30.787 Y54.789
X30.775 Y54.801
X30.765 Y54.813
X30.756 Y54.825
X30.748 Y54.837
X30.725 Y54.876
X30.358 Y55.511
X30.357 Y55.51
X30.015 Y54.837
X30.001 Y54.813
X29.994 Y54.801
X29.985 Y54.788
X29.975 Y54.776
X29.963 Y54.762
X29.949 Y54.748
X29.936 Y54.737
X29.923 Y54.727
X29.905 Y54.714
X29.883 Y54.701
X29.872 Y54.696
X29.867 Y54.694
X29.864 Y54.692
G3 X29.833 Y54.659 I0.024 J-0.055
G2 X29.769 Y54.621 I-0.056 J0.022
G1 X29.633 Y54.638
G2 X29.581 Y54.691 I0.008 J0.06
G3 X29.559 Y54.731 I-0.06 J-0.007
G1 X29.557 Y54.733
X29.553 Y54.736
X29.543 Y54.744
X29.533 Y54.754
X29.523 Y54.765
X29.513 Y54.776
X29.502 Y54.79
X29.492 Y54.805
X29.077 Y55.443
X29.076
X28.766 Y54.747
X28.759 Y54.733
X28.751 Y54.719
X28.748 Y54.714
X28.739 Y54.699
X28.727 Y54.683
X28.714 Y54.668
X28.699 Y54.652
G3 X28.682 Y54.61 I0.043 J-0.042
G2 X28.624 Y54.549 I-0.06 J-0.001
G1 X28.382 Y54.542
G2 X28.32 Y54.597 I-0.002 J0.06
G3 X28.299 Y54.638 I-0.06 J-0.005
G1 X28.297 Y54.64
X28.292 Y54.644
X28.283 Y54.652
X28.27 Y54.666
X28.258 Y54.68
X28.233 Y54.714
X27.801 Y55.308
X27.799 Y55.31
X27.547 Y54.652
X27.523 Y54.591
X27.518 Y54.579
X27.512 Y54.566
X27.505 Y54.554
X27.497 Y54.541
X27.489 Y54.529
X27.482 Y54.519
G3 X27.47 Y54.475 I0.048 J-0.036
G2 X27.418 Y54.407 I-0.059 J-0.008
G1 X27.145 Y54.377
G2 X27.079 Y54.43 I-0.007 J0.06
G3 X27.057 Y54.471 I-0.06 J-0.006
G1 X27.053 Y54.475
X27.043 Y54.483
X27.034 Y54.492
X27.025 Y54.502
X27.002 Y54.529
X26.533 Y55.108
X26.531 Y55.109
X26.303 Y54.406
X26.295 Y54.38
X26.29 Y54.367
X26.285 Y54.354
X26.28 Y54.344
X26.272 Y54.329
X26.267 Y54.321
G3 X26.261 Y54.275 I0.052 J-0.03
G2 X26.216 Y54.201 I-0.058 J-0.015
G1 X25.939 Y54.141
G2 X25.868 Y54.188 I-0.013 J0.059
G3 X25.842 Y54.227 I-0.059 J-0.011
G1 X25.841 Y54.228
X25.837 Y54.231
X25.822 Y54.242
X25.806 Y54.255
X25.791 Y54.27
X25.78 Y54.282
X25.276 Y54.842
X25.275 Y54.841
X25.093 Y54.159
X25.076 Y54.097
X25.071 Y54.082
X25.066 Y54.067
X25.062 Y54.06
X25.061 Y54.056
X25.06 Y54.054
G3 X25.058 Y54.008 I0.054 J-0.025
G2 X25.021 Y53.931 I-0.056 J-0.02
G1 X24.762 Y53.841
G2 X24.685 Y53.879 I-0.02 J0.057
G3 X24.655 Y53.913 I-0.057 J-0.019
G1 X24.653 Y53.915
X24.648 Y53.917
X24.639 Y53.922
X24.619 Y53.934
X24.608 Y53.943
X24.596 Y53.952
X24.584 Y53.962
X24.572 Y53.974
X24.037 Y54.51
X24.035 Y54.508
X23.879 Y53.774
X23.874 Y53.751
X23.867 Y53.727
X23.861 Y53.712
X23.854 Y53.696
X23.847 Y53.681
X23.842 Y53.673
X23.84 Y53.669
G3 X23.833 Y53.624 I0.051 J-0.031
G2 X23.796 Y53.553 I-0.058 J-0.015
G1 X23.603 Y53.481
G2 X23.529 Y53.509 I-0.021 J0.056
G3 X23.494 Y53.539 I-0.053 J-0.028
G1 X23.491 Y53.54
X23.485 Y53.542
X23.466 Y53.549
X23.448 Y53.558
X23.432 Y53.566
X23.417 Y53.576
X23.401 Y53.587
X23.386 Y53.6
X23.381 Y53.604
X22.816 Y54.113
X22.815 Y54.111
X22.705 Y53.419
X22.695 Y53.357
X22.692 Y53.342
X22.688 Y53.326
X22.684 Y53.311
X22.678 Y53.295
X22.672 Y53.28
X22.668 Y53.273
X22.666 Y53.269
X22.665 Y53.267
G3 X22.661 Y53.222 I0.053 J-0.028
G2 X22.627 Y53.148 I-0.057 J-0.018
G1 X22.418 Y53.06
G2 X22.341 Y53.09 I-0.023 J0.055
G3 X22.307 Y53.121 I-0.054 J-0.026
G1 X22.291 Y53.126
X22.276 Y53.132
X22.261 Y53.14
X22.245 Y53.149
X22.23 Y53.158
X22.214 Y53.17
X22.211 Y53.172
X21.618 Y53.653
X21.616 Y53.651
X21.54 Y52.925
X21.536 Y52.887
X21.532 Y52.864
X21.528 Y52.848
X21.524 Y52.833
X21.518 Y52.818
X21.512 Y52.802
X21.508 Y52.794
X21.506 Y52.791
X21.505 Y52.789
G3 X21.502 Y52.743 I0.054 J-0.027
G2 X21.468 Y52.669 I-0.057 J-0.019
G1 X21.26 Y52.582
G2 X21.184 Y52.609 I-0.023 J0.055
G3 X21.148 Y52.639 I-0.053 J-0.028
G1 X21.147
X21.143 Y52.641
X21.135 Y52.643
X21.12 Y52.65
X21.104 Y52.657
X21.086 Y52.667
X21.067 Y52.679
X21.043 Y52.697
X20.445 Y53.131
X20.444 Y53.129
X20.404 Y52.37
X20.403 Y52.355
X20.401 Y52.34
X20.398 Y52.324
X20.395 Y52.309
X20.39 Y52.293
X20.385 Y52.278
X20.378 Y52.262
X20.371 Y52.247
X20.368 Y52.241
X20.366 Y52.237
X20.365 Y52.236
G3 X20.359 Y52.19 I0.052 J-0.029
G2 X20.323 Y52.118 I-0.058 J-0.016
G1 X20.121 Y52.04
G2 X20.046 Y52.069 I-0.022 J0.056
G3 X20.011 Y52.099 I-0.054 J-0.027
G1 X20.009 Y52.1
X19.994 Y52.105
X19.975 Y52.114
X19.955 Y52.124
X19.932 Y52.138
X19.302 Y52.547
X19.3 Y52.545
Y51.784
Y51.769
X19.298 Y51.754
X19.296 Y51.738
X19.294 Y51.723
X19.29 Y51.707
X19.285 Y51.692
X19.284 Y51.688
X19.283 Y51.686
G3 X19.286 Y51.64 I0.057 J-0.019
G2 X19.259 Y51.56 I-0.054 J-0.026
G1 X19.024 Y51.442
G2 X18.943 Y51.469 I-0.027 J0.054
G3 X18.909 Y51.499 I-0.054 J-0.027
G1 X18.901 Y51.501
X18.887 Y51.507
X18.884 Y51.508
X18.869 Y51.515
X18.853 Y51.523
X18.822 Y51.541
X18.191 Y51.905
X18.188 Y51.903
X18.225 Y51.199
X18.229 Y51.137
Y51.121
X18.228 Y51.106
X18.226 Y51.091
X18.224 Y51.075
X18.222 Y51.067
Y51.066
G3 X18.231 Y51.02 I0.059 J-0.012
G2 X18.212 Y50.937 I-0.05 J-0.033
G1 X17.973 Y50.789
G2 X17.889 Y50.81 I-0.032 J0.051
G3 X17.853 Y50.838 I-0.052 J-0.03
G1 X17.851
X17.836 Y50.843
X17.82 Y50.848
X17.805 Y50.855
X17.774 Y50.87
X17.113 Y51.207
X17.112 Y51.205
X17.19 Y50.458
X17.193 Y50.428
Y50.412
Y50.397
X17.192 Y50.389
Y50.385
G3 X17.205 Y50.341 I0.06 J-0.006
G2 X17.196 Y50.256 I-0.046 J-0.038
G1 X16.981 Y50.085
G2 X16.896 Y50.096 I-0.037 J0.047
G3 X16.857 Y50.119 I-0.048 J-0.036
G1 X16.849 Y50.12
X16.833 Y50.122
X16.818 Y50.126
X16.803 Y50.13
X16.787 Y50.136
X16.754 Y50.15
X16.076 Y50.452
X16.074 Y50.45
X16.189 Y49.718
X16.194 Y49.688
X16.196 Y49.672
Y49.657
Y49.641
X16.195 Y49.626
G3 X16.21 Y49.582 I0.06 J-0.004
G2 X16.206 Y49.499 I-0.045 J-0.04
G1 X16.028 Y49.334
G2 X15.945 Y49.335 I-0.041 J0.044
G3 X15.903 Y49.352 I-0.042 J-0.043
G1 X15.901
X15.893
X15.877
X15.862 Y49.353
X15.847 Y49.356
X15.831 Y49.359
X15.816 Y49.363
X15.8 Y49.367
X15.739 Y49.391
X15.078 Y49.644
X15.076 Y49.643
X15.23 Y48.917
X15.237 Y48.886
X15.239 Y48.87
X15.24 Y48.855
X15.241 Y48.839
Y48.824
X15.24 Y48.809
X15.239 Y48.807
G3 X15.253 Y48.763 I0.06 J-0.006
G2 X15.255 Y48.688 I-0.046 J-0.038
G1 X15.167 Y48.572
G2 X15.094 Y48.554 I-0.048 J0.036
G3 X15.048 Y48.555 I-0.025 J-0.055
G1 X15.046 Y48.554
X15.041 Y48.553
X15.021 Y48.547
X14.999 Y48.541
X14.983 Y48.538
X14.968 Y48.537
X14.952 Y48.536
X14.937 Y48.535
X14.922 Y48.536
X14.906 Y48.537
X14.891 Y48.54
X14.875 Y48.543
X14.86 Y48.547
X14.814 Y48.561
X14.125 Y48.785
X14.122 Y48.784
X14.318 Y48.053
X14.32 Y48.044
X14.323 Y48.031
X14.326 Y48.018
X14.327 Y48.005
X14.329 Y47.991
Y47.976
Y47.961
X14.328 Y47.945
Y47.941
Y47.939
G3 X14.341 Y47.895 I0.06 J-0.006
G2 X14.337 Y47.815 I-0.046 J-0.038
G1 X14.184 Y47.663
G2 X14.104 Y47.659 I-0.042 J0.042
G3 X14.06 Y47.672 I-0.038 J-0.046
G1 X14.058
X14.043 Y47.671
X14.027
X14.012
X13.997 Y47.672
X13.981 Y47.674
X13.966 Y47.677
X13.95 Y47.681
X13.217 Y47.878
X13.214 Y47.876
X13.438 Y47.19
X13.457 Y47.128
Y47.126
X13.46 Y47.111
X13.462 Y47.096
X13.464 Y47.081
Y47.066
Y47.051
Y47.035
X13.462 Y47.02
X13.46 Y47.005
X13.457 Y46.992
X13.45 Y46.967
X13.446 Y46.955
X13.445 Y46.952
X13.444 Y46.951
G3 X13.445 Y46.905 I0.056 J-0.022
G2 X13.427 Y46.833 I-0.055 J-0.024
G1 X13.311 Y46.745
G2 X13.237 Y46.747 I-0.036 J0.048
G3 X13.193 Y46.76 I-0.038 J-0.046
G1 X13.191
X13.187
X13.179
X13.164 Y46.759
X13.149 Y46.76
X13.133 Y46.761
X13.118 Y46.763
X13.087 Y46.769
X12.357 Y46.924
X12.356 Y46.923
X12.608 Y46.265
X12.632 Y46.203
X12.637 Y46.187
X12.641 Y46.172
X12.644 Y46.157
X12.646 Y46.141
X12.648 Y46.126
Y46.11
Y46.103
Y46.099
G3 X12.666 Y46.056 I0.06 J-0.001
G2 X12.667 Y45.973 I-0.043 J-0.042
G1 X12.502 Y45.796
G2 X12.419 Y45.791 I-0.044 J0.041
G3 X12.376 Y45.805 I-0.039 J-0.046
G1 X12.374
X12.37 Y45.804
X12.362
X12.347
X12.331
X12.316 Y45.805
X12.285 Y45.81
X11.549 Y45.927
X11.548 Y45.925
X11.853 Y45.238
X11.863 Y45.216
X11.869 Y45.201
X11.873 Y45.185
X11.877 Y45.17
X11.88 Y45.154
X11.881 Y45.147
Y45.143
G3 X11.904 Y45.103 I0.06 J0.008
G2 X11.914 Y45.018 I-0.037 J-0.047
G1 X11.744 Y44.803
G2 X11.658 Y44.795 I-0.047 J0.037
G3 X11.614 Y44.808 I-0.038 J-0.046
G1 X11.607
X11.591 Y44.807
X11.576
X11.545 Y44.809
X10.795 Y44.888
X10.793 Y44.886
X11.128 Y44.229
X11.144 Y44.198
X11.15 Y44.183
X11.156 Y44.168
X11.161 Y44.152
X11.162 Y44.148
Y44.146
G3 X11.19 Y44.11 I0.058 J0.015
G2 X11.211 Y44.026 I-0.03 J-0.052
G1 X11.063 Y43.788
G2 X10.979 Y43.769 I-0.051 J0.032
G3 X10.934 Y43.778 I-0.033 J-0.05
G1 X10.932 Y43.777
X10.928
X10.913 Y43.774
X10.898 Y43.772
X10.882
X10.867 Y43.771
X10.805 Y43.774
X10.096 Y43.812
X10.094 Y43.81
X10.475 Y43.15
X10.484 Y43.135
X10.491 Y43.119
X10.497 Y43.104
X10.501 Y43.093
Y43.091
G3 X10.531 Y43.056 I0.057 J0.018
G2 X10.557 Y42.976 I-0.027 J-0.053
G1 X10.439 Y42.741
G2 X10.359 Y42.714 I-0.054 J0.027
G3 X10.314 Y42.717 I-0.026 J-0.054
G1 X10.312 Y42.716
X10.296 Y42.711
X10.281 Y42.707
X10.265 Y42.704
X10.25 Y42.702
X10.235 Y42.701
X10.219 Y42.7
X10.188
X9.454
X9.452 Y42.698
X9.86 Y42.071
X9.88 Y42.038
X9.887 Y42.024
X9.894 Y42.009
X9.899 Y41.994
X9.9 Y41.992
G3 X9.93 Y41.957 I0.057 J0.019
G2 X9.96 Y41.882 I-0.026 J-0.054
G1 X9.882 Y41.676
G2 X9.809 Y41.64 I-0.056 J0.021
G3 X9.764 Y41.635 I-0.017 J-0.058
G1 X9.757 Y41.631
X9.741 Y41.623
X9.726 Y41.617
X9.71 Y41.611
X9.695 Y41.606
X9.679 Y41.603
X9.664 Y41.6
X9.649 Y41.598
X9.633 Y41.596
X8.871 Y41.556
X8.87 Y41.555
X9.301 Y40.961
X9.325 Y40.928
X9.334 Y40.913
X9.342 Y40.899
X9.349 Y40.883
X9.355 Y40.868
X9.361 Y40.853
G3 X9.391 Y40.818 I0.057 J0.02
G2 X9.421 Y40.741 I-0.026 J-0.054
G1 X9.333 Y40.533
G2 X9.259 Y40.499 I-0.055 J0.023
G3 X9.213 Y40.495 I-0.019 J-0.057
G1 X9.209 Y40.493
X9.202 Y40.49
X9.186 Y40.483
X9.171 Y40.477
X9.155 Y40.473
X9.14 Y40.469
X9.132 Y40.467
X9.078 Y40.46
X8.349 Y40.384
X8.347 Y40.382
X8.828 Y39.789
X8.831 Y39.784
X8.842 Y39.77
X8.851 Y39.756
X8.859 Y39.741
X8.866 Y39.727
X8.873 Y39.712
X8.879 Y39.696
X8.88 Y39.692
G3 X8.91 Y39.657 I0.057 J0.019
G2 X8.938 Y39.581 I-0.027 J-0.054
G1 X8.852 Y39.373
G2 X8.779 Y39.339 I-0.055 J0.023
G3 X8.733 Y39.335 I-0.018 J-0.057
G1 X8.731 Y39.334
X8.723 Y39.33
X8.708 Y39.323
X8.693 Y39.318
X8.677 Y39.313
X8.662 Y39.309
X8.646 Y39.305
X8.583 Y39.295
X7.89 Y39.186
X7.888 Y39.183
X8.398 Y38.617
X8.4 Y38.615
X8.412 Y38.6
X8.423 Y38.585
X8.432 Y38.57
X8.441 Y38.555
X8.447 Y38.542
X8.452 Y38.53
X8.457 Y38.517
X8.459 Y38.511
X8.46 Y38.508
G3 X8.49 Y38.473 I0.057 J0.019
G2 X8.519 Y38.398 I-0.027 J-0.053
G1 X8.447 Y38.204
G2 X8.376 Y38.166 I-0.056 J0.021
G3 X8.33 Y38.16 I-0.015 J-0.058
G1 X8.323 Y38.155
X8.307 Y38.147
X8.292 Y38.14
X8.276 Y38.134
X8.258 Y38.128
X8.239 Y38.123
X8.215 Y38.118
X7.492 Y37.965
X7.49 Y37.963
X8.03 Y37.424
X8.039 Y37.414
X8.048 Y37.404
X8.064 Y37.383
X8.072 Y37.371
X8.079 Y37.359
X8.086 Y37.347
X8.087 Y37.344
G3 X8.122 Y37.314 I0.054 J0.027
G2 X8.159 Y37.237 I-0.019 J-0.057
G1 X8.069 Y36.979
G2 X7.992 Y36.943 I-0.057 J0.02
G3 X7.946 Y36.941 I-0.02 J-0.056
G1 X7.945 Y36.94
X7.937 Y36.936
X7.922 Y36.93
X7.906 Y36.925
X7.845 Y36.908
X7.159 Y36.725
X7.158 Y36.724
X7.721 Y36.216
X7.727 Y36.212
X7.742 Y36.196
X7.756 Y36.181
X7.768 Y36.165
X7.773 Y36.158
G3 X7.812 Y36.133 I0.049 J0.034
G2 X7.86 Y36.061 I-0.011 J-0.059
G1 X7.799 Y35.786
G2 X7.726 Y35.741 I-0.059 J0.013
G3 X7.681 Y35.734 I-0.014 J-0.058
G1 X7.679 Y35.733
X7.675 Y35.73
X7.66 Y35.722
X7.652 Y35.718
X7.638 Y35.712
X7.625 Y35.707
X7.598 Y35.698
X6.893 Y35.469
X6.891 Y35.468
X7.475 Y34.995
X7.495 Y34.978
X7.507 Y34.967
X7.518 Y34.956
X7.528 Y34.944
X7.53 Y34.942
G3 X7.57 Y34.92 I0.047 J0.038
G2 X7.624 Y34.853 I-0.006 J-0.06
G1 X7.591 Y34.581
G2 X7.524 Y34.529 I-0.06 J0.007
G3 X7.479 Y34.517 I-0.008 J-0.059
G1 X7.475 Y34.514
X7.463 Y34.505
X7.451 Y34.498
X7.439 Y34.491
X7.427 Y34.485
X7.413 Y34.478
X7.351 Y34.455
X6.69 Y34.201
X6.692 Y34.199
X7.29 Y33.765
X7.317 Y33.745
X7.334 Y33.73
X7.351 Y33.713
X7.358 Y33.705
X7.361 Y33.702
G3 X7.402 Y33.681 I0.046 J0.039
G2 X7.457 Y33.619 I-0.005 J-0.06
G1 X7.449 Y33.377
G2 X7.39 Y33.319 I-0.06 J0.002
G3 X7.348 Y33.301 I0.001 J-0.06
G1 X7.344 Y33.297
X7.336 Y33.289
X7.321 Y33.276
X7.305 Y33.264
X7.29 Y33.254
X7.285 Y33.251
X7.271 Y33.243
X7.257 Y33.236
X7.228 Y33.223
X6.558 Y32.925
X6.557 Y32.923
X7.191 Y32.511
X7.21 Y32.499
X7.228 Y32.484
X7.247 Y32.467
X7.262 Y32.449
X7.266 Y32.445
X7.268 Y32.442
G3 X7.308 Y32.42 I0.047 J0.037
G2 X7.361 Y32.368 I-0.007 J-0.06
G1 X7.379 Y32.231
G2 X7.341 Y32.168 I-0.059 J-0.008
G3 X7.308 Y32.136 I0.021 J-0.056
G1 X7.306 Y32.131
X7.301 Y32.121
X7.29 Y32.101
X7.275 Y32.079
X7.265 Y32.067
X7.254 Y32.054
X7.241 Y32.04
X7.228 Y32.028
X7.215 Y32.018
X7.203 Y32.009
X7.191 Y32.001
X7.166 Y31.987
X6.489 Y31.642
X6.49 Y31.641
X7.119 Y31.278
X7.166 Y31.25
X7.187 Y31.234
X7.198 Y31.226
X7.208 Y31.216
X7.219 Y31.205
X7.228 Y31.195
X7.23 Y31.192
G3 X7.315 Y31.185 I0.046 J0.039
G2 X7.408 Y31.114 I0.039 J-0.046
G1 X7.224 Y30.723
G3 X7.739 Y30.48 I0.258 J-0.121
X7.332 Y30.844 I-0.258 J0.121
G1 X7.331 Y30.843 F500.
G3 X7.633 Y30.36 Z6.669 I0.151 J-0.242
X7.331 Y30.843 Z6.637 I-0.151 J0.242
X7.633 Y30.36 Z6.606 I0.151 J-0.242
X7.331 Y30.843 Z6.575 I-0.151 J0.242
X7.633 Y30.36 Z6.544 I0.151 J-0.242
X7.331 Y30.843 Z6.512 I-0.151 J0.242
X7.633 Y30.36 Z6.481 I0.151 J-0.242
X7.331 Y30.843 Z6.45 I-0.151 J0.242
X7.633 Y30.36 Z6.419 I0.151 J-0.242
X7.667 Y30.818 Z6.4 I-0.151 J0.242
G1 X7.666 Y30.819
X7.639 Y30.842 F1500.
G3 X7.23 Y30.808 I-0.187 J-0.221
G1 X7.228 Y30.805
X7.219 Y30.795
X7.208 Y30.784
X7.198 Y30.774
X7.187 Y30.766
X7.166 Y30.75
X7.119 Y30.722
X6.49 Y30.359
X6.489 Y30.358
X7.166 Y30.013
X7.191 Y29.999
X7.203 Y29.991
X7.215 Y29.982
X7.228 Y29.972
X7.241 Y29.96
X7.254 Y29.946
X7.265 Y29.933
X7.275 Y29.921
X7.29 Y29.899
X7.301 Y29.879
X7.306 Y29.869
X7.308 Y29.864
G3 X7.341 Y29.832 I0.055 J0.025
G2 X7.379 Y29.769 I-0.021 J-0.056
G1 X7.361 Y29.632
G2 X7.308 Y29.58 I-0.059 J0.008
G3 X7.268 Y29.558 I0.007 J-0.06
G1 X7.266 Y29.555
X7.262 Y29.551
X7.247 Y29.533
X7.228 Y29.516
X7.21 Y29.501
X7.191 Y29.489
X6.557 Y29.077
X6.558 Y29.075
X7.228 Y28.777
X7.257 Y28.764
X7.271 Y28.757
X7.285 Y28.749
X7.29 Y28.746
X7.305 Y28.736
X7.321 Y28.724
X7.336 Y28.711
X7.344 Y28.703
X7.348 Y28.699
G3 X7.39 Y28.681 I0.043 J0.042
G2 X7.449 Y28.623 I-0.001 J-0.06
G1 X7.457 Y28.381
G2 X7.402 Y28.319 I-0.06 J-0.002
G3 X7.361 Y28.298 I0.005 J-0.06
G1 X7.358 Y28.295
X7.351 Y28.287
X7.334 Y28.27
X7.317 Y28.255
X7.29 Y28.235
X6.692 Y27.801
X6.69 Y27.799
X7.351 Y27.545
X7.413 Y27.522
X7.427 Y27.515
X7.439 Y27.509
X7.451 Y27.502
X7.463 Y27.495
X7.475 Y27.486
X7.479 Y27.483
G3 X7.524 Y27.471 I0.036 J0.048
G2 X7.591 Y27.419 I0.008 J-0.059
G1 X7.624 Y27.147
G2 X7.57 Y27.08 I-0.06 J-0.007
G3 X7.53 Y27.058 I0.006 J-0.06
G1 X7.528 Y27.056
X7.518 Y27.044
X7.507 Y27.033
X7.495 Y27.022
X7.475 Y27.005
X6.891 Y26.532
X6.893 Y26.531
X7.598 Y26.302
X7.625 Y26.293
X7.638 Y26.288
X7.652 Y26.282
X7.66 Y26.278
X7.675 Y26.27
X7.679 Y26.267
X7.681 Y26.266
G3 X7.726 Y26.259 I0.031 J0.051
G2 X7.799 Y26.214 I0.014 J-0.058
G1 X7.86 Y25.939
G2 X7.812 Y25.867 I-0.059 J-0.013
G3 X7.773 Y25.842 I0.011 J-0.059
G1 X7.768 Y25.835
X7.756 Y25.819
X7.742 Y25.804
X7.727 Y25.788
X7.721 Y25.784
X7.158 Y25.276
X7.159 Y25.275
X7.845 Y25.092
X7.906 Y25.075
X7.922 Y25.07
X7.937 Y25.064
X7.945 Y25.06
X7.946 Y25.059
G3 X7.992 Y25.057 I0.026 J0.054
G2 X8.069 Y25.021 I0.02 J-0.056
G1 X8.159 Y24.763
G2 X8.122 Y24.686 I-0.057 J-0.02
G3 X8.087 Y24.656 I0.019 J-0.057
G1 X8.086 Y24.653
X8.079 Y24.641
X8.072 Y24.629
X8.064 Y24.617
X8.048 Y24.596
X8.039 Y24.586
X8.03 Y24.576
X7.49 Y24.037
X7.492 Y24.035
X8.215 Y23.882
X8.239 Y23.877
X8.258 Y23.872
X8.276 Y23.866
X8.292 Y23.86
X8.307 Y23.853
X8.323 Y23.845
X8.33 Y23.84
G3 X8.376 Y23.834 I0.03 J0.052
G2 X8.447 Y23.796 I0.015 J-0.058
G1 X8.519 Y23.602
G2 X8.49 Y23.527 I-0.056 J-0.021
G3 X8.46 Y23.492 I0.027 J-0.053
G1 X8.459 Y23.489
X8.457 Y23.483
X8.452 Y23.47
X8.447 Y23.458
X8.441 Y23.445
X8.432 Y23.43
X8.423 Y23.415
X8.412 Y23.4
X8.4 Y23.385
X8.398 Y23.383
X7.888 Y22.817
X7.89 Y22.814
X8.585 Y22.704
X8.646 Y22.695
X8.662 Y22.691
X8.677 Y22.687
X8.693 Y22.682
X8.708 Y22.677
X8.723 Y22.67
X8.731 Y22.666
X8.733 Y22.665
G3 X8.779 Y22.661 I0.028 J0.053
G2 X8.852 Y22.627 I0.018 J-0.057
G1 X8.938 Y22.419
G2 X8.91 Y22.343 I-0.055 J-0.023
G3 X8.88 Y22.308 I0.027 J-0.054
G1 X8.879 Y22.304
X8.873 Y22.288
X8.866 Y22.273
X8.859 Y22.259
X8.851 Y22.244
X8.842 Y22.23
X8.831 Y22.216
X8.828 Y22.211
X8.347 Y21.618
X8.349 Y21.616
X9.078 Y21.54
X9.132 Y21.533
X9.14 Y21.531
X9.155 Y21.527
X9.171 Y21.523
X9.186 Y21.517
X9.202 Y21.51
X9.209 Y21.507
X9.213 Y21.505
G3 X9.259 Y21.501 I0.027 J0.053
G2 X9.333 Y21.467 I0.019 J-0.057
G1 X9.421 Y21.259
G2 X9.391 Y21.182 I-0.055 J-0.023
G3 X9.361 Y21.147 I0.026 J-0.054
G1 X9.355 Y21.132
X9.349 Y21.117
X9.342 Y21.101
X9.334 Y21.087
X9.325 Y21.072
X9.301 Y21.04
X8.87 Y20.445
X8.871 Y20.444
X9.633 Y20.404
X9.649 Y20.402
X9.664 Y20.4
X9.679 Y20.397
X9.695 Y20.394
X9.71 Y20.389
X9.726 Y20.383
X9.741 Y20.377
X9.757 Y20.369
X9.764 Y20.365
G3 X9.809 Y20.36 I0.029 J0.053
G2 X9.882 Y20.324 I0.017 J-0.058
G1 X9.96 Y20.122
G2 X9.931 Y20.047 I-0.056 J-0.022
G3 X9.901 Y20.012 I0.027 J-0.053
G1 Y20.01
X9.899 Y20.006
X9.894 Y19.991
X9.887 Y19.976
X9.88 Y19.962
X9.86 Y19.929
X9.452 Y19.302
X9.454 Y19.3
X10.188
X10.219
X10.235 Y19.299
X10.25 Y19.298
X10.265 Y19.296
X10.281 Y19.293
X10.296 Y19.289
X10.312 Y19.284
X10.314 Y19.283
G3 X10.359 Y19.286 I0.019 J0.057
G2 X10.439 Y19.259 I0.026 J-0.054
G1 X10.557 Y19.024
G2 X10.531 Y18.944 I-0.054 J-0.027
G3 X10.501 Y18.909 I0.027 J-0.053
G1 Y18.907
X10.497 Y18.896
X10.491 Y18.881
X10.484 Y18.865
X10.475 Y18.85
X10.094 Y18.19
X10.096 Y18.188
X10.805 Y18.226
X10.867 Y18.229
X10.882 Y18.228
X10.898
X10.913 Y18.226
X10.928 Y18.223
X10.932
X10.934 Y18.222
G3 X10.979 Y18.231 I0.012 J0.059
G2 X11.063 Y18.212 I0.033 J-0.05
G1 X11.211 Y17.974
G2 X11.19 Y17.89 I-0.051 J-0.032
G3 X11.162 Y17.854 I0.03 J-0.052
G1 Y17.852
X11.161 Y17.848
X11.156 Y17.832
X11.15 Y17.817
X11.144 Y17.802
X11.128 Y17.771
X10.793 Y17.114
X10.795 Y17.112
X11.545 Y17.191
X11.576 Y17.193
X11.591
X11.607 Y17.192
X11.614
G3 X11.658 Y17.205 I0.005 J0.06
G2 X11.744 Y17.197 I0.038 J-0.046
G1 X11.914 Y16.982
G2 X11.904 Y16.897 I-0.047 J-0.037
G3 X11.881 Y16.857 I0.037 J-0.047
G1 Y16.853
X11.88 Y16.846
X11.877 Y16.83
X11.873 Y16.815
X11.869 Y16.799
X11.863 Y16.784
X11.853 Y16.762
X11.548 Y16.075
X11.549 Y16.073
X12.285 Y16.19
X12.316 Y16.195
X12.331 Y16.196
X12.347
X12.362
X12.37
X12.374 Y16.195
X12.376
G3 X12.419 Y16.209 I0.005 J0.06
G2 X12.502 Y16.204 I0.039 J-0.046
G1 X12.667 Y16.027
G2 X12.666 Y15.944 I-0.044 J-0.041
G3 X12.648 Y15.901 I0.043 J-0.042
G1 Y15.897
Y15.89
Y15.874
X12.646 Y15.859
X12.644 Y15.843
X12.641 Y15.828
X12.637 Y15.813
X12.632 Y15.797
X12.608 Y15.735
X12.356 Y15.077
X12.357 Y15.076
X13.087 Y15.231
X13.118 Y15.237
X13.133 Y15.239
X13.149 Y15.24
X13.164 Y15.241
X13.179 Y15.24
X13.187
X13.191
X13.193
G3 X13.237 Y15.253 I0.005 J0.06
G2 X13.311 Y15.255 I0.038 J-0.046
G1 X13.427 Y15.168
G2 X13.445 Y15.095 I-0.036 J-0.048
G3 X13.444 Y15.049 I0.055 J-0.024
G1 X13.445 Y15.048
X13.446 Y15.045
X13.45 Y15.033
X13.457 Y15.008
X13.46 Y14.995
X13.462 Y14.98
X13.464 Y14.965
Y14.949
Y14.934
Y14.919
X13.462 Y14.904
X13.46 Y14.889
X13.457 Y14.874
Y14.872
X13.438 Y14.81
X13.214 Y14.124
X13.217 Y14.122
X13.95 Y14.319
X13.966 Y14.323
X13.981 Y14.326
X13.997 Y14.328
X14.012 Y14.329
X14.027
X14.043
X14.058 Y14.328
X14.06
G3 X14.104 Y14.341 I0.006 J0.06
G2 X14.184 Y14.337 I0.038 J-0.046
G1 X14.337 Y14.185
G2 X14.341 Y14.105 I-0.042 J-0.042
G3 X14.328 Y14.061 I0.046 J-0.038
G1 Y14.059
Y14.055
X14.329 Y14.039
Y14.024
Y14.009
X14.328 Y13.995
X14.326 Y13.982
X14.323 Y13.969
X14.32 Y13.956
X14.318 Y13.947
X14.122 Y13.216
X14.125 Y13.215
X14.814 Y13.439
X14.86 Y13.454
X14.875 Y13.457
X14.891 Y13.46
X14.906 Y13.463
X14.922 Y13.464
X14.937
X14.952
X14.968 Y13.463
X14.983 Y13.462
X14.999 Y13.459
X15.021 Y13.454
X15.041 Y13.447
X15.046 Y13.446
X15.048 Y13.445
G3 X15.094 Y13.446 I0.021 J0.056
G2 X15.167 Y13.428 I0.025 J-0.055
G1 X15.255 Y13.312
G2 X15.253 Y13.237 I-0.048 J-0.036
G3 X15.239 Y13.193 I0.046 J-0.038
G1 X15.24 Y13.191
X15.241 Y13.176
Y13.161
X15.24 Y13.145
X15.239 Y13.13
X15.237 Y13.114
X15.23 Y13.083
X15.076 Y12.357
X15.078 Y12.356
X15.739 Y12.609
X15.8 Y12.633
X15.816 Y12.637
X15.831 Y12.641
X15.847 Y12.644
X15.862 Y12.647
X15.877 Y12.648
X15.893
X15.901
X15.903
G3 X15.945 Y12.665 I0.001 J0.06
G2 X16.028 Y12.666 I0.042 J-0.043
G1 X16.204 Y12.502
G2 X16.209 Y12.42 I-0.041 J-0.044
G3 X16.195 Y12.376 I0.046 J-0.038
G1 Y12.374
X16.196 Y12.359
Y12.343
Y12.328
X16.194 Y12.313
X16.189 Y12.282
X16.074 Y11.55
X16.076 Y11.548
X16.754 Y11.85
X16.787 Y11.864
X16.803 Y11.87
X16.818 Y11.874
X16.833 Y11.878
X16.849 Y11.88
X16.857 Y11.881
G3 X16.896 Y11.904 I-0.008 J0.059
G2 X16.981 Y11.915 I0.048 J-0.036
G1 X17.196 Y11.744
G2 X17.205 Y11.659 I-0.037 J-0.047
G3 X17.192 Y11.615 I0.046 J-0.038
G1 Y11.611
X17.193 Y11.603
Y11.588
Y11.572
X17.19 Y11.542
X17.112 Y10.795
X17.113 Y10.793
X17.774 Y11.13
X17.805 Y11.145
X17.82 Y11.152
X17.836 Y11.157
X17.851 Y11.162
X17.853
G3 X17.889 Y11.19 I-0.015 J0.058
G2 X17.973 Y11.211 I0.052 J-0.03
G1 X18.214 Y11.062
G2 X18.232 Y10.978 I-0.032 J-0.051
G3 X18.222 Y10.933 I0.05 J-0.034
G1 X18.224 Y10.925
X18.226 Y10.909
X18.228 Y10.894
X18.229 Y10.879
Y10.863
X18.225 Y10.801
X18.188 Y10.097
X18.191 Y10.095
X18.822 Y10.459
X18.853 Y10.477
X18.869 Y10.485
X18.884 Y10.492
X18.887 Y10.493
X18.901 Y10.499
X18.909 Y10.501
G3 X18.943 Y10.531 I-0.019 J0.057
G2 X19.024 Y10.558 I0.054 J-0.027
G1 X19.259 Y10.44
G2 X19.286 Y10.36 I-0.027 J-0.054
G3 X19.283 Y10.314 I0.054 J-0.026
G1 X19.284 Y10.312
X19.285 Y10.308
X19.29 Y10.293
X19.294 Y10.277
X19.296 Y10.262
X19.298 Y10.246
X19.3 Y10.231
Y10.216
Y9.455
X19.302 Y9.453
X19.932 Y9.862
X19.955 Y9.876
X19.975 Y9.886
X19.994 Y9.895
X20.002 Y9.898
X20.006 Y9.899
X20.008 Y9.9
G3 X20.042 Y9.93 I-0.02 J0.057
G2 X20.117 Y9.96 I0.054 J-0.026
G1 X20.323 Y9.882
G2 X20.359 Y9.81 I-0.021 J-0.056
G3 X20.365 Y9.764 I0.058 J-0.016
G1 X20.366 Y9.763
X20.368 Y9.759
X20.371 Y9.753
X20.378 Y9.738
X20.385 Y9.722
X20.39 Y9.707
X20.395 Y9.691
X20.398 Y9.676
X20.401 Y9.661
X20.403 Y9.645
X20.404 Y9.63
X20.444 Y8.871
X20.445 Y8.869
X21.043 Y9.303
X21.067 Y9.321
X21.086 Y9.333
X21.104 Y9.343
X21.12 Y9.35
X21.135 Y9.357
X21.143 Y9.359
X21.147 Y9.361
X21.148
G3 X21.184 Y9.391 I-0.018 J0.057
G2 X21.259 Y9.419 I0.053 J-0.028
G1 X21.468 Y9.335
G2 X21.502 Y9.259 I-0.023 J-0.056
G3 X21.504 Y9.213 I0.057 J-0.02
G1 X21.512 Y9.198
X21.518 Y9.183
X21.524 Y9.167
X21.528 Y9.152
X21.532 Y9.136
X21.536 Y9.113
X21.54 Y9.075
X21.616 Y8.349
X21.618 Y8.347
X22.211 Y8.828
X22.214 Y8.83
X22.23 Y8.842
X22.245 Y8.851
X22.261 Y8.86
X22.276 Y8.868
X22.291 Y8.874
X22.307 Y8.879
G3 X22.341 Y8.91 I-0.02 J0.057
G2 X22.418 Y8.94 I0.054 J-0.026
G1 X22.627 Y8.852
G2 X22.661 Y8.778 I-0.023 J-0.055
G3 X22.665 Y8.733 I0.057 J-0.018
G1 X22.666 Y8.731
X22.668 Y8.727
X22.672 Y8.72
X22.678 Y8.705
X22.684 Y8.689
X22.688 Y8.674
X22.692 Y8.658
X22.695 Y8.643
X22.754 Y8.273
X22.815 Y7.889
X22.816 Y7.887
X23.381 Y8.396
X23.386 Y8.4
X23.401 Y8.413
X23.417 Y8.424
X23.432 Y8.434
X23.448 Y8.442
X23.466 Y8.451
X23.485 Y8.458
X23.491 Y8.46
G3 X23.525 Y8.49 I-0.019 J0.057
G2 X23.6 Y8.52 I0.054 J-0.027
G1 X23.796 Y8.447
G2 X23.833 Y8.376 I-0.021 J-0.056
G3 X23.84 Y8.331 I0.058 J-0.015
G1 X23.842 Y8.327
X23.847 Y8.319
X23.854 Y8.304
X23.861 Y8.288
X23.867 Y8.273
X23.874 Y8.249
X23.879 Y8.226
X24.035 Y7.492
X24.037 Y7.49
X24.572 Y8.026
X24.584 Y8.038
X24.596 Y8.048
X24.608 Y8.057
X24.619 Y8.066
X24.639 Y8.078
X24.648 Y8.083
X24.653 Y8.085
X24.655 Y8.087
G3 X24.685 Y8.121 I-0.027 J0.054
G2 X24.762 Y8.159 I0.057 J-0.019
G1 X25.021 Y8.069
G2 X25.058 Y7.992 I-0.02 J-0.057
G3 X25.06 Y7.946 I0.056 J-0.02
G1 X25.061 Y7.944
X25.062 Y7.94
X25.066 Y7.933
X25.071 Y7.918
X25.076 Y7.903
X25.093 Y7.841
X25.275 Y7.159
X25.276 Y7.158
X25.78 Y7.718
X25.791 Y7.73
X25.806 Y7.745
X25.822 Y7.758
X25.837 Y7.769
X25.841 Y7.772
X25.843 Y7.773
G3 X25.868 Y7.812 I-0.034 J0.05
G2 X25.939 Y7.859 I0.059 J-0.011
G1 X26.216 Y7.799
G2 X26.261 Y7.725 I-0.013 J-0.059
G3 X26.267 Y7.679 I0.058 J-0.015
G1 X26.272 Y7.671
X26.28 Y7.656
X26.285 Y7.646
X26.29 Y7.633
X26.295 Y7.62
X26.303 Y7.594
X26.531 Y6.891
X26.533 Y6.892
X27.002 Y7.471
X27.025 Y7.498
X27.034 Y7.508
X27.043 Y7.517
X27.053 Y7.525
X27.057 Y7.529
G3 X27.079 Y7.57 I-0.038 J0.046
G2 X27.145 Y7.623 I0.06 J-0.006
G1 X27.417 Y7.593
G2 X27.47 Y7.525 I-0.007 J-0.06
G3 X27.482 Y7.481 I0.059 J-0.008
G1 X27.489 Y7.471
X27.497 Y7.459
X27.505 Y7.446
X27.512 Y7.434
X27.518 Y7.421
X27.523 Y7.409
X27.547 Y7.348
X27.799 Y6.69
X27.801 Y6.692
X28.233 Y7.286
X28.258 Y7.32
X28.27 Y7.334
X28.283 Y7.348
X28.292 Y7.356
X28.297 Y7.36
X28.299 Y7.362
G3 X28.32 Y7.403 I-0.039 J0.046
G2 X28.382 Y7.458 I0.06 J-0.005
G1 X28.624 Y7.451
G2 X28.682 Y7.39 I-0.002 J-0.06
G3 X28.699 Y7.348 I0.06 J-0.001
G1 X28.714 Y7.332
X28.727 Y7.317
X28.739 Y7.301
X28.748 Y7.286
X28.751 Y7.281
X28.759 Y7.267
X28.766 Y7.253
X29.076 Y6.557
X29.077
X29.492 Y7.195
X29.502 Y7.21
X29.513 Y7.224
X29.523 Y7.235
X29.533 Y7.246
X29.543 Y7.256
X29.553 Y7.264
X29.557 Y7.267
X29.559 Y7.269
G3 X29.581 Y7.309 I-0.037 J0.047
G2 X29.633 Y7.362 I0.06 J-0.007
G1 X29.769 Y7.379
G2 X29.833 Y7.341 I0.008 J-0.06
G3 X29.864 Y7.308 I0.056 J0.022
G1 X29.867 Y7.306
X29.872 Y7.304
X29.883 Y7.299
X29.905 Y7.286
X29.923 Y7.273
X29.936 Y7.263
X29.949 Y7.252
X29.963 Y7.238
X29.975 Y7.224
X29.985 Y7.212
X29.994 Y7.199
X30.001 Y7.187
X30.015 Y7.163
X30.357 Y6.49
X30.358 Y6.489
X30.725 Y7.124
X30.748 Y7.163
X30.756 Y7.175
X30.765 Y7.187
X30.775 Y7.199
X30.787 Y7.211
X30.801 Y7.224
X30.807 Y7.229
X30.808 Y7.231
G3 X30.83 Y7.271 I-0.038 J0.046
G2 X30.889 Y7.326 I0.06 J-0.005
G1 X31.112
G2 X31.171 Y7.271 I0. J-0.06
G3 X31.193 Y7.23 I0.06 J0.005
G1 X31.194 Y7.229
X31.199 Y7.224
X31.209 Y7.215
X31.218 Y7.206
X31.228 Y7.195
X31.237 Y7.184
X31.245 Y7.173
X31.252 Y7.163
X31.28 Y7.115
X31.641 Y6.49
X31.643
X31.985 Y7.163
X32.001 Y7.19
X32.01 Y7.204
X32.02 Y7.218
X32.025 Y7.224
X32.038 Y7.239
X32.053 Y7.254
X32.068 Y7.266
X32.082 Y7.277
X32.095 Y7.286
X32.107 Y7.293
X32.119 Y7.3
X32.131 Y7.306
X32.134 Y7.307
X32.136 Y7.308
G3 X32.168 Y7.341 I-0.024 J0.055
G2 X32.231 Y7.379 I0.056 J-0.022
G1 X32.366 Y7.362
G2 X32.419 Y7.309 I-0.007 J-0.06
G3 X32.441 Y7.269 I0.06 J0.007
G1 X32.443 Y7.267
X32.452 Y7.26
X32.461 Y7.252
X32.471 Y7.242
X32.487 Y7.224
X32.501 Y7.206
X32.513 Y7.187
X32.923 Y6.557
X32.925 Y6.558
X33.222 Y7.224
X33.235 Y7.255
X33.243 Y7.271
X33.252 Y7.286
X33.254 Y7.289
X33.263 Y7.304
X33.274 Y7.318
X33.287 Y7.333
X33.301 Y7.348
G3 X33.318 Y7.39 I-0.043 J0.042
G2 X33.376 Y7.451 I0.06 J0.001
G1 X33.619 Y7.46
G2 X33.681 Y7.403 I0.002 J-0.06
G3 X33.701 Y7.362 I0.06 J0.003
G1 X33.717 Y7.348
X33.733 Y7.331
X33.747 Y7.314
X33.767 Y7.286
X34.199 Y6.692
X34.201 Y6.69
X34.453 Y7.348
X34.477 Y7.409
X34.487 Y7.431
X34.498 Y7.451
X34.511 Y7.471
X34.515 Y7.476
X34.517 Y7.479
X34.518 Y7.48
G3 X34.53 Y7.525 I-0.047 J0.037
G2 X34.583 Y7.592 I0.06 J0.007
G1 X34.853 Y7.623
G2 X34.92 Y7.57 I0.007 J-0.06
G3 X34.942 Y7.53 I0.06 J0.006
G1 X34.943 Y7.529
X34.949 Y7.524
X34.959 Y7.515
X34.97 Y7.504
X34.98 Y7.493
X34.998 Y7.471
X35.467 Y6.892
X35.47 Y6.894
X35.697 Y7.594
X35.707 Y7.625
X35.713 Y7.641
X35.72 Y7.656
X35.728 Y7.672
X35.733 Y7.679
G3 X35.739 Y7.725 I-0.052 J0.03
G2 X35.784 Y7.799 I0.058 J0.015
G1 X36.061 Y7.859
G2 X36.133 Y7.811 I0.013 J-0.059
G3 X36.158 Y7.773 I0.059 J0.011
G1 X36.16 Y7.772
X36.167 Y7.766
X36.183 Y7.754
X36.198 Y7.74
X36.214 Y7.724
X36.724 Y7.158
X36.725 Y7.159
X36.907 Y7.841
X36.924 Y7.903
X36.929 Y7.918
X36.935 Y7.934
X36.938 Y7.941
X36.94 Y7.945
X36.941 Y7.947
G3 X36.943 Y7.993 I-0.054 J0.026
G2 X36.98 Y8.07 I0.056 J0.02
G1 X37.237 Y8.159
G2 X37.313 Y8.122 I0.02 J-0.057
G3 X37.344 Y8.087 I0.057 J0.019
G1 X37.345 Y8.086
X37.348 Y8.085
X37.353 Y8.082
X37.364 Y8.076
X37.386 Y8.062
X37.396 Y8.054
X37.407 Y8.046
X37.428 Y8.026
X37.964 Y7.49
X37.965 Y7.492
X38.117 Y8.211
X38.126 Y8.248
X38.133 Y8.273
X38.139 Y8.288
X38.146 Y8.304
X38.153 Y8.319
X38.158 Y8.327
X38.16 Y8.331
G3 X38.167 Y8.376 I-0.051 J0.031
G2 X38.204 Y8.447 I0.058 J0.015
G1 X38.399 Y8.519
G2 X38.473 Y8.49 I0.021 J-0.056
G3 X38.508 Y8.46 I0.053 J0.027
G1 X38.51
X38.515 Y8.458
X38.536 Y8.45
X38.557 Y8.44
X38.573 Y8.431
X38.588 Y8.421
X38.603 Y8.409
X38.619 Y8.396
X39.183 Y7.888
X39.185 Y7.889
X39.297 Y8.596
X39.305 Y8.643
X39.308 Y8.658
X39.312 Y8.674
X39.316 Y8.689
X39.322 Y8.705
X39.329 Y8.72
X39.332 Y8.728
X39.334 Y8.732
X39.335 Y8.733
G3 X39.339 Y8.779 I-0.053 J0.028
G2 X39.374 Y8.853 I0.057 J0.018
G1 X39.581 Y8.938
G2 X39.657 Y8.91 I0.023 J-0.056
G3 X39.692 Y8.88 I0.053 J0.027
G1 X39.694 Y8.879
X39.698 Y8.878
X39.714 Y8.872
X39.729 Y8.865
X39.744 Y8.858
X39.759 Y8.849
X39.774 Y8.839
X39.789 Y8.828
X40.382 Y8.347
X40.384 Y8.349
X40.463 Y9.105
X40.465 Y9.121
X40.468 Y9.136
X40.469 Y9.141
X40.473 Y9.155
X40.477 Y9.17
X40.482 Y9.184
X40.488 Y9.198
X40.496 Y9.213
G3 X40.498 Y9.259 I-0.054 J0.026
G2 X40.532 Y9.335 I0.057 J0.02
G1 X40.742 Y9.419
G2 X40.818 Y9.391 I0.022 J-0.056
G3 X40.853 Y9.361 I0.053 J0.027
G1 X40.855 Y9.36
X40.87 Y9.355
X40.885 Y9.348
X40.901 Y9.341
X40.917 Y9.332
X40.933 Y9.321
X40.962 Y9.3
X41.555 Y8.869
X41.556 Y8.871
X41.596 Y9.63
X41.597 Y9.645
X41.599 Y9.661
X41.602 Y9.676
X41.605 Y9.691
X41.61 Y9.707
X41.615 Y9.722
X41.622 Y9.738
X41.629 Y9.753
X41.635 Y9.764
Y9.765
G3 X41.641 Y9.81 I-0.052 J0.03
G2 X41.677 Y9.882 I0.058 J0.016
G1 X41.88 Y9.96
G2 X41.955 Y9.931 I0.022 J-0.056
G3 X41.99 Y9.901 I0.054 J0.027
G1 X41.992 Y9.9
X41.995 Y9.899
X42.011 Y9.893
X42.028 Y9.885
X42.045 Y9.876
X42.073 Y9.859
X42.699 Y9.452
X42.7 Y9.455
Y10.216
Y10.231
X42.702 Y10.246
X42.704 Y10.262
X42.706 Y10.277
X42.71 Y10.293
X42.715 Y10.308
X42.716 Y10.312
X42.717 Y10.314
G3 X42.714 Y10.36 I-0.057 J0.02
G2 X42.741 Y10.44 I0.054 J0.026
G1 X42.976 Y10.557
G2 X43.056 Y10.531 I0.027 J-0.054
G3 X43.091 Y10.501 I0.053 J0.027
G1 X43.093
X43.1 Y10.498
X43.113 Y10.493
X43.121 Y10.49
X43.136 Y10.483
X43.152 Y10.474
X43.81 Y10.094
X43.812 Y10.096
X43.775 Y10.801
X43.771 Y10.863
Y10.879
X43.772 Y10.894
X43.774 Y10.909
X43.776 Y10.925
X43.778 Y10.933
Y10.934
G3 X43.769 Y10.98 I-0.059 J0.012
G2 X43.788 Y11.063 I0.05 J0.033
G1 X44.026 Y11.212
G2 X44.11 Y11.19 I0.032 J-0.051
G3 X44.146 Y11.162 I0.052 J0.03
G1 X44.154 Y11.16
X44.169 Y11.155
X44.185 Y11.15
X44.2 Y11.143
X44.231 Y11.127
X44.887 Y10.793
X44.888 Y10.795
X44.81 Y11.542
X44.807 Y11.572
Y11.588
Y11.603
X44.808 Y11.611
Y11.615
G3 X44.795 Y11.659 I-0.06 J0.006
G2 X44.804 Y11.744 I0.046 J0.038
G1 X45.018 Y11.914
G2 X45.103 Y11.904 I0.037 J-0.047
G3 X45.143 Y11.881 I0.047 J0.037
G1 X45.145
X45.148
X45.156 Y11.88
X45.172 Y11.877
X45.187 Y11.873
X45.202 Y11.868
X45.218 Y11.862
X45.246 Y11.85
X45.925 Y11.548
X45.926 Y11.55
X45.811 Y12.282
X45.806 Y12.313
X45.804 Y12.328
Y12.343
Y12.359
X45.805 Y12.374
G3 X45.79 Y12.418 I-0.06 J0.004
G2 X45.794 Y12.502 I0.045 J0.04
G1 X45.973 Y12.667
G2 X46.056 Y12.665 I0.041 J-0.044
G3 X46.099 Y12.648 I0.042 J0.043
G1 X46.1
X46.104
X46.112
X46.127
X46.143 Y12.646
X46.158 Y12.643
X46.174 Y12.64
X46.189 Y12.636
X46.205 Y12.631
X46.266 Y12.607
X46.921 Y12.356
X46.924 Y12.358
X46.77 Y13.083
X46.763 Y13.114
X46.761 Y13.13
X46.76 Y13.145
Y13.148
X46.759 Y13.165
X46.76 Y13.181
Y13.188
Y13.191
Y13.193
G3 X46.747 Y13.236 I-0.06 J0.005
G2 X46.745 Y13.311 I0.046 J0.038
G1 X46.834 Y13.429
G2 X46.907 Y13.447 I0.048 J-0.036
G3 X46.953 Y13.445 I0.026 J0.054
G1 X46.962 Y13.448
X46.979 Y13.454
X46.992 Y13.457
X47.006 Y13.46
X47.022 Y13.462
X47.037 Y13.464
X47.053
X47.068
X47.083
X47.099 Y13.462
X47.114 Y13.459
X47.13 Y13.456
X47.14 Y13.454
X47.191 Y13.437
X47.877 Y13.214
X47.878 Y13.216
X47.682 Y13.947
X47.678 Y13.962
X47.675 Y13.978
X47.673 Y13.993
X47.671 Y14.009
Y14.024
Y14.039
X47.672 Y14.055
Y14.059
Y14.061
G3 X47.659 Y14.105 I-0.06 J0.006
G2 X47.663 Y14.185 I0.046 J0.038
G1 X47.814 Y14.337
G2 X47.895 Y14.341 I0.043 J-0.042
G3 X47.939 Y14.328 I0.038 J0.046
G1 X47.947
X47.962 Y14.329
X47.978
X47.993
X48.008 Y14.327
X48.024 Y14.325
X48.055 Y14.317
X48.783 Y14.122
X48.786 Y14.124
X48.562 Y14.81
X48.548 Y14.855
X48.543 Y14.872
X48.54 Y14.887
X48.538 Y14.903
X48.536 Y14.918
Y14.934
Y14.949
Y14.965
X48.538 Y14.98
X48.54 Y14.995
X48.544 Y15.011
X48.548 Y15.027
X48.553 Y15.042
X48.556 Y15.05
G3 X48.554 Y15.095 I-0.056 J0.021
G2 X48.573 Y15.168 I0.055 J0.025
G1 X48.688 Y15.255
G2 X48.762 Y15.253 I0.036 J-0.048
G3 X48.806 Y15.239 I0.038 J0.046
G1 X48.81 Y15.24
X48.826 Y15.241
X48.841
X48.856 Y15.24
X48.872 Y15.239
X48.887 Y15.236
X48.918 Y15.23
X49.643 Y15.076
X49.644 Y15.078
X49.392 Y15.735
X49.368 Y15.797
X49.363 Y15.813
X49.359 Y15.828
X49.356 Y15.843
X49.354 Y15.859
X49.352 Y15.874
Y15.89
Y15.897
Y15.901
G3 X49.334 Y15.944 I-0.06 J0.001
G2 X49.333 Y16.027 I0.043 J0.042
G1 X49.499 Y16.204
G2 X49.582 Y16.209 I0.044 J-0.041
G3 X49.625 Y16.195 I0.039 J0.046
G1 X49.627
X49.643 Y16.196
X49.658
X49.674 Y16.195
X49.689 Y16.194
X49.72 Y16.189
X50.45 Y16.074
X50.452 Y16.075
X50.152 Y16.75
X50.137 Y16.784
X50.131 Y16.799
X50.127 Y16.815
X50.123 Y16.83
X50.12 Y16.846
X50.119 Y16.853
Y16.857
G3 X50.096 Y16.897 I-0.06 J-0.008
G2 X50.086 Y16.982 I0.037 J0.047
G1 X50.258 Y17.197
G2 X50.343 Y17.205 I0.047 J-0.038
G3 X50.387 Y17.192 I0.038 J0.046
G1 X50.391
X50.398 Y17.193
X50.414
X50.429
X50.46 Y17.19
X51.205 Y17.112
X51.206 Y17.114
X50.872 Y17.771
X50.856 Y17.802
X50.85 Y17.817
X50.844 Y17.832
X50.839 Y17.848
X50.838 Y17.852
Y17.854
G3 X50.81 Y17.89 I-0.058 J-0.015
G2 X50.789 Y17.974 I0.03 J0.052
G1 X50.938 Y18.213
G2 X51.022 Y18.231 I0.051 J-0.032
G3 X51.067 Y18.222 I0.033 J0.05
G1 X51.069 Y18.223
X51.077 Y18.224
X51.092 Y18.226
X51.107 Y18.228
X51.123 Y18.229
X51.138 Y18.228
X51.2 Y18.225
X51.904 Y18.188
X51.906 Y18.19
X51.525 Y18.85
X51.516 Y18.865
X51.509 Y18.881
X51.508 Y18.883
X51.503 Y18.898
X51.5 Y18.905
X51.499 Y18.907
G3 X51.469 Y18.942 I-0.057 J-0.019
G2 X51.443 Y19.022 I0.027 J0.054
G1 X51.559 Y19.259
G2 X51.64 Y19.286 I0.054 J-0.026
G3 X51.686 Y19.283 I0.027 J0.054
G1 X51.693 Y19.286
X51.709 Y19.29
X51.724 Y19.294
X51.74 Y19.297
X51.755 Y19.299
X51.77 Y19.3
X51.786
X52.546
X52.548 Y19.302
X52.14 Y19.929
X52.125 Y19.953
X52.115 Y19.972
X52.106 Y19.991
X52.101 Y20.006
X52.1 Y20.008
G3 X52.07 Y20.043 I-0.057 J-0.019
G2 X52.04 Y20.118 I0.026 J0.054
G1 X52.118 Y20.324
G2 X52.191 Y20.36 I0.056 J-0.021
G3 X52.236 Y20.365 I0.016 J0.058
G1 X52.239 Y20.367
X52.248 Y20.372
X52.264 Y20.379
X52.279 Y20.385
X52.295 Y20.391
X52.31 Y20.395
X52.325 Y20.398
X52.341 Y20.401
X52.356 Y20.403
X52.372 Y20.404
X53.129 Y20.444
X53.131 Y20.445
X52.699 Y21.04
X52.68 Y21.065
X52.668 Y21.083
X52.658 Y21.101
X52.651 Y21.117
X52.645 Y21.132
X52.639 Y21.147
G3 X52.609 Y21.182 I-0.057 J-0.02
G2 X52.579 Y21.259 I0.026 J0.054
G1 X52.667 Y21.469
G2 X52.742 Y21.503 I0.055 J-0.023
G3 X52.788 Y21.505 I0.02 J0.057
G1 X52.803 Y21.513
X52.819 Y21.519
X52.834 Y21.524
X52.85 Y21.529
X52.865 Y21.532
X52.868 Y21.533
X52.927 Y21.54
X53.651 Y21.616
X53.653 Y21.618
X53.172 Y22.211
X53.16 Y22.227
X53.15 Y22.242
X53.141 Y22.258
X53.134 Y22.273
X53.127 Y22.288
X53.121 Y22.304
X53.12 Y22.308
G3 X53.09 Y22.343 I-0.057 J-0.019
G2 X53.062 Y22.418 I0.027 J0.054
G1 X53.145 Y22.627
G2 X53.22 Y22.662 I0.056 J-0.022
G3 X53.266 Y22.665 I0.019 J0.057
G1 X53.281 Y22.672
X53.297 Y22.679
X53.312 Y22.684
X53.328 Y22.689
X53.343 Y22.693
X53.358 Y22.695
X54.11 Y22.814
X54.112 Y22.817
X53.602 Y23.383
X53.589 Y23.399
X53.578 Y23.414
X53.568 Y23.429
X53.559 Y23.445
X53.551 Y23.463
X53.544 Y23.481
X53.539 Y23.494
G3 X53.509 Y23.528 I-0.057 J-0.019
G2 X53.479 Y23.603 I0.027 J0.054
G1 X53.553 Y23.796
G2 X53.623 Y23.833 I0.056 J-0.021
G3 X53.669 Y23.839 I0.014 J0.058
G1 X53.671 Y23.841
X53.675 Y23.843
X53.682 Y23.847
X53.698 Y23.855
X53.713 Y23.862
X53.729 Y23.868
X53.745 Y23.873
X53.761 Y23.877
X53.79 Y23.883
X54.508 Y24.035
X54.51 Y24.036
X53.975 Y24.571
X53.954 Y24.594
X53.945 Y24.605
X53.936 Y24.617
X53.924 Y24.636
X53.914 Y24.655
X53.913 Y24.656
G3 X53.878 Y24.687 I-0.054 J-0.027
G2 X53.841 Y24.763 I0.019 J0.057
G1 X53.931 Y25.021
G2 X54.008 Y25.058 I0.057 J-0.02
G3 X54.054 Y25.06 I0.02 J0.056
G1 X54.056 Y25.061
X54.06 Y25.062
X54.068 Y25.066
X54.083 Y25.072
X54.099 Y25.076
X54.16 Y25.093
X54.84 Y25.275
X54.841 Y25.277
X54.284 Y25.779
X54.273 Y25.788
X54.258 Y25.804
X54.244 Y25.819
X54.232 Y25.835
X54.227 Y25.842
G3 X54.188 Y25.867 I-0.049 J-0.034
G2 X54.14 Y25.939 I0.01 J0.059
G1 X54.202 Y26.215
G2 X54.275 Y26.26 I0.059 J-0.013
G3 X54.32 Y26.267 I0.015 J0.058
G1 X54.322 Y26.268
X54.33 Y26.272
X54.345 Y26.28
X54.348 Y26.282
X54.363 Y26.288
X54.378 Y26.294
X54.407 Y26.303
X55.108 Y26.531
X55.109 Y26.532
X54.53 Y27.001
X54.505 Y27.022
X54.495 Y27.031
X54.485 Y27.041
X54.476 Y27.051
X54.472 Y27.055
X54.47 Y27.058
G3 X54.43 Y27.08 I-0.047 J-0.038
G2 X54.377 Y27.146 I0.006 J0.06
G1 X54.407 Y27.418
G2 X54.475 Y27.471 I0.06 J-0.007
G3 X54.52 Y27.482 I0.009 J0.059
G1 X54.53 Y27.49
X54.552 Y27.504
X54.573 Y27.515
X54.592 Y27.524
X54.654 Y27.547
X55.309 Y27.799
Y27.8
X54.715 Y28.232
X54.683 Y28.255
X54.668 Y28.268
X54.654 Y28.282
X54.638 Y28.3
G3 X54.596 Y28.319 I-0.045 J-0.04
G2 X54.54 Y28.382 I0.003 J0.06
G1 X54.551 Y28.623
G2 X54.61 Y28.681 I0.06 J-0.003
G3 X54.652 Y28.699 I-0.001 J0.06
G1 X54.654 Y28.701
X54.669 Y28.715
X54.684 Y28.728
X54.699 Y28.739
X54.715 Y28.749
X54.731 Y28.758
X54.746 Y28.765
X55.444 Y29.076
X55.443 Y29.077
X54.809 Y29.489
X54.793 Y29.5
X54.777 Y29.512
X54.767 Y29.52
X54.757 Y29.53
X54.747 Y29.54
X54.738 Y29.551
X54.732 Y29.558
G3 X54.691 Y29.58 I-0.047 J-0.038
G2 X54.638 Y29.632 I0.006 J0.06
G1 X54.621 Y29.77
G2 X54.659 Y29.834 I0.06 J0.007
G3 X54.693 Y29.865 I-0.021 J0.056
G1 X54.695 Y29.871
X54.701 Y29.883
X54.708 Y29.895
X54.715 Y29.907
X54.725 Y29.921
X54.735 Y29.935
X54.748 Y29.948
X54.762 Y29.963
X54.777 Y29.976
X54.785 Y29.982
X54.798 Y29.992
X54.812 Y30.001
X54.839 Y30.015
X55.509 Y30.357
X55.511 Y30.359
X54.881 Y30.722
X54.839 Y30.747
X54.827 Y30.755
X54.815 Y30.764
X54.803 Y30.773
X54.792 Y30.784
X54.777 Y30.799
X54.772 Y30.805
X54.769 Y30.808
G3 X54.729 Y30.829 I-0.046 J-0.039
G2 X54.674 Y30.889 I0.005 J0.06
G1 Y31.111
G2 X54.729 Y31.171 I0.06 J0.
G3 X54.769 Y31.192 I-0.005 J0.06
G1 X54.772 Y31.195
X54.777 Y31.201
X54.792 Y31.216
X54.803 Y31.227
X54.815 Y31.236
X54.827 Y31.245
X54.839 Y31.253
X54.881 Y31.278
X55.511 Y31.641
X55.509 Y31.643
X54.839 Y31.985
X54.812 Y31.999
X54.798 Y32.008
X54.785 Y32.018
X54.777 Y32.024
X54.762 Y32.037
X54.748 Y32.052
X54.735 Y32.065
X54.725 Y32.079
X54.715 Y32.093
X54.708 Y32.105
X54.701 Y32.117
X54.695 Y32.129
X54.693 Y32.135
G3 X54.659 Y32.166 I-0.055 J-0.025
G2 X54.621 Y32.23 I0.021 J0.056
G1 X54.638 Y32.368
G2 X54.691 Y32.42 I0.06 J-0.007
G3 X54.732 Y32.442 I-0.006 J0.06
G1 X54.738 Y32.449
X54.747 Y32.46
X54.757 Y32.471
X54.767 Y32.48
X54.777 Y32.488
X54.793 Y32.5
X54.809 Y32.511
X55.443 Y32.923
X55.444 Y32.924
X54.746 Y33.235
X54.731 Y33.242
X54.715 Y33.251
X54.699 Y33.261
X54.684 Y33.272
X54.669 Y33.285
X54.654 Y33.299
G3 X54.611 Y33.316 I-0.041 J-0.043
G2 X54.55 Y33.374 I-0.001 J0.06
G1 X54.54 Y33.618
G2 X54.596 Y33.681 I0.06 J0.002
G3 X54.638 Y33.7 I-0.003 J0.06
G1 X54.654 Y33.718
X54.668 Y33.732
X54.683 Y33.745
X54.715 Y33.768
X55.309 Y34.2
Y34.201
X54.654 Y34.453
X54.592 Y34.476
X54.573 Y34.485
X54.552 Y34.496
X54.53 Y34.51
X54.52 Y34.518
G3 X54.475 Y34.529 I-0.036 J-0.048
G2 X54.407 Y34.582 I-0.009 J0.059
G1 X54.377 Y34.854
G2 X54.43 Y34.92 I0.06 J0.007
G3 X54.47 Y34.942 I-0.006 J0.06
G1 X54.472 Y34.945
X54.476 Y34.949
X54.485 Y34.959
X54.495 Y34.969
X54.505 Y34.978
X54.53 Y34.999
X55.109 Y35.468
X55.108 Y35.469
X54.407 Y35.697
X54.378 Y35.706
X54.363 Y35.712
X54.348 Y35.718
X54.345 Y35.72
X54.33 Y35.728
X54.322 Y35.732
X54.32 Y35.733
G3 X54.275 Y35.74 I-0.031 J-0.051
G2 X54.202 Y35.785 I-0.015 J0.058
G1 X54.14 Y36.061
G2 X54.188 Y36.133 I0.059 J0.013
G3 X54.227 Y36.158 I-0.01 J0.059
G1 X54.232 Y36.165
X54.244 Y36.181
X54.258 Y36.196
X54.273 Y36.212
X54.284 Y36.221
X54.841 Y36.723
X54.84 Y36.725
X54.16 Y36.907
X54.099 Y36.924
X54.083 Y36.928
X54.068 Y36.934
X54.06 Y36.938
X54.056 Y36.939
X54.054 Y36.94
G3 X54.008 Y36.942 I-0.025 J-0.054
G2 X53.931 Y36.979 I-0.02 J0.056
G1 X53.841 Y37.237
G2 X53.878 Y37.313 I0.057 J0.02
G3 X53.913 Y37.344 I-0.019 J0.057
G1 X53.914 Y37.345
X53.924 Y37.364
X53.936 Y37.383
X53.945 Y37.395
X53.954 Y37.406
X53.975 Y37.429
X54.51 Y37.964
X54.508 Y37.965
X53.79 Y38.117
X53.761 Y38.123
X53.745 Y38.127
X53.729 Y38.132
X53.713 Y38.138
X53.698 Y38.145
X53.682 Y38.153
X53.675 Y38.157
X53.671 Y38.159
X53.669 Y38.161
G3 X53.623 Y38.167 I-0.031 J-0.051
G2 X53.553 Y38.205 I-0.014 J0.058
G1 X53.481 Y38.4
G2 X53.51 Y38.475 I0.056 J0.021
G3 X53.54 Y38.51 I-0.027 J0.054
G1 X53.541 Y38.513
X53.544 Y38.519
X53.551 Y38.537
X53.559 Y38.555
X53.568 Y38.571
X53.578 Y38.586
X53.589 Y38.601
X53.602 Y38.617
X54.112 Y39.183
X54.11 Y39.186
X53.358 Y39.305
X53.343 Y39.307
X53.328 Y39.311
X53.312 Y39.316
X53.297 Y39.321
X53.281 Y39.328
X53.266 Y39.335
G3 X53.22 Y39.338 I-0.026 J-0.054
G2 X53.145 Y39.373 I-0.019 J0.057
G1 X53.062 Y39.582
G2 X53.09 Y39.657 I0.056 J0.022
G3 X53.12 Y39.692 I-0.027 J0.054
G1 X53.121 Y39.696
X53.127 Y39.712
X53.134 Y39.727
X53.141 Y39.742
X53.15 Y39.758
X53.16 Y39.773
X53.172 Y39.789
X53.653 Y40.382
X53.651 Y40.384
X52.927 Y40.46
X52.868 Y40.467
X52.865 Y40.468
X52.85 Y40.471
X52.834 Y40.476
X52.819 Y40.481
X52.803 Y40.487
X52.788 Y40.495
G3 X52.742 Y40.497 I-0.026 J-0.054
G2 X52.667 Y40.531 I-0.02 J0.057
G1 X52.581 Y40.737
G2 X52.609 Y40.813 I0.055 J0.023
G3 X52.638 Y40.849 I-0.028 J0.053
G1 X52.639 Y40.853
X52.645 Y40.868
X52.651 Y40.883
X52.658 Y40.899
X52.668 Y40.917
X52.68 Y40.935
X52.699 Y40.961
X53.131 Y41.555
X53.129 Y41.556
X52.372 Y41.596
X52.356 Y41.597
X52.341 Y41.599
X52.325 Y41.602
X52.31 Y41.605
X52.295 Y41.609
X52.279 Y41.615
X52.264 Y41.621
X52.248 Y41.628
X52.239 Y41.633
X52.236 Y41.635
G3 X52.191 Y41.64 I-0.029 J-0.052
G2 X52.119 Y41.676 I-0.016 J0.058
G1 X52.04 Y41.878
G2 X52.069 Y41.953 I0.056 J0.022
G3 X52.099 Y41.988 I-0.027 J0.053
G1 Y41.99
X52.101 Y41.994
X52.106 Y42.009
X52.115 Y42.028
X52.125 Y42.047
X52.14 Y42.071
X52.548 Y42.698
X52.546 Y42.7
X51.786
X51.77
X51.755 Y42.701
X51.74 Y42.703
X51.724 Y42.706
X51.709 Y42.71
X51.693 Y42.714
X51.689 Y42.715
X51.688 Y42.716
G3 X51.642 Y42.713 I-0.019 J-0.057
G2 X51.561 Y42.74 I-0.027 J0.054
G1 X51.443 Y42.978
G2 X51.469 Y43.058 I0.054 J0.027
G3 X51.499 Y43.093 I-0.027 J0.054
G1 X51.5 Y43.095
X51.503 Y43.102
X51.508 Y43.117
X51.509 Y43.119
X51.516 Y43.135
X51.525 Y43.15
X51.906 Y43.81
X51.904 Y43.812
X51.2 Y43.775
X51.138 Y43.772
X51.123 Y43.771
X51.107 Y43.772
X51.092 Y43.774
X51.077 Y43.776
X51.069 Y43.777
X51.067 Y43.778
G3 X51.022 Y43.769 I-0.012 J-0.059
G2 X50.938 Y43.787 I-0.033 J0.05
G1 X50.789 Y44.026
G2 X50.81 Y44.11 I0.051 J0.032
G3 X50.838 Y44.146 I-0.03 J0.052
G1 Y44.148
X50.839 Y44.152
X50.844 Y44.168
X50.85 Y44.183
X50.856 Y44.198
X50.872 Y44.229
X51.206 Y44.886
X51.205 Y44.888
X50.46 Y44.81
X50.429 Y44.807
X50.414
X50.398
X50.391 Y44.808
X50.387
G3 X50.343 Y44.795 I-0.006 J-0.06
G2 X50.258 Y44.803 I-0.038 J0.046
G1 X50.086 Y45.018
G2 X50.096 Y45.103 I0.047 J0.038
G3 X50.119 Y45.143 I-0.037 J0.047
G1 Y45.147
X50.12 Y45.154
X50.123 Y45.17
X50.127 Y45.185
X50.131 Y45.201
X50.137 Y45.216
X50.152 Y45.25
X50.452 Y45.925
X50.45 Y45.926
X49.72 Y45.811
X49.689 Y45.806
X49.674 Y45.805
X49.658 Y45.804
X49.643
X49.627 Y45.805
X49.625
G3 X49.582 Y45.791 I-0.005 J-0.06
G2 X49.499 Y45.796 I-0.039 J0.046
G1 X49.333 Y45.973
G2 X49.334 Y46.056 I0.044 J0.041
G3 X49.352 Y46.099 I-0.043 J0.042
G1 Y46.103
Y46.11
Y46.126
X49.354 Y46.141
X49.356 Y46.157
X49.359 Y46.172
X49.363 Y46.187
X49.368 Y46.203
X49.392 Y46.265
X49.644 Y46.922
X49.643 Y46.924
X48.918 Y46.77
X48.887 Y46.764
X48.872 Y46.761
X48.856 Y46.76
X48.841 Y46.759
X48.826
X48.81 Y46.76
X48.806 Y46.761
G3 X48.762 Y46.747 I-0.005 J-0.06
G2 X48.688 Y46.745 I-0.038 J0.046
G1 X48.573 Y46.832
G2 X48.554 Y46.905 I0.036 J0.048
G3 X48.556 Y46.95 I-0.055 J0.025
G1 X48.553 Y46.958
X48.548 Y46.973
X48.544 Y46.989
X48.54 Y47.005
X48.538 Y47.02
X48.536 Y47.035
Y47.051
Y47.066
Y47.082
X48.538 Y47.097
X48.54 Y47.113
X48.543 Y47.128
X48.548 Y47.145
X48.562 Y47.19
X48.786 Y47.876
X48.783 Y47.878
X48.055 Y47.683
X48.024 Y47.675
X48.008 Y47.673
X47.993 Y47.671
X47.978
X47.962
X47.947 Y47.672
X47.939
G3 X47.895 Y47.659 I-0.006 J-0.06
G2 X47.814 Y47.663 I-0.038 J0.046
G1 X47.663 Y47.815
G2 X47.659 Y47.895 I0.043 J0.042
G3 X47.672 Y47.939 I-0.046 J0.038
G1 Y47.941
Y47.945
X47.671 Y47.961
Y47.976
Y47.991
X47.673 Y48.007
X47.675 Y48.022
X47.678 Y48.038
X47.682 Y48.053
X47.878 Y48.784
X47.877 Y48.786
X47.191 Y48.563
X47.14 Y48.547
X47.13 Y48.544
X47.114 Y48.541
X47.099 Y48.538
X47.083 Y48.536
X47.068
X47.053
X47.037
X47.022 Y48.538
X47.006 Y48.54
X46.992 Y48.543
X46.979 Y48.547
X46.962 Y48.552
X46.953 Y48.555
X46.951 Y48.556
G3 X46.905 Y48.554 I-0.021 J-0.056
G2 X46.833 Y48.573 I-0.024 J0.055
G1 X46.745 Y48.689
G2 X46.747 Y48.764 I0.048 J0.036
G3 X46.76 Y48.807 I-0.046 J0.038
G1 Y48.809
Y48.812
Y48.819
X46.759 Y48.835
X46.76 Y48.852
Y48.855
X46.761 Y48.87
X46.763 Y48.886
X46.77 Y48.917
X46.924 Y49.642
X46.921 Y49.644
X46.266 Y49.393
X46.205 Y49.369
X46.189 Y49.364
X46.174 Y49.36
X46.158 Y49.357
X46.143 Y49.354
X46.127 Y49.352
X46.112
X46.104
X46.1
X46.099
G3 X46.056 Y49.335 I-0.001 J-0.06
G2 X45.973 Y49.334 I-0.042 J0.043
G1 X45.796 Y49.498
G2 X45.791 Y49.58 I0.041 J0.044
G3 X45.805 Y49.624 I-0.046 J0.038
G1 Y49.626
X45.804 Y49.641
Y49.657
Y49.672
X45.806 Y49.688
X45.811 Y49.718
X45.926 Y50.45
X45.925 Y50.452
X45.246 Y50.15
X45.218 Y50.138
X45.202 Y50.132
X45.187 Y50.127
X45.172 Y50.123
X45.156 Y50.12
X45.148 Y50.119
X45.145
X45.143
G3 X45.103 Y50.096 I0.007 J-0.06
G2 X45.018 Y50.086 I-0.047 J0.037
G1 X44.804 Y50.256
G2 X44.795 Y50.341 I0.037 J0.047
G3 X44.808 Y50.385 I-0.046 J0.038
G1 Y50.389
X44.807 Y50.397
Y50.412
Y50.428
X44.81 Y50.458
X44.888 Y51.205
X44.887 Y51.207
X44.231 Y50.873
X44.2 Y50.857
X44.185 Y50.85
X44.169 Y50.845
X44.154 Y50.84
X44.146 Y50.838
G3 X44.11 Y50.81 I0.016 J-0.058
G2 X44.026 Y50.788 I-0.052 J0.03
G1 X43.788 Y50.937
G2 X43.769 Y51.02 I0.032 J0.051
G3 X43.778 Y51.066 I-0.05 J0.033
G1 Y51.067
X43.776 Y51.075
X43.774 Y51.091
X43.772 Y51.106
X43.771 Y51.121
Y51.137
X43.775 Y51.199
X43.812 Y51.904
X43.81 Y51.906
X43.152 Y51.526
X43.136 Y51.517
X43.121 Y51.51
X43.113 Y51.507
X43.1 Y51.502
X43.093 Y51.499
X43.091
G3 X43.057 Y51.469 I0.018 J-0.057
G2 X42.976 Y51.443 I-0.053 J0.027
G1 X42.741 Y51.56
G2 X42.714 Y51.64 I0.027 J0.054
G3 X42.717 Y51.686 I-0.054 J0.026
G1 X42.716 Y51.688
X42.715 Y51.692
X42.71 Y51.707
X42.706 Y51.723
X42.704 Y51.738
X42.702 Y51.754
X42.7 Y51.769
Y51.784
Y52.545
X42.699 Y52.548
X42.073 Y52.141
X42.045 Y52.124
X42.028 Y52.115
X42.011 Y52.107
X41.995 Y52.101
X41.992 Y52.1
G3 X41.957 Y52.069 I0.02 J-0.057
G2 X41.882 Y52.04 I-0.054 J0.026
G1 X41.678 Y52.118
G2 X41.641 Y52.19 I0.021 J0.056
G3 X41.635 Y52.235 I-0.058 J0.016
G1 Y52.236
X41.629 Y52.247
X41.622 Y52.262
X41.615 Y52.278
X41.61 Y52.293
X41.605 Y52.309
X41.602 Y52.324
X41.599 Y52.34
X41.597 Y52.355
X41.596 Y52.37
X41.556 Y53.129
X41.555 Y53.131
X40.962 Y52.7
X40.933 Y52.679
X40.917 Y52.668
X40.901 Y52.659
X40.885 Y52.652
X40.87 Y52.645
X40.855 Y52.64
X40.853 Y52.639
G3 X40.818 Y52.609 I0.018 J-0.057
G2 X40.741 Y52.581 I-0.053 J0.027
G1 X40.532 Y52.669
G2 X40.498 Y52.743 I0.023 J0.055
G3 X40.495 Y52.789 I-0.057 J0.019
G1 X40.494 Y52.791
X40.492 Y52.794
X40.488 Y52.802
X40.482 Y52.816
X40.477 Y52.83
X40.473 Y52.845
X40.469 Y52.859
X40.468 Y52.864
X40.465 Y52.879
X40.463 Y52.895
X40.384 Y53.651
X40.382 Y53.653
X39.789 Y53.172
X39.774 Y53.161
X39.759 Y53.151
X39.744 Y53.142
X39.729 Y53.135
X39.714 Y53.128
X39.698 Y53.122
X39.694 Y53.121
X39.692 Y53.12
G3 X39.657 Y53.09 I0.019 J-0.057
G2 X39.581 Y53.062 I-0.053 J0.027
G1 X39.374 Y53.147
G2 X39.339 Y53.221 I0.023 J0.056
G3 X39.335 Y53.267 I-0.057 J0.018
G1 X39.334 Y53.268
X39.332 Y53.272
X39.329 Y53.28
X39.322 Y53.295
X39.316 Y53.311
X39.312 Y53.326
X39.308 Y53.342
X39.305 Y53.357
X39.256 Y53.666
X39.185 Y54.111
X39.183 Y54.112
X38.619 Y53.604
X38.603 Y53.591
X38.588 Y53.579
X38.573 Y53.569
X38.557 Y53.56
X38.536 Y53.55
X38.515 Y53.542
X38.51 Y53.54
X38.508
G3 X38.473 Y53.51 I0.019 J-0.057
G2 X38.399 Y53.481 I-0.053 J0.027
G1 X38.204 Y53.553
G2 X38.167 Y53.624 I0.021 J0.056
G3 X38.16 Y53.669 I-0.058 J0.015
G1 X38.158 Y53.673
X38.153 Y53.681
X38.146 Y53.696
X38.139 Y53.712
X38.133 Y53.727
X38.126 Y53.752
X38.117 Y53.789
X37.965 Y54.508
X37.964 Y54.51
X37.428 Y53.974
X37.407 Y53.954
X37.396 Y53.946
X37.386 Y53.938
X37.364 Y53.924
X37.353 Y53.918
X37.348 Y53.915
X37.345 Y53.914
X37.344 Y53.913
G3 X37.314 Y53.878 I0.027 J-0.054
G2 X37.237 Y53.841 I-0.057 J0.019
G1 X36.98 Y53.93
G2 X36.943 Y54.007 I0.02 J0.057
G3 X36.941 Y54.053 I-0.056 J0.02
G1 X36.94 Y54.055
X36.938 Y54.059
X36.935 Y54.066
X36.929 Y54.082
X36.924 Y54.097
X36.907 Y54.159
X36.725 Y54.841
X36.724 Y54.842
X36.214 Y54.276
X36.198 Y54.26
X36.183 Y54.246
X36.167 Y54.234
X36.16 Y54.228
X36.158 Y54.227
G3 X36.133 Y54.189 I0.034 J-0.05
G2 X36.061 Y54.141 I-0.059 J0.011
G1 X35.784 Y54.201
G2 X35.739 Y54.275 I0.013 J0.059
G3 X35.733 Y54.321 I-0.058 J0.015
G1 X35.728 Y54.328
X35.72 Y54.344
X35.713 Y54.359
X35.707 Y54.375
X35.697 Y54.406
X35.47 Y55.106
X35.467 Y55.108
X34.998 Y54.529
X34.98 Y54.507
X34.97 Y54.496
X34.959 Y54.485
X34.949 Y54.476
X34.943 Y54.471
X34.942 Y54.47
G3 X34.92 Y54.43 I0.038 J-0.047
G2 X34.853 Y54.377 I-0.06 J0.006
G1 X34.583 Y54.408
G2 X34.53 Y54.475 I0.007 J0.06
G3 X34.518 Y54.52 I-0.06 J0.007
G1 X34.517 Y54.521
X34.515 Y54.524
X34.511 Y54.529
X34.498 Y54.549
X34.487 Y54.569
X34.477 Y54.591
X34.453 Y54.652
X34.201 Y55.31
X34.199 Y55.308
X33.767 Y54.714
X33.747 Y54.686
X33.733 Y54.669
X33.717 Y54.652
X33.701 Y54.638
G3 X33.681 Y54.597 I0.04 J-0.045
G2 X33.619 Y54.54 I-0.06 J0.003
G1 X33.376 Y54.549
G2 X33.318 Y54.61 I0.002 J0.06
G3 X33.301 Y54.652 I-0.06 J0.001
G1 X33.287 Y54.667
X33.274 Y54.682
X33.263 Y54.696
X33.254 Y54.711
X33.252 Y54.714
X33.243 Y54.729
X33.235 Y54.745
X33.112 Y55.022
X32.925 Y55.442
X32.923 Y55.443
X32.513 Y54.813
X32.501 Y54.794
X32.487 Y54.776
X32.471 Y54.758
X32.461 Y54.748
X32.452 Y54.74
X32.443 Y54.733
X32.441 Y54.731
G3 X32.419 Y54.691 I0.037 J-0.047
G2 X32.366 Y54.638 I-0.06 J0.007
G1 X32.231 Y54.621
G2 X32.168 Y54.659 I-0.007 J0.06
G3 X32.136 Y54.692 I-0.056 J-0.022
G1 X32.134 Y54.693
X32.131 Y54.694
X32.119 Y54.7
X32.107 Y54.707
X32.095 Y54.714
X32.082 Y54.723
X32.068 Y54.734
X32.053 Y54.746
X32.038 Y54.761
X32.025 Y54.776
X32.02 Y54.782
X32.01 Y54.796
X32.001 Y54.81
X31.985 Y54.837
X31.643 Y55.51
X31.641
X31.28 Y54.885
X31.252 Y54.837
X31.245 Y54.827
X31.237 Y54.816
X31.228 Y54.805
X31.218 Y54.794
X31.209 Y54.785
X31.199 Y54.776
X31.194 Y54.771
X31.193 Y54.77
G3 X31.171 Y54.729 I0.039 J-0.046
G2 X31.112 Y54.674 I-0.06 J0.005
G1 X30.889
G2 X30.829 Y54.729 I0. J0.06
G3 X30.808 Y54.769 I-0.06 J-0.005
G1 X30.807 Y54.771
X30.801 Y54.776
X30.787 Y54.789
X30.775 Y54.801
X30.765 Y54.813
X30.756 Y54.825
X30.748 Y54.837
X30.725 Y54.876
X30.358 Y55.511
X30.357 Y55.51
X30.015 Y54.837
X30.001 Y54.813
X29.994 Y54.801
X29.985 Y54.788
X29.975 Y54.776
X29.963 Y54.762
X29.949 Y54.748
X29.936 Y54.737
X29.923 Y54.727
X29.905 Y54.714
X29.883 Y54.701
X29.872 Y54.696
X29.867 Y54.694
X29.864 Y54.692
G3 X29.833 Y54.659 I0.024 J-0.055
G2 X29.769 Y54.621 I-0.056 J0.022
G1 X29.633 Y54.638
G2 X29.581 Y54.691 I0.008 J0.06
G3 X29.559 Y54.731 I-0.06 J-0.007
G1 X29.557 Y54.733
X29.553 Y54.736
X29.543 Y54.744
X29.533 Y54.754
X29.523 Y54.765
X29.513 Y54.776
X29.502 Y54.79
X29.492 Y54.805
X29.077 Y55.443
X29.076
X28.766 Y54.747
X28.759 Y54.733
X28.751 Y54.719
X28.748 Y54.714
X28.739 Y54.699
X28.727 Y54.683
X28.714 Y54.668
X28.699 Y54.652
G3 X28.682 Y54.61 I0.043 J-0.042
G2 X28.624 Y54.549 I-0.06 J-0.001
G1 X28.382 Y54.542
G2 X28.32 Y54.597 I-0.002 J0.06
G3 X28.299 Y54.638 I-0.06 J-0.005
G1 X28.297 Y54.64
X28.292 Y54.644
X28.283 Y54.652
X28.27 Y54.666
X28.258 Y54.68
X28.233 Y54.714
X27.801 Y55.308
X27.799 Y55.31
X27.547 Y54.652
X27.523 Y54.591
X27.518 Y54.579
X27.512 Y54.566
X27.505 Y54.554
X27.497 Y54.541
X27.489 Y54.529
X27.482 Y54.519
G3 X27.47 Y54.475 I0.048 J-0.036
G2 X27.418 Y54.407 I-0.059 J-0.008
G1 X27.145 Y54.377
G2 X27.079 Y54.43 I-0.007 J0.06
G3 X27.057 Y54.471 I-0.06 J-0.006
G1 X27.053 Y54.475
X27.043 Y54.483
X27.034 Y54.492
X27.025 Y54.502
X27.002 Y54.529
X26.533 Y55.108
X26.531 Y55.109
X26.303 Y54.406
X26.295 Y54.38
X26.29 Y54.367
X26.285 Y54.354
X26.28 Y54.344
X26.272 Y54.329
X26.267 Y54.321
G3 X26.261 Y54.275 I0.052 J-0.03
G2 X26.216 Y54.201 I-0.058 J-0.015
G1 X25.939 Y54.141
G2 X25.868 Y54.188 I-0.013 J0.059
G3 X25.842 Y54.227 I-0.059 J-0.011
G1 X25.841 Y54.228
X25.837 Y54.231
X25.822 Y54.242
X25.806 Y54.255
X25.791 Y54.27
X25.78 Y54.282
X25.276 Y54.842
X25.275 Y54.841
X25.093 Y54.159
X25.076 Y54.097
X25.071 Y54.082
X25.066 Y54.067
X25.062 Y54.06
X25.061 Y54.056
X25.06 Y54.054
G3 X25.058 Y54.008 I0.054 J-0.025
G2 X25.021 Y53.931 I-0.056 J-0.02
G1 X24.762 Y53.841
G2 X24.685 Y53.879 I-0.02 J0.057
G3 X24.655 Y53.913 I-0.057 J-0.019
G1 X24.653 Y53.915
X24.648 Y53.917
X24.639 Y53.922
X24.619 Y53.934
X24.608 Y53.943
X24.596 Y53.952
X24.584 Y53.962
X24.572 Y53.974
X24.037 Y54.51
X24.035 Y54.508
X23.879 Y53.774
X23.874 Y53.751
X23.867 Y53.727
X23.861 Y53.712
X23.854 Y53.696
X23.847 Y53.681
X23.842 Y53.673
X23.84 Y53.669
G3 X23.833 Y53.624 I0.051 J-0.031
G2 X23.796 Y53.553 I-0.058 J-0.015
G1 X23.603 Y53.481
G2 X23.529 Y53.509 I-0.021 J0.056
G3 X23.494 Y53.539 I-0.053 J-0.028
G1 X23.491 Y53.54
X23.485 Y53.542
X23.466 Y53.549
X23.448 Y53.558
X23.432 Y53.566
X23.417 Y53.576
X23.401 Y53.587
X23.386 Y53.6
X23.381 Y53.604
X22.816 Y54.113
X22.815 Y54.111
X22.705 Y53.419
X22.695 Y53.357
X22.692 Y53.342
X22.688 Y53.326
X22.684 Y53.311
X22.678 Y53.295
X22.672 Y53.28
X22.668 Y53.273
X22.666 Y53.269
X22.665 Y53.267
G3 X22.661 Y53.222 I0.053 J-0.028
G2 X22.627 Y53.148 I-0.057 J-0.018
G1 X22.418 Y53.06
G2 X22.341 Y53.09 I-0.023 J0.055
G3 X22.307 Y53.121 I-0.054 J-0.026
G1 X22.291 Y53.126
X22.276 Y53.132
X22.261 Y53.14
X22.245 Y53.149
X22.23 Y53.158
X22.214 Y53.17
X22.211 Y53.172
X21.618 Y53.653
X21.616 Y53.651
X21.54 Y52.925
X21.536 Y52.887
X21.532 Y52.864
X21.528 Y52.848
X21.524 Y52.833
X21.518 Y52.818
X21.512 Y52.802
X21.508 Y52.794
X21.506 Y52.791
X21.505 Y52.789
G3 X21.502 Y52.743 I0.054 J-0.027
G2 X21.468 Y52.669 I-0.057 J-0.019
G1 X21.26 Y52.582
G2 X21.184 Y52.609 I-0.023 J0.055
G3 X21.148 Y52.639 I-0.053 J-0.028
G1 X21.147
X21.143 Y52.641
X21.135 Y52.643
X21.12 Y52.65
X21.104 Y52.657
X21.086 Y52.667
X21.067 Y52.679
X21.043 Y52.697
X20.445 Y53.131
X20.444 Y53.129
X20.404 Y52.37
X20.403 Y52.355
X20.401 Y52.34
X20.398 Y52.324
X20.395 Y52.309
X20.39 Y52.293
X20.385 Y52.278
X20.378 Y52.262
X20.371 Y52.247
X20.368 Y52.241
X20.366 Y52.237
X20.365 Y52.236
G3 X20.359 Y52.19 I0.052 J-0.029
G2 X20.323 Y52.118 I-0.058 J-0.016
G1 X20.121 Y52.04
G2 X20.046 Y52.069 I-0.022 J0.056
G3 X20.011 Y52.099 I-0.054 J-0.027
G1 X20.009 Y52.1
X19.994 Y52.105
X19.975 Y52.114
X19.955 Y52.124
X19.932 Y52.138
X19.302 Y52.547
X19.3 Y52.545
Y51.784
Y51.769
X19.298 Y51.754
X19.296 Y51.738
X19.294 Y51.723
X19.29 Y51.707
X19.285 Y51.692
X19.284 Y51.688
X19.283 Y51.686
G3 X19.286 Y51.64 I0.057 J-0.019
G2 X19.259 Y51.56 I-0.054 J-0.026
G1 X19.024 Y51.442
G2 X18.943 Y51.469 I-0.027 J0.054
G3 X18.909 Y51.499 I-0.054 J-0.027
G1 X18.901 Y51.501
X18.887 Y51.507
X18.884 Y51.508
X18.869 Y51.515
X18.853 Y51.523
X18.822 Y51.541
X18.191 Y51.905
X18.188 Y51.903
X18.225 Y51.199
X18.229 Y51.137
Y51.121
X18.228 Y51.106
X18.226 Y51.091
X18.224 Y51.075
X18.222 Y51.067
Y51.066
G3 X18.231 Y51.02 I0.059 J-0.012
G2 X18.212 Y50.937 I-0.05 J-0.033
G1 X17.973 Y50.789
G2 X17.889 Y50.81 I-0.032 J0.051
G3 X17.853 Y50.838 I-0.052 J-0.03
G1 X17.851
X17.836 Y50.843
X17.82 Y50.848
X17.805 Y50.855
X17.774 Y50.87
X17.113 Y51.207
X17.112 Y51.205
X17.19 Y50.458
X17.193 Y50.428
Y50.412
Y50.397
X17.192 Y50.389
Y50.385
G3 X17.205 Y50.341 I0.06 J-0.006
G2 X17.196 Y50.256 I-0.046 J-0.038
G1 X16.981 Y50.085
G2 X16.896 Y50.096 I-0.037 J0.047
G3 X16.857 Y50.119 I-0.048 J-0.036
G1 X16.849 Y50.12
X16.833 Y50.122
X16.818 Y50.126
X16.803 Y50.13
X16.787 Y50.136
X16.754 Y50.15
X16.076 Y50.452
X16.074 Y50.45
X16.189 Y49.718
X16.194 Y49.688
X16.196 Y49.672
Y49.657
Y49.641
X16.195 Y49.626
G3 X16.21 Y49.582 I0.06 J-0.004
G2 X16.206 Y49.499 I-0.045 J-0.04
G1 X16.028 Y49.334
G2 X15.945 Y49.335 I-0.041 J0.044
G3 X15.903 Y49.352 I-0.042 J-0.043
G1 X15.901
X15.893
X15.877
X15.862 Y49.353
X15.847 Y49.356
X15.831 Y49.359
X15.816 Y49.363
X15.8 Y49.367
X15.739 Y49.391
X15.078 Y49.644
X15.076 Y49.643
X15.23 Y48.917
X15.237 Y48.886
X15.239 Y48.87
X15.24 Y48.855
X15.241 Y48.839
Y48.824
X15.24 Y48.809
X15.239 Y48.807
G3 X15.253 Y48.763 I0.06 J-0.006
G2 X15.255 Y48.688 I-0.046 J-0.038
G1 X15.167 Y48.572
G2 X15.094 Y48.554 I-0.048 J0.036
G3 X15.048 Y48.555 I-0.025 J-0.055
G1 X15.046 Y48.554
X15.041 Y48.553
X15.021 Y48.547
X14.999 Y48.541
X14.983 Y48.538
X14.968 Y48.537
X14.952 Y48.536
X14.937 Y48.535
X14.922 Y48.536
X14.906 Y48.537
X14.891 Y48.54
X14.875 Y48.543
X14.86 Y48.547
X14.814 Y48.561
X14.125 Y48.785
X14.122 Y48.784
X14.318 Y48.053
X14.32 Y48.044
X14.323 Y48.031
X14.326 Y48.018
X14.327 Y48.005
X14.329 Y47.991
Y47.976
Y47.961
X14.328 Y47.945
Y47.941
Y47.939
G3 X14.341 Y47.895 I0.06 J-0.006
G2 X14.337 Y47.815 I-0.046 J-0.038
G1 X14.184 Y47.663
G2 X14.104 Y47.659 I-0.042 J0.042
G3 X14.06 Y47.672 I-0.038 J-0.046
G1 X14.058
X14.043 Y47.671
X14.027
X14.012
X13.997 Y47.672
X13.981 Y47.674
X13.966 Y47.677
X13.95 Y47.681
X13.217 Y47.878
X13.214 Y47.876
X13.438 Y47.19
X13.457 Y47.128
Y47.126
X13.46 Y47.111
