%
(1001)
(T1  D=9.5 CR=0 - ZMIN=-30.5 - flat end mill)
G90 G94
G17
G21
G28 G91 Z0
G90

(Pocket2)
M9
T1 M6
S21000 M3
G54
M9
G0 X101.591 Y42.717
Z15
Z2
G1 Z1.999 F333.3
G2 X101.601 Y42.703 Z1.818 I-3.603 J-2.717
X101.632 Y42.661 Z1.644 I-3.613 J-2.703
X101.681 Y42.593 Z1.482 I-3.644 J-2.661
X101.745 Y42.499 Z1.339 I-3.693 J-2.593
X101.82 Y42.383 Z1.221 I-3.757 J-2.499
X101.901 Y42.247 Z1.132 I-3.832 J-2.383
X101.984 Y42.095 Z1.074 I-3.913 J-2.247
X102.065 Y41.934 Z1.05 I-3.996 J-2.095
X93.91 Y38.066 Z0.555 I-4.077 J-1.934
X102.065 Y41.934 Z0.06 I4.077 J1.934
X93.91 Y38.066 Z-0.435 I-4.077 J-1.934
X102.065 Y41.934 Z-0.93 I4.077 J1.934
X102.5 Y40 Z-1 I-4.077 J-1.934
G1 Y3.903 F1800
X102.494 Y0.006
X101.871 Y0
X24.745
X22.505 Y0.007
X22.5 Y0.647
Y136.097
X22.506 Y139.994
X23.129 Y140
X100.255
X102.495 Y139.993
X102.5 Y139.353
Y40
G2 X98.976 Y34.714 I-5.727
G3 X95.451 Y29.427 I2.203 J-5.286
G1 Y9.931
G2 X92.569 Y7.049 I-2.882
G1 X32.431
G2 X29.549 Y9.931 J2.882
G1 Y130.105
G2 X32.395 Y132.951 I2.846
G1 X92.569
G2 X95.451 Y130.069 J-2.882
G1 Y29.427
G2 X91.95 Y24.174 I-5.69
G3 X88.448 Y18.922 I2.189 J-5.253
G1 Y16.934
G2 X85.566 Y14.052 I-2.882
G1 X39.434
G2 X36.552 Y16.934 J2.882
G1 Y123.102
G2 X39.398 Y125.948 I2.846
G1 X85.566
G2 X88.448 Y123.066 J-2.882
G1 Y18.922
G2 X78.497 Y16.05 I-5.39
G3 X69.431 Y21.056 I-9.066 J-5.708
G1 X46.438
G2 X43.556 Y23.938 J2.882
G1 Y116.098
G2 X46.402 Y118.944 I2.846
G1 X78.562
G2 X81.444 Y116.062 J-2.882
G1 Y23.938
G2 X78.562 Y21.056 I-2.882
G1 X69.431
G2 X64.178 Y24.558 J5.69
G3 X58.926 Y28.059 I-5.253 J-2.189
G1 X53.441
G2 X50.559 Y30.941 J2.882
G1 Y109.095
G2 X53.405 Y111.941 I2.846
G1 X71.559
G2 X74.441 Y109.059 J-2.882
G1 Y30.941
G2 X71.559 Y28.059 I-2.882
G1 X58.926
G2 X54.493 Y36.834 J5.507
G3 X57.563 Y46.173 I-12.67 J9.339
G1 Y102.091
G2 X60.409 Y104.937 I2.846
G1 X64.555
G2 X67.437 Y102.055 J-2.882
G1 Y37.945
G2 X64.555 Y35.063 I-2.882
G1 X60.445
G2 X57.563 Y37.945 J2.882
G1 Y46.173
G2 X59.232 Y48.676 I2.712
G3 X60.901 Y51.18 I-1.043 J2.504
G1 Y100.018
G2 X62.482 Y101.599 I1.581
G1 X62.518
G2 X64.099 Y100.018 J-1.581
G1 Y40.657
G2 X60.901 I-1.599
G1 Y51.18
G2 X61.549 Y51.622 I0.475
G1 X92.83 Y39.401
G3 X93.477 Y39.858 I0.173 J0.442
G2 X97.917 Y44.512 Z-1.25 I4.51 J0.142 F333.3
X102.5 Y40 Z-1.5 I0.071 J-4.512
G1 Y3.903 F1800
X102.494 Y0.006
X101.871 Y0
X24.745
X22.505 Y0.007
X22.5 Y0.647
Y136.097
X22.506 Y139.994
X23.129 Y140
X100.255
X102.495 Y139.993
X102.5 Y139.353
Y40
G2 X98.976 Y34.714 I-5.727
G3 X95.451 Y29.427 I2.203 J-5.286
G1 Y9.931
G2 X92.569 Y7.049 I-2.882
G1 X32.431
G2 X29.549 Y9.931 J2.882
G1 Y130.105
G2 X32.395 Y132.951 I2.846
G1 X92.569
G2 X95.451 Y130.069 J-2.882
G1 Y29.427
G2 X91.95 Y24.174 I-5.69
G3 X88.448 Y18.922 I2.189 J-5.253
G1 Y16.934
G2 X85.566 Y14.052 I-2.882
G1 X39.434
G2 X36.552 Y16.934 J2.882
G1 Y123.102
G2 X39.398 Y125.948 I2.846
G1 X85.566
G2 X88.448 Y123.066 J-2.882
G1 Y18.922
G2 X78.497 Y16.05 I-5.39
G3 X69.431 Y21.056 I-9.066 J-5.708
G1 X46.438
G2 X43.556 Y23.938 J2.882
G1 Y116.098
G2 X46.402 Y118.944 I2.846
G1 X78.562
G2 X81.444 Y116.062 J-2.882
G1 Y23.938
G2 X78.562 Y21.056 I-2.882
G1 X69.431
G2 X64.178 Y24.558 J5.69
G3 X58.926 Y28.059 I-5.253 J-2.189
G1 X53.441
G2 X50.559 Y30.941 J2.882
G1 Y109.095
G2 X53.405 Y111.941 I2.846
G1 X71.559
G2 X74.441 Y109.059 J-2.882
G1 Y30.941
G2 X71.559 Y28.059 I-2.882
G1 X58.926
G2 X54.493 Y36.834 J5.507
G3 X57.563 Y46.173 I-12.67 J9.339
G1 Y102.091
G2 X60.409 Y104.937 I2.846
G1 X64.555
G2 X67.437 Y102.055 J-2.882
G1 Y37.945
G2 X64.555 Y35.063 I-2.882
G1 X60.445
G2 X57.563 Y37.945 J2.882
G1 Y46.173
G2 X59.232 Y48.676 I2.712
G3 X60.901 Y51.18 I-1.043 J2.504
G1 Y100.018
G2 X62.482 Y101.599 I1.581
G1 X62.518
G2 X64.099 Y100.018 J-1.581
G1 Y40.657
G2 X60.901 I-1.599
G1 Y51.18
G3 X55.785 Y55.652 Z-1.685 I-4.513 F333.3
X52.038 Y49.983 Z-1.87 I0.604 J-4.472
G1 X58.651 Y25.94 Z-2.471
G2 X58.812 Y24.743 Z-2.5 I-4.351 J-1.197
G1 Y23.938 F1800
G3 X61.694 Y21.056 I2.882
G1 X63.306
G3 X66.188 Y23.938 J2.882
G1 Y116.062
G3 X63.306 Y118.944 I-2.882
G1 X61.658
G3 X58.812 Y116.098 J-2.846
G1 Y24.743
G2 X55.373 Y19.905 I-5.122
G3 X56.362 Y14.052 I0.989 J-2.843
G1 X70.309
G3 X73.191 Y16.934 J2.882
G1 Y123.066
G3 X70.309 Y125.948 I-2.882
G1 X54.655
G3 X51.809 Y123.102 J-2.846
G1 Y16.934
G3 X54.691 Y14.052 I2.882
G1 X56.362
G2 X61.614 Y10.55 J-5.69
G3 X66.867 Y7.049 I5.253 J2.189
G1 X77.313
G3 X80.195 Y9.931 J2.882
G1 Y130.069
G3 X77.313 Y132.951 I-2.882
G1 X47.651
G3 X44.805 Y130.105 J-2.846
G1 Y9.931
G3 X47.687 Y7.049 I2.882
G1 X66.867
G2 X72.154 Y3.524 J-5.727
G3 X77.44 Y0 I5.286 J2.203
G1 X87.249
X87.243 Y3.898
Y139.363
G2 Y139.382 I2.625
G1 X87.248 Y140
X37.751
X37.757 Y136.102
Y0.637
G2 Y0.618 I-2.625
G1 X37.752 Y0
X77.44
G3 X77.624 Y0.018 Z-2.482 J0.95
X77.795 Y0.069 Z-2.428 I-0.184 J0.932
X77.941 Y0.143 Z-2.34 I-0.355 J0.881
X78.057 Y0.228 Z-2.222 I-0.501 J0.807
X78.142 Y0.31 Z-2.078 I-0.617 J0.722
X78.198 Y0.377 Z-1.914 I-0.702 J0.64
X78.229 Y0.421 Z-1.735 I-0.758 J0.573
X78.239 Y0.437 Z-1.55 I-0.789 J0.529
G0 Z5
X65.217 Y118.035
Z2
G1 Z-0.501 F333.3
G3 X65.203 Y118.045 Z-0.682 I-2.717 J-3.603
X65.161 Y118.076 Z-0.856 I-2.703 J-3.613
X65.093 Y118.125 Z-1.018 I-2.661 J-3.644
X64.999 Y118.189 Z-1.161 I-2.593 J-3.693
X64.883 Y118.264 Z-1.279 I-2.499 J-3.757
X64.747 Y118.345 Z-1.368 I-2.383 J-3.832
X64.595 Y118.428 Z-1.426 I-2.247 J-3.913
X64.434 Y118.509 Z-1.45 I-2.095 J-3.996
X60.566 Y110.355 Z-1.945 I-1.934 J-4.077
X64.434 Y118.509 Z-2.44 I1.934 J4.077
X60.566 Y110.355 Z-2.935 I-1.934 J-4.077
X64.434 Y118.509 Z-3.43 I1.934 J4.077
X62.5 Y118.944 Z-3.5 I-1.934 J-4.077
G1 X61.691 F1800
G3 X58.844 Y116.098 J-2.846
G1 Y23.938
G3 X61.727 Y21.056 I2.882
G1 X63.273
G3 X66.156 Y23.938 J2.882
G1 Y116.062
G3 X63.273 Y118.944 I-2.882
G1 X62.5
G2 X57.675 Y122.369 J5.112
G3 X51.841 Y121.378 I-2.833 J-0.991
G1 Y16.934
G3 X54.723 Y14.052 I2.882
G1 X70.277
G3 X73.159 Y16.934 J2.882
G1 Y123.066
G3 X70.277 Y125.948 I-2.882
G1 X54.687
G3 X51.841 Y123.102 J-2.846
G1 Y121.378
G2 X48.339 Y116.126 I-5.69
G3 X44.837 Y110.873 I2.189 J-5.253
G1 Y9.931
G3 X47.72 Y7.049 I2.882
G1 X77.28
G3 X80.163 Y9.931 J2.882
G1 Y130.069
G3 X77.28 Y132.951 I-2.882
G1 X47.684
G3 X44.837 Y130.105 J-2.846
G1 Y110.873
G2 X41.313 Y105.586 I-5.727
G3 X37.789 Y100.3 I2.203 J-5.286
G1 Y0.637
G2 Y0.618 I-2.625
G1 X37.784 Y0
X87.217
X87.211 Y3.898
Y139.363
G2 Y139.382 I2.625
G1 X87.216 Y140
X37.783
X37.789 Y136.102
Y100.3
G3 X38.416 Y99.85 I0.475
G1 X61.041 Y107.51
G3 X61.355 Y108.051 I-0.152 J0.45
G1 X59.863 Y115.702
G3 X58.923 Y115.641 I-0.466 J-0.091
X67.93 Y115.075 Z-3.995 I4.504 J-0.283 F333.3
X63.568 Y119.868 Z-4.248 I-4.504 J0.283
X58.914 Y115.358 Z-4.5 I-0.142 J-4.51
G1 Y23.938 F1800
G3 X61.796 Y21.056 I2.882
G1 X63.204
G3 X66.086 Y23.938 J2.882
G1 Y116.062
G3 X63.204 Y118.944 I-2.882
G1 X61.76
G3 X58.914 Y116.098 J-2.846
G1 Y115.358
G2 X55.412 Y110.105 I-5.69
G3 X51.91 Y104.853 I2.189 J-5.253
G1 Y16.934
G3 X54.792 Y14.052 I2.882
G1 X70.208
G3 X73.09 Y16.934 J2.882
G1 Y123.066
G3 X70.208 Y125.948 I-2.882
G1 X54.756
G3 X51.91 Y123.102 J-2.846
G1 Y104.853
G2 X48.408 Y99.6 I-5.69
G3 X44.907 Y94.347 I2.189 J-5.253
G1 Y9.931
G3 X47.789 Y7.049 I2.882
G1 X77.211
G3 X80.093 Y9.931 J2.882
G1 Y130.069
G3 X77.211 Y132.951 I-2.882
G1 X47.753
G3 X44.907 Y130.105 J-2.846
G1 Y94.347
G2 X41.382 Y89.061 I-5.727
G3 X37.858 Y83.774 I2.203 J-5.286
G1 Y0.637
G2 Y0.618 I-2.625
G1 X37.853 Y0
X87.148
X87.142 Y3.898
Y139.363
G2 Y139.382 I2.625
G1 X87.147 Y140
X37.852
X37.858 Y136.102
Y83.774
G3 X39.598 Y83.247 I0.95 F333.3
G1 X60.756 Y114.931 Z-5.5
G3 X59.176 Y115.986 I-0.79 J0.528
X59.016 Y115.459 I0.79 J-0.528
G1 Y23.939 F1800
G3 X61.898 Y21.058 I2.882
G1 X63.102
G3 X65.984 Y23.94 J2.882
G1 Y116.061
G3 X63.102 Y118.942 I-2.882
G1 X61.898
G3 X59.016 Y116.06 J-2.882
G1 Y115.459
G2 X55.515 Y110.206 I-5.69
G3 X52.013 Y104.954 I2.189 J-5.253
G1 Y16.935
G3 X54.895 Y14.054 I2.882
G1 X70.105 Y14.055
G3 X72.987 Y16.937 J2.882
G1 Y123.065
G3 X70.105 Y125.946 I-2.882
G1 X54.895 Y125.945
G3 X52.013 Y123.063 J-2.882
G1 Y104.954
G2 X48.511 Y99.701 I-5.69
G3 X45.009 Y94.448 I2.189 J-5.253
G1 Y9.932
G3 X47.892 Y7.05 I2.882
G1 X77.108 Y7.052
G3 X79.991 Y9.934 J2.882
G1 Y130.068
G3 X77.108 Y132.95 I-2.882
G1 X47.892 Y132.948
G3 X45.009 Y130.066 J-2.882
G1 Y94.448
G2 X41.485 Y89.162 I-5.727
G3 X37.961 Y83.876 I2.203 J-5.286
G1 Y0.637
G2 Y0.618 I-2.625
G1 X37.956 Y0
X87.045 Y0.004
X87.039 Y3.898
Y139.363
G2 Y139.382 I2.625
G1 X87.044 Y140
X37.955 Y139.996
X37.961 Y136.102
Y83.876
G3 X39.692 Y83.335 I0.95 F333.3
G1 X63.281 Y117.454 Z-6.5
G3 X62.5 Y118.944 I-0.781 J0.54
G1 X62.035 F1800
G3 X59.152 Y116.062 J-2.882
G1 Y23.938
G3 X62.035 Y21.056 I2.882
G1 X62.966
G3 X65.848 Y23.938 J2.882
G1 Y116.062
G3 X62.966 Y118.944 I-2.882
G1 X62.5
G2 X57.762 Y122.143 J5.109
G3 X52.149 Y121.055 I-2.701 J-1.088
G1 Y16.934
G3 X55.031 Y14.052 I2.882
G1 X69.969
G3 X72.851 Y16.934 J2.882
G1 Y123.066
G3 X69.969 Y125.948 I-2.882
G1 X55.031
G3 X52.149 Y123.066 J-2.882
G1 Y121.055
G2 X48.647 Y115.802 I-5.69
G3 X45.145 Y110.55 I2.189 J-5.253
G1 Y9.931
G3 X48.027 Y7.049 I2.882
G1 X76.973
G3 X79.855 Y9.931 J2.882
G1 Y130.069
G3 X76.973 Y132.951 I-2.882
G1 X48.027
G3 X45.145 Y130.069 J-2.882
G1 Y110.55
G2 X41.621 Y105.263 I-5.727
G3 X38.097 Y99.977 I2.203 J-5.286
G1 Y0.637
G2 Y0.618 I-2.625
G1 X38.092 Y0
X86.909
X86.903 Y3.898
Y139.363
G2 X86.904 Y139.382 I2.625
G1 X86.908 Y140
X38.091
X38.097 Y136.102
Y99.977
G3 X39.625 Y99.223 I0.95 F333.3
G1 X63.079 Y117.241 Z-7.5
G3 X62.5 Y118.944 I-0.579 J0.753
G1 X62.207 F1800
G3 X59.324 Y116.062 J-2.882
G1 Y23.938
G3 X62.207 Y21.056 I2.882
G1 X62.793
G3 X65.676 Y23.938 J2.882
G1 Y116.062
G3 X62.793 Y118.944 I-2.882
G1 X62.5
G2 X57.812 Y122.022 J5.11
G3 X52.321 Y120.883 I-2.627 J-1.139
G1 Y16.934
G3 X55.203 Y14.052 I2.882
G1 X69.797
G3 X72.679 Y16.934 J2.882
G1 Y123.066
G3 X69.797 Y125.948 I-2.882
G1 X55.203
G3 X52.321 Y123.066 J-2.882
G1 Y120.883
G2 X48.819 Y115.63 I-5.69
G3 X45.317 Y110.377 I2.189 J-5.253
G1 Y9.931
G3 X48.199 Y7.049 I2.882
G1 X76.8
G3 X79.683 Y9.931 J2.882
G1 Y130.069
G3 X76.8 Y132.951 I-2.882
G1 X48.199
G3 X45.317 Y130.069 J-2.882
G1 Y110.377
G2 X41.793 Y105.091 I-5.727
G3 X38.269 Y99.804 I2.203 J-5.286
G1 Y0.637
G2 Y0.618 I-2.625
G1 X38.264 Y0
X86.737
X86.731 Y3.898
Y139.363
G2 Y139.382 I2.625
G1 X86.736 Y140
X38.263
X38.269 Y136.102
Y99.804
G3 X39.804 Y99.056 I0.95 F333.3
G1 X63.085 Y117.246 Z-8.5
G3 X62.5 Y118.944 I-0.585 J0.749
G1 X62.414 F1800
G3 X59.532 Y116.062 J-2.882
G1 Y23.938
G3 X62.414 Y21.056 I2.882
G1 X62.586
G3 X65.468 Y23.938 J2.882
G1 Y116.062
G3 X62.586 Y118.944 I-2.882
G1 X62.5
G2 X57.873 Y121.875 J5.118
G3 X52.528 Y120.676 I-2.538 J-1.2
G1 Y16.934
G3 X55.41 Y14.052 I2.882
G1 X69.59
G3 X72.472 Y16.934 J2.882
G1 Y123.066
G3 X69.59 Y125.948 I-2.882
G1 X55.41
G3 X52.528 Y123.066 J-2.882
G1 Y120.676
G2 X49.026 Y115.423 I-5.69
G3 X45.524 Y110.17 I2.189 J-5.253
G1 Y9.931
G3 X48.407 Y7.049 I2.882
G1 X76.593
G3 X79.476 Y9.931 J2.882
G1 Y130.069
G3 X76.593 Y132.951 I-2.882
G1 X48.407
G3 X45.524 Y130.069 J-2.882
G1 Y110.17
G2 X42 Y104.884 I-5.727
G3 X38.476 Y99.597 I2.203 J-5.286
G1 Y0.637
G2 Y0.618 I-2.625
G1 X38.471 Y0
X86.53
X86.524 Y3.898
Y139.363
G2 Y139.382 I2.625
G1 X86.529 Y140
X38.47
X38.476 Y136.102
Y99.597
G3 X39.113 Y99.151 I0.475
G1 X62.328 Y107.565
G3 X62.629 Y108.116 I-0.162 J0.447
G1 X60.723 Y116.579
G3 X59.786 Y116.504 I-0.463 J-0.104
X68.793 Y115.938 Z-8.995 I4.504 J-0.283 F333.3
X64.431 Y120.731 Z-9.248 I-4.504 J0.283
X59.777 Y116.221 Z-9.5 I-0.142 J-4.51
G1 Y23.179 F1800
G3 X61.9 Y21.056 I2.123
G1 X63.1
G3 X65.223 Y23.179 J2.123
G1 Y116.821
G3 X63.1 Y118.944 I-2.123
G1 X61.9
G3 X59.777 Y116.821 J-2.123
G1 Y116.221
G2 X56.275 Y110.968 I-5.69
G3 X52.773 Y105.716 I2.189 J-5.253
G1 Y16.934
G3 X55.655 Y14.052 I2.882
G1 X69.345
G3 X72.227 Y16.934 J2.882
G1 Y123.066
G3 X69.345 Y125.948 I-2.882
G1 X55.619
G3 X52.773 Y123.102 J-2.846
G1 Y105.716
G2 X49.271 Y100.463 I-5.69
G3 X45.77 Y95.21 I2.189 J-5.253
G1 Y9.931
G3 X48.652 Y7.049 I2.882
G1 X76.348
G3 X79.23 Y9.931 J2.882
G1 Y130.069
G3 X76.348 Y132.951 I-2.882
G1 X48.616
G3 X45.77 Y130.105 J-2.846
G1 Y95.21
G2 X42.245 Y89.924 I-5.727
G3 X38.721 Y84.637 I2.203 J-5.286
G1 Y0.637
G2 Y0.618 I-2.625
G1 X38.716 Y0
X86.285
X86.279 Y3.898
Y139.363
G2 Y139.382 I2.625
G1 X86.284 Y140
X38.715
X38.721 Y136.102
Y84.637
G3 X40.455 Y84.101 I0.95 F333.3
G1 X63.284 Y117.458 Z-10.5
G3 X62.5 Y118.944 I-0.784 J0.537
G1 X62.182 F1800
G3 X60.058 Y116.821 J-2.123
G1 Y23.179
G3 X62.182 Y21.056 I2.123
G1 X62.818
G3 X64.942 Y23.179 J2.123
G1 Y116.821
G3 X62.818 Y118.944 I-2.123
G1 X62.5
G2 X58.027 Y121.503 J5.19
G3 X53.055 Y120.149 I-2.302 J-1.354
G1 Y16.934
G3 X55.937 Y14.052 I2.882
G1 X69.063
G3 X71.945 Y16.934 J2.882
G1 Y123.066
G3 X69.063 Y125.948 I-2.882
G1 X55.937
G3 X53.055 Y123.066 J-2.882
G1 Y120.149
G2 X49.553 Y114.896 I-5.69
G3 X46.051 Y109.644 I2.189 J-5.253
G1 Y9.931
G3 X48.933 Y7.049 I2.882
G1 X76.067
G3 X78.949 Y9.931 J2.882
G1 Y130.069
G3 X76.067 Y132.951 I-2.882
G1 X48.933
G3 X46.051 Y130.069 J-2.882
G1 Y109.644
G2 X42.527 Y104.357 I-5.727
G3 X39.003 Y99.071 I2.203 J-5.286
G1 Y0.637
G2 Y0.618 I-2.625
G1 X38.998 Y0
X86.003
X85.997 Y3.898
Y139.363
G2 Y139.382 I2.625
G1 X86.002 Y140
X38.997
X39.003 Y136.102
Y99.071
G3 X39.646 Y98.626 I0.475
G1 X63.258 Y107.585
G3 X63.55 Y108.143 I-0.169 J0.444
G1 X61.324 Y117.191
G3 X60.389 Y117.107 I-0.461 J-0.113
X69.396 Y116.541 Z-10.995 I4.504 J-0.283 F333.3
X65.034 Y121.335 Z-11.248 I-4.504 J0.283
X60.38 Y116.824 Z-11.5 I-0.142 J-4.51
G1 Y22.637 F1800
G3 X61.961 Y21.056 I1.581
G1 X63.039
G3 X64.62 Y22.637 J1.581
G1 Y117.363
G3 X63.039 Y118.944 I-1.581
G1 X61.961
G3 X60.38 Y117.363 J-1.581
G1 Y116.824
G2 X56.878 Y111.572 I-5.69
G3 X53.376 Y106.319 I2.189 J-5.253
G1 Y16.934
G3 X56.259 Y14.052 I2.882
G1 X68.741
G3 X71.624 Y16.934 J2.882
G1 Y123.066
G3 X68.741 Y125.948 I-2.882
G1 X56.223
G3 X53.376 Y123.102 J-2.846
G1 Y106.319
G2 X49.875 Y101.066 I-5.69
G3 X46.373 Y95.814 I2.189 J-5.253
G1 Y9.931
G3 X49.255 Y7.049 I2.882
G1 X75.745
G3 X78.627 Y9.931 J2.882
G1 Y130.069
G3 X75.745 Y132.951 I-2.882
G1 X49.219
G3 X46.373 Y130.105 J-2.846
G1 Y95.814
G2 X42.849 Y90.527 I-5.727
G3 X39.324 Y85.241 I2.203 J-5.286
G1 Y0.637
G2 Y0.618 I-2.625
G1 X39.32 Y0
X85.682
X85.676 Y3.898
Y139.363
G2 Y139.382 I2.625
G1 X85.68 Y140
X39.318
X39.324 Y136.102
Y85.241
Z-10.55
G0 Z5
X59.783 Y21.965
Z-9.501
G3 X59.797 Y21.955 Z-9.682 I2.717 J3.603 F333.3
X59.839 Y21.924 Z-9.856 I2.703 J3.613
X59.907 Y21.875 Z-10.018 I2.661 J3.644
X60.001 Y21.811 Z-10.161 I2.593 J3.693
X60.117 Y21.736 Z-10.279 I2.499 J3.757
X60.253 Y21.655 Z-10.368 I2.383 J3.832
X60.405 Y21.572 Z-10.426 I2.247 J3.913
X60.566 Y21.491 Z-10.45 I2.095 J3.996
X64.434 Y29.645 Z-10.945 I1.934 J4.077
X60.566 Y21.491 Z-11.44 I-1.934 J-4.077
X64.434 Y29.645 Z-11.935 I1.934 J4.077
X60.566 Y21.491 Z-12.43 I-1.934 J-4.077
X62.5 Y21.056 Z-12.5 I1.934 J4.077
X64.261 Y22.817 J1.761 F1800
G1 Y117.363
G3 X62.68 Y118.944 I-1.581
G1 X62.32
G3 X60.739 Y117.363 J-1.581
G1 Y22.817
G3 X62.5 Y21.056 I1.761
G2 X66.774 Y18.978 J-5.435
G3 X71.265 Y20.531 I1.977 J1.553
G1 Y123.066
G3 X68.383 Y125.948 I-2.882
G1 X56.581
G3 X53.735 Y123.102 J-2.846
G1 Y16.934
G3 X56.617 Y14.052 I2.882
G1 X68.383
G3 X71.265 Y16.934 J2.882
G1 Y20.531
G2 X74.767 Y25.784 I5.69
G3 X78.268 Y31.037 I-2.189 J5.253
G1 Y130.069
G3 X75.386 Y132.951 I-2.882
G1 X49.578
G3 X46.732 Y130.105 J-2.846
G1 Y9.931
G3 X49.614 Y7.049 I2.882
G1 X75.386
G3 X78.268 Y9.931 J2.882
G1 Y31.037
G2 X81.793 Y36.323 I5.727
G3 X85.317 Y41.61 I-2.203 J5.286
G1 Y139.363
G2 Y139.382 I2.625
G1 X85.322 Y140
X39.677
X39.683 Y136.102
Y0.637
G2 Y0.618 I-2.625
G1 X39.678 Y0
X85.323
X85.317 Y3.898
Y41.61
Z-11.55
G0 Z5
X62.049 Y120.301
Z-10.501
G3 X62.039 Y120.287 Z-10.682 I3.603 J-2.717 F333.3
X62.008 Y120.245 Z-10.856 I3.613 J-2.703
X61.959 Y120.177 Z-11.018 I3.644 J-2.661
X61.895 Y120.083 Z-11.161 I3.693 J-2.593
X61.82 Y119.967 Z-11.279 I3.757 J-2.499
X61.739 Y119.831 Z-11.368 I3.832 J-2.383
X61.656 Y119.68 Z-11.426 I3.913 J-2.247
X61.575 Y119.518 Z-11.45 I3.996 J-2.095
X69.729 Y115.65 Z-11.945 I4.077 J-1.934
X61.575 Y119.518 Z-12.44 I-4.077 J1.934
X69.729 Y115.65 Z-12.935 I4.077 J-1.934
X61.575 Y119.518 Z-13.43 I-4.077 J1.934
X61.14 Y117.584 Z-13.5 I4.077 J-1.934
G1 Y22.23 F1800
G3 X62.314 Y21.056 I1.175
G1 X62.686
G3 X63.86 Y22.23 J1.175
G1 Y117.77
G3 X62.686 Y118.944 I-1.175
G1 X62.314
G3 X61.14 Y117.77 J-1.175
G1 Y117.584
G2 X57.638 Y112.331 I-5.69
G3 X54.136 Y107.079 I2.189 J-5.253
G1 Y16.934
G3 X57.018 Y14.052 I2.882
G1 X67.982
G3 X70.864 Y16.934 J2.882
G1 Y123.066
G3 X67.982 Y125.948 I-2.882
G1 X56.982
G3 X54.136 Y123.102 J-2.846
G1 Y107.079
G2 X50.635 Y101.826 I-5.69
G3 X47.133 Y96.574 I2.189 J-5.253
G1 Y9.931
G3 X50.015 Y7.049 I2.882
G1 X74.985
G3 X77.867 Y9.931 J2.882
G1 Y130.069
G3 X74.985 Y132.951 I-2.882
G1 X49.979
G3 X47.133 Y130.105 J-2.846
G1 Y96.574
G2 X43.608 Y91.287 I-5.727
G3 X40.084 Y86.001 I2.203 J-5.286
G1 Y0.637
G2 Y0.617 I-2.625
G1 X40.079 Y0
X84.922
X84.916 Y3.897
Y139.363
G2 Y139.383 I2.625
G1 X84.921 Y140
X40.078
X40.084 Y136.102
Y86.001
G3 X41.824 Y85.472 I0.95 F333.3
G1 X63.254 Y117.503 Z-14.5
G3 X63.415 Y118.032 I-0.79 J0.528
G1 Y118.116 F1800
G3 X62.584 Y118.946 I-0.831
G1 X62.416
G3 X61.585 Y118.116 J-0.831
G1 Y21.884
G3 X62.416 Y21.054 I0.831
G1 X62.584
G3 X63.415 Y21.884 J0.831
G1 Y118.032
G2 X65.768 Y121.694 I4.026
G3 X64.843 Y125.948 I-0.925 J2.026
G1 X57.43
G3 X54.584 Y123.102 J-2.846
G1 Y16.934
G3 X57.466 Y14.052 I2.882
G1 X67.534
G3 X70.416 Y16.934 J2.882
G1 Y123.066
G3 X67.534 Y125.948 I-2.882
G1 X64.843
G2 X59.59 Y129.45 J5.69
G3 X54.338 Y132.951 I-5.253 J-2.189
G1 X50.426
G3 X47.58 Y130.105 J-2.846
G1 Y9.931
G3 X50.462 Y7.049 I2.882
G1 X74.538
G3 X77.42 Y9.931 J2.882
G1 Y130.069
G3 X74.538 Y132.951 I-2.882
G1 X54.338
G2 X49.051 Y136.476 J5.727
G3 X43.765 Y140 I-5.286 J-2.203
G1 X40.526
X40.532 Y136.103
Y0.637
G2 X40.531 Y0.617 I-2.625
G1 X40.527 Y0
X84.474
X84.468 Y3.897
Y139.363
G2 X84.469 Y139.383 I2.625
G1 X84.473 Y140
X43.765
G3 X43.617 Y139.686 J-0.192
G1 X44.172 Y139.017
X62.4 Y120.788
G3 X62.438 Y120.76 I0.117 J0.117
G1 X62.694 Y120.621
G3 X62.852 Y120.914 I0.079 J0.146
X62.783 Y120.933 I-0.079 J-0.146
X62.217 Y111.926 Z-14.995 I-0.283 J-4.504 F333.3
X67.01 Y116.288 Z-15.248 I0.283 J4.504
X62.5 Y120.942 Z-15.5 I-4.51 J0.142
G1 X62.203 F1800
G3 X60.08 Y118.819 J-2.123
G1 Y21.181
G3 X62.203 Y19.058 I2.123
G1 X62.797
G3 X64.92 Y21.181 J2.123
G1 Y118.819
G3 X62.797 Y120.942 I-2.123
G1 X62.5
G2 X59.468 Y123.67 J3.049
G3 X55.487 Y124.553 I-2.139 J-0.227
X55.074 Y123.066 I2.469 J-1.487
G1 Y16.934
G3 X57.956 Y14.052 I2.882
G1 X67.044
G3 X69.926 Y16.934 J2.882
G1 Y123.066
G3 X67.044 Y125.948 I-2.882
G1 X57.956
G3 X55.487 Y124.553 J-2.882
G2 X51.198 Y120.799 I-8.012 J4.826
G3 X48.07 Y116.033 I2.067 J-4.766
G1 Y9.931
G3 X50.953 Y7.049 I2.882
G1 X74.047
G3 X76.93 Y9.931 J2.882
G1 Y130.069
G3 X74.047 Y132.951 I-2.882
G1 X50.953
G3 X48.07 Y130.069 J-2.882
G1 Y116.033
G2 X44.546 Y58.762 I-467.084
G3 X41.022 Y1.492 I463.56 J-57.27
G1 Y0.637
G2 Y0.617 I-2.625
G1 X41.017 Y0
X83.984
X83.978 Y3.897
Y139.363
G2 Y139.383 I2.625
G1 X83.983 Y140
X41.016
X41.022 Y136.103
Y1.492
G3 X41.04 Y1.308 Z-15.482 I0.95
X41.091 Y1.137 Z-15.428 I0.932 J0.184
X41.165 Y0.991 Z-15.34 I0.881 J0.355
X41.25 Y0.875 Z-15.222 I0.807 J0.501
X41.332 Y0.79 Z-15.078 I0.722 J0.617
X41.399 Y0.734 Z-14.914 I0.64 J0.702
X41.443 Y0.703 Z-14.735 I0.573 J0.758
X41.459 Y0.693 Z-14.55 I0.529 J0.789
G0 Z5
X61.166 Y121.773
Z-13.501
G3 X61.155 Y121.759 Z-13.682 I3.603 J-2.717 F333.3
X61.124 Y121.718 Z-13.856 I3.613 J-2.703
X61.075 Y121.65 Z-14.018 I3.644 J-2.661
X61.011 Y121.556 Z-14.161 I3.693 J-2.593
X60.937 Y121.439 Z-14.279 I3.757 J-2.499
X60.855 Y121.303 Z-14.368 I3.832 J-2.383
X60.772 Y121.152 Z-14.426 I3.913 J-2.247
X60.692 Y120.991 Z-14.45 I3.996 J-2.095
X68.846 Y117.123 Z-14.945 I4.077 J-1.934
X60.692 Y120.991 Z-15.44 I-4.077 J1.934
X68.846 Y117.123 Z-15.935 I4.077 J-1.934
X60.692 Y120.991 Z-16.43 I-4.077 J1.934
X60.256 Y119.057 Z-16.5 I4.077 J-1.934
G1 Y20.823 F1800
G3 X62.379 Y18.699 I2.123
G1 X62.621
G3 X64.744 Y20.823 J2.123
G1 Y119.177
G3 X62.621 Y121.301 I-2.123
G1 X62.379
G3 X60.256 Y119.177 J-2.123
G1 Y119.057
G2 X57.933 Y115.571 I-3.776
G3 X55.609 Y112.086 I1.452 J-3.485
G1 Y16.934
G3 X58.491 Y14.052 I2.882
G1 X66.509
G3 X69.391 Y16.934 J2.882
G1 Y123.066
G3 X66.509 Y125.948 I-2.882
G1 X58.491
G3 X55.609 Y123.066 J-2.882
G1 Y112.086
G2 X52.107 Y106.833 I-5.69
G3 X48.605 Y101.58 I2.189 J-5.253
G1 Y9.931
G3 X51.487 Y7.049 I2.882
G1 X73.513
G3 X76.395 Y9.931 J2.882
G1 Y130.069
G3 X73.513 Y132.951 I-2.882
G1 X51.487
G3 X48.605 Y130.069 J-2.882
G1 Y101.58
G2 X45.081 Y96.294 I-5.727
G3 X41.557 Y91.007 I2.203 J-5.286
G1 Y0.637
G2 Y0.617 I-2.625
G1 X41.552 Y0
X83.449
X83.443 Y3.897
Y139.363
G2 Y139.383 I2.625
G1 X83.448 Y140
X41.551
X41.557 Y136.103
Y91.007
G3 X43.3 Y90.484 I0.95 F333.3
G1 X62.195 Y119.127 Z-17.5
G3 X60.609 Y120.174 I-0.793 J0.523
X60.452 Y119.651 I0.793 J-0.523
G1 Y19.883 F1800
G3 X62.034 Y18.302 I1.581
G1 X62.966
G3 X64.548 Y19.883 J1.581
G1 Y120.117
G3 X62.966 Y121.698 I-1.581
G1 X62.034
G3 X60.452 Y120.117 J-1.581
G1 Y119.651
G2 X58.328 Y116.464 I-3.452
G3 X56.204 Y113.277 I1.328 J-3.187
G1 Y16.935
G3 X59.086 Y14.053 I2.882
G1 X65.914
G3 X68.796 Y16.935 J2.882
G1 Y123.065
G3 X65.914 Y125.947 I-2.882
G1 X59.086
G3 X56.204 Y123.065 J-2.882
G1 Y113.277
G2 X52.702 Y108.025 I-5.69
G3 X49.2 Y102.772 I2.189 J-5.253
G1 Y9.931
G3 X52.082 Y7.049 I2.882
G1 X72.918 Y7.05
G3 X75.8 Y9.932 J2.882
G1 Y130.069
G3 X72.918 Y132.951 I-2.882
G1 X52.082 Y132.95
G3 X49.2 Y130.068 J-2.882
G1 Y102.772
G2 X45.676 Y97.486 I-5.727
G3 X42.152 Y92.199 I2.203 J-5.286
G1 Y0.637
G2 Y0.617 I-2.625
G1 X42.147 Y0
X82.854 Y0.002
X82.848 Y3.08
Y3.085
Y139.363
G2 Y139.383 I2.625
G1 X82.853 Y140
X42.146 Y139.998
X42.152 Y136.92
Y136.915
Y92.199
G3 X42.17 Y92.015 Z-17.482 I0.95
X42.22 Y91.845 Z-17.428 I0.932 J0.184
X42.294 Y91.698 Z-17.34 I0.881 J0.355
X42.379 Y91.582 Z-17.222 I0.807 J0.501
X42.461 Y91.497 Z-17.078 I0.722 J0.617
X42.529 Y91.441 Z-16.914 I0.64 J0.702
X42.573 Y91.41 Z-16.735 I0.573 J0.758
X42.588 Y91.4 Z-16.55 I0.529 J0.789
G0 Z5
X59.783 Y18.78
Z-15.501
G3 X59.797 Y18.769 Z-15.682 I2.717 J3.603 F333.3
X59.839 Y18.738 Z-15.856 I2.703 J3.613
X59.907 Y18.689 Z-16.018 I2.661 J3.644
X60.001 Y18.625 Z-16.161 I2.593 J3.693
X60.117 Y18.551 Z-16.279 I2.499 J3.757
X60.253 Y18.469 Z-16.368 I2.383 J3.832
X60.405 Y18.386 Z-16.426 I2.247 J3.913
X60.566 Y18.305 Z-16.45 I2.095 J3.996
X64.434 Y26.46 Z-16.945 I1.934 J4.077
X60.566 Y18.305 Z-17.44 I-1.934 J-4.077
X64.434 Y26.46 Z-17.935 I1.934 J4.077
X60.566 Y18.305 Z-18.43 I-1.934 J-4.077
X62.5 Y17.87 Z-18.5 I1.934 J4.077
G1 X62.754 F1800
G3 X64.335 Y19.451 J1.581
G1 Y120.549
G3 X62.754 Y122.13 I-1.581
G1 X62.246
G3 X60.665 Y120.549 J-1.581
G1 Y19.451
G3 X62.246 Y17.87 I1.581
G1 X62.5
G2 X64.799 Y15.969 J-2.341
G3 X67.735 Y15.44 I1.57 J0.3
X68.153 Y16.934 I-2.464 J1.495
G1 Y123.066
G3 X65.271 Y125.948 I-2.882
G1 X59.729
G3 X56.847 Y123.066 J-2.882
G1 Y16.934
G3 X59.729 Y14.052 I2.882
G1 X65.271
G3 X67.735 Y15.44 J2.882
G2 X72.03 Y19.19 I8.047 J-4.881
G3 X75.157 Y23.958 I-2.073 J4.768
G1 Y130.069
G3 X72.275 Y132.951 I-2.882
G1 X52.725
G3 X49.843 Y130.069 J-2.882
G1 Y9.931
G3 X52.725 Y7.049 I2.882
G1 X72.275
G3 X75.157 Y9.931 J2.882
G1 Y23.958
G2 X78.681 Y29.244 I5.727
G3 X82.205 Y34.531 I-2.203 J5.286
G1 Y140
X42.795
Y0
X82.205
Y34.531
G3 X82.187 Y34.715 Z-18.482 I-0.95
X82.137 Y34.886 Z-18.428 I-0.932 J-0.184
X82.063 Y35.032 Z-18.34 I-0.881 J-0.355
X81.978 Y35.148 Z-18.222 I-0.807 J-0.501
X81.896 Y35.233 Z-18.078 I-0.722 J-0.617
X81.828 Y35.289 Z-17.914 I-0.64 J-0.702
X81.784 Y35.32 Z-17.735 I-0.573 J-0.758
X81.769 Y35.33 Z-17.55 I-0.529 J-0.789
G0 Z5
X61.808 Y123.721
Z-16.501
G3 X61.798 Y123.707 Z-16.682 I3.603 J-2.717 F333.3
X61.767 Y123.665 Z-16.856 I3.613 J-2.703
X61.718 Y123.597 Z-17.018 I3.644 J-2.661
X61.654 Y123.503 Z-17.161 I3.693 J-2.593
X61.579 Y123.387 Z-17.279 I3.757 J-2.499
X61.498 Y123.251 Z-17.368 I3.832 J-2.383
X61.415 Y123.099 Z-17.426 I3.913 J-2.247
X61.334 Y122.938 Z-17.45 I3.996 J-2.095
X69.488 Y119.07 Z-17.945 I4.077 J-1.934
X61.334 Y122.938 Z-18.44 I-4.077 J1.934
X69.488 Y119.07 Z-18.935 I4.077 J-1.934
X61.334 Y122.938 Z-19.43 I-4.077 J1.934
X60.899 Y121.004 Z-19.5 I4.077 J-1.934
G1 Y18.976 F1800
G3 X62.48 Y17.395 I1.581
G1 X62.52
G3 X64.101 Y18.976 J1.581
G1 Y121.024
G3 X62.52 Y122.605 I-1.581
G1 X62.48
G3 X60.899 Y121.024 J-1.581
G1 Y121.004
G2 X59.227 Y118.497 I-2.716
G3 X57.556 Y115.99 I1.045 J-2.507
G1 Y16.934
G3 X60.438 Y14.052 I2.882
G1 X64.562
G3 X67.444 Y16.934 J2.882
G1 Y123.066
G3 X64.562 Y125.948 I-2.882
G1 X60.438
G3 X57.556 Y123.066 J-2.882
G1 Y115.99
G2 X54.054 Y110.737 I-5.69
G3 X50.552 Y105.484 I2.189 J-5.253
G1 Y9.931
G3 X53.435 Y7.049 I2.882
G1 X71.565
G3 X74.448 Y9.931 J2.882
G1 Y130.069
G3 X71.565 Y132.951 I-2.882
G1 X53.435
G3 X50.552 Y130.069 J-2.882
G1 Y105.484
G2 X47.028 Y100.198 I-5.727
G3 X43.504 Y94.911 I2.203 J-5.286
G1 Y0.637
G2 Y0.617 I-2.625
G1 X43.499 Y0
X81.502
X81.496 Y3.08
Y3.085
Y139.363
G2 Y139.383 I2.625
G1 X81.501 Y140
X43.498
X43.504 Y136.92
Y136.915
Y94.911
G3 X45.199 Y94.322 I0.95 F333.3
G1 X66.47 Y121.183 Z-20.5
G3 X66.675 Y121.773 I-0.745 J0.59
G1 Y123.066 F1800
G3 X63.793 Y125.948 I-2.882
G1 X61.171
G3 X58.325 Y123.102 J-2.846
G1 Y16.934
G3 X61.207 Y14.052 I2.882
G1 X63.793
G3 X66.675 Y16.934 J2.882
G1 Y121.773
G2 X69.583 Y127.116 I6.362
G3 X67.862 Y132.951 I-1.722 J2.663
G1 X54.168
G3 X51.322 Y130.105 J-2.846
G1 Y9.931
G3 X54.204 Y7.049 I2.882
G1 X70.796
G3 X73.678 Y9.931 J2.882
G1 Y130.069
G3 X70.796 Y132.951 I-2.882
G1 X67.862
G2 X62.575 Y136.476 J5.727
G3 X57.289 Y140 I-5.286 J-2.203
G1 X44.267
X44.273 Y136.92
Y136.915
Y0.637
G2 Y0.617 I-2.625
G1 X44.268 Y0
X80.733
X80.727 Y3.08
Y3.085
Y139.363
G2 Y139.383 I2.625
G1 X80.732 Y140
X57.289
G3 X53.058 Y133.918 Z-20.701 J-4.512 F333.3
G1 X58.269 Y119.866 Z-21.046
G3 X66.731 Y123.004 Z-21.373 I4.231 J1.569
X62.5 Y125.948 Z-21.5 I-4.231 J-1.569
G1 X62.049 F1800
G3 X59.167 Y123.066 J-2.882
G1 Y16.934
G3 X62.049 Y14.052 I2.882
G1 X62.951
G3 X65.833 Y16.934 J2.882
G1 Y123.066
G3 X62.951 Y125.948 I-2.882
G1 X62.5
G2 X57.766 Y129.137 J5.109
G3 X52.163 Y128.044 I-2.695 J-1.093
G1 Y9.931
G3 X55.045 Y7.049 I2.882
G1 X69.955
G3 X72.837 Y9.931 J2.882
G1 Y130.069
G3 X69.955 Y132.951 I-2.882
G1 X55.045
G3 X52.163 Y130.069 J-2.882
G1 Y128.044
G2 X48.639 Y122.758 I-5.727
G3 X45.115 Y117.471 I2.203 J-5.286
G1 Y0.637
G2 X45.114 Y0.617 I-2.625
G1 X45.11 Y0
X79.892
X79.885 Y3.08
Y3.085
Y139.363
G2 X79.886 Y139.383 I2.625
G1 X79.89 Y140
X45.108
X45.115 Y136.92
Y136.915
Y117.471
G3 X45.757 Y117.027 I0.475
G1 X54.911 Y120.482
G3 X55.012 Y120.534 I-0.168 J0.444
G2 X55.171 Y120.604 I0.268 J-0.392
G1 X64.534 Y122.825
G3 X64.899 Y123.257 I-0.11 J0.462
X55.892 Y123.823 Z-21.995 I-4.504 J0.283 F333.3
X60.254 Y119.03 Z-22.248 I4.504 J-0.283
X64.908 Y123.54 Z-22.5 I0.142 J4.51
G1 Y123.824 F1800
G3 X62.784 Y125.948 I-2.123
G1 X62.216
G3 X60.092 Y123.824 J-2.123
G1 Y16.176
G3 X62.216 Y14.052 I2.123
G1 X62.784
G3 X64.908 Y16.176 J2.123
G1 Y123.54
G2 X67.442 Y128.003 I5.197
G3 X66.078 Y132.951 I-1.364 J2.286
G1 X55.971
G3 X53.089 Y130.069 J-2.882
G1 Y9.931
G3 X55.971 Y7.049 I2.882
G1 X69.029
G3 X71.911 Y9.931 J2.882
G1 Y130.069
G3 X69.029 Y132.951 I-2.882
G1 X66.078
G2 X60.792 Y136.476 J5.727
G3 X55.505 Y140 I-5.286 J-2.203
G1 X46.034
X46.04 Y136.92
Y136.915
Y0.637
G2 Y0.617 I-2.625
G1 X46.035 Y0
X78.966
X78.96 Y3.08
Y3.085
Y139.363
G2 Y139.383 I2.625
G1 X78.965 Y140
X55.505
G3 X51.252 Y133.98 Z-22.762 J-4.512 F333.3
G1 X55.129 Y123.046 Z-23.115
G3 X63.894 Y124.553 Z-23.5 I4.253 J1.508
G1 Y124.773 F1800
G3 X62.72 Y125.948 I-1.175
G1 X62.28
G3 X61.106 Y124.773 J-1.175
G1 Y15.227
G3 X62.28 Y14.052 I1.175
G1 X62.72
G3 X63.894 Y15.227 J1.175
G1 Y124.553
G2 X66.588 Y128.357 I4.033
G3 X65.803 Y132.951 I-0.785 J2.23
G1 X56.984
G3 X54.102 Y130.069 J-2.882
G1 Y9.931
G3 X56.984 Y7.049 I2.882
G1 X68.016
G3 X70.898 Y9.931 J2.882
G1 Y130.069
G3 X68.016 Y132.951 I-2.882
G1 X65.803
G2 X60.516 Y136.476 J5.727
G3 X55.23 Y140 I-5.286 J-2.203
G1 X47.047
X47.053 Y136.92
Y136.915
Y0.637
G2 Y0.616 I-2.625
G1 X47.048 Y0
X77.953
X77.947 Y3.08
Y3.085
Y139.363
G2 Y139.384 I2.625
G1 X77.952 Y140
X55.23
G3 X55.045 Y139.982 Z-23.482 J-0.95
X54.875 Y139.931 Z-23.428 I0.184 J-0.932
X54.729 Y139.857 Z-23.34 I0.355 J-0.881
X54.612 Y139.772 Z-23.222 I0.501 J-0.807
X54.528 Y139.69 Z-23.078 I0.617 J-0.722
X54.472 Y139.623 Z-22.914 I0.702 J-0.64
X54.44 Y139.579 Z-22.735 I0.758 J-0.573
X54.43 Y139.563 Z-22.55 I0.789 J-0.529
G0 Z5
X63.962 Y11.61
Z-21.501
G3 X63.973 Y11.624 Z-21.682 I-3.603 J2.717 F333.3
X64.003 Y11.666 Z-21.856 I-3.613 J2.703
X64.052 Y11.734 Z-22.018 I-3.644 J2.661
X64.116 Y11.828 Z-22.161 I-3.693 J2.593
X64.191 Y11.944 Z-22.279 I-3.757 J2.499
X64.272 Y12.08 Z-22.368 I-3.832 J2.383
X64.356 Y12.231 Z-22.426 I-3.913 J2.247
X64.436 Y12.393 Z-22.45 I-3.996 J2.095
X56.282 Y16.261 Z-22.945 I-4.077 J1.934
X64.436 Y12.393 Z-23.44 I4.077 J-1.934
X56.282 Y16.261 Z-23.935 I-4.077 J1.934
X64.436 Y12.393 Z-24.43 I4.077 J-1.934
X64.872 Y14.327 Z-24.5 I-4.077 J1.934
G1 Y125.673 F1800
G3 X60.128 I-2.372
G1 Y14.079
G3 X62.252 Y11.955 I2.123
G1 X62.748
G3 X64.872 Y14.079 J2.123
G1 Y14.327
G2 X67.325 Y18.007 I3.987
G3 X69.778 Y21.687 I-1.533 J3.68
G1 Y130.069
G3 X66.896 Y132.951 I-2.882
G1 X58.104
G3 X55.222 Y130.069 J-2.882
G1 Y9.931
G3 X58.104 Y7.049 I2.882
G1 X66.896
G3 X69.778 Y9.931 J2.882
G1 Y21.687
G2 X73.303 Y26.973 I5.727
G3 X76.827 Y32.26 I-2.203 J5.286
G1 Y139.363
G2 Y139.384 I2.625
G1 X76.832 Y140
X48.167
X48.173 Y136.92
Y136.915
Y0.637
G2 Y0.616 I-2.625
G1 X48.168 Y0
X76.833
X76.827 Y3.08
Y3.085
Y32.26
G3 X76.809 Y32.444 Z-24.482 I-0.95
X76.758 Y32.615 Z-24.428 I-0.932 J-0.184
X76.684 Y32.761 Z-24.34 I-0.881 J-0.355
X76.599 Y32.877 Z-24.222 I-0.807 J-0.501
X76.517 Y32.962 Z-24.078 I-0.722 J-0.617
X76.449 Y33.018 Z-23.914 I-0.64 J-0.702
X76.405 Y33.049 Z-23.735 I-0.573 J-0.758
X76.39 Y33.059 Z-23.55 I-0.529 J-0.789
G0 Z5
X61.449 Y129.637
Z-22.501
G3 X61.439 Y129.623 Z-22.682 I3.603 J-2.717 F333.3
X61.408 Y129.582 Z-22.856 I3.613 J-2.703
X61.359 Y129.513 Z-23.018 I3.644 J-2.661
X61.295 Y129.42 Z-23.161 I3.693 J-2.593
X61.22 Y129.303 Z-23.279 I3.757 J-2.499
X61.139 Y129.167 Z-23.368 I3.832 J-2.383
X61.056 Y129.016 Z-23.426 I3.913 J-2.247
X60.975 Y128.854 Z-23.45 I3.996 J-2.095
X67.76 Y123.31 Z-23.869 I4.077 J-1.934
X62.345 Y130.53 Z-24.364 I-2.707 J3.61
X67.76 Y123.31 Z-24.859 I2.707 J-3.61
X62.345 Y130.53 Z-25.354 I-2.707 J3.61
X60.54 Y126.92 Z-25.5 I2.708 J-3.61
G1 Y12.701 F1800
G3 X62.121 Y11.12 I1.581
G1 X62.879
G3 X64.46 Y12.701 J1.581
G1 Y127.299
G3 X62.879 Y128.88 I-1.581
G1 X62.121
G3 X60.54 Y127.299 J-1.581
G1 Y126.92
G2 X58.504 Y123.867 I-3.308
G3 X56.469 Y120.814 I1.272 J-3.053
G1 Y9.931
G3 X59.351 Y7.049 I2.882
G1 X65.649
G3 X68.531 Y9.931 J2.882
G1 Y130.069
G3 X65.649 Y132.951 I-2.882
G1 X59.351
G3 X56.469 Y130.069 J-2.882
G1 Y120.814
G2 X52.945 Y115.527 I-5.727
G3 X49.42 Y110.241 I2.203 J-5.286
G1 Y0.637
G2 Y0.616 I-2.625
G1 X49.415 Y0
X75.586
X75.58 Y3.08
Y3.085
Y139.363
G2 Y139.384 I2.625
G1 X75.585 Y140
X49.414
X49.42 Y136.92
Y136.915
Y110.241
G3 X50.206 Y109.882 I0.475
G1 X52.811 Y112.135
G3 X52.911 Y112.257 I-0.311 J0.359
G1 X62.504 Y128.886
X62.914 Y129.56
G3 X62.783 Y129.811 I-0.141 J0.086
X62.217 Y120.804 Z-25.995 I-0.283 J-4.504 F333.3
X67.01 Y125.166 Z-26.248 I0.283 J4.504
X62.5 Y129.82 Z-26.5 I-4.51 J0.142
G1 X62.177 F1800
G3 X61.003 Y128.645 J-1.175
G1 Y11.355
G3 X62.177 Y10.18 I1.175
G1 X62.823
G3 X63.997 Y11.355 J1.175
G1 Y128.645
G3 X62.823 Y129.82 I-1.175
G1 X62.5
G2 X60.624 Y131.254 J1.944
G3 X58.286 Y131.585 I-1.24 J-0.337
X57.872 Y130.105 I2.431 J-1.48
G1 Y9.931
G3 X60.754 Y7.049 I2.882
G1 X64.246
G3 X67.128 Y9.931 J2.882
G1 Y130.069
G3 X64.246 Y132.951 I-2.882
G1 X60.718
G3 X58.286 Y131.585 J-2.846
G2 X53.966 Y127.817 I-8.107 J4.934
G3 X50.823 Y123.022 I2.086 J-4.795
G1 Y0.637
G2 Y0.616 I-2.625
G1 X50.818 Y0
X74.183
X74.177 Y3.08
Y3.085
Y139.363
G2 Y139.384 I2.625
G1 X74.182 Y140
X50.817
X50.823 Y136.92
Y136.915
Y123.022
G3 X50.841 Y122.837 Z-26.482 I0.95
X50.892 Y122.667 Z-26.428 I0.932 J0.184
X50.966 Y122.521 Z-26.34 I0.881 J0.355
X51.051 Y122.404 Z-26.222 I0.807 J0.501
X51.133 Y122.32 Z-26.078 I0.722 J0.617
X51.2 Y122.264 Z-25.914 I0.64 J0.702
X51.244 Y122.232 Z-25.735 I0.573 J0.758
X51.26 Y122.222 Z-25.55 I0.529 J0.789
G0 Z5
X59.783 Y7.958
Z-24.501
G3 X59.797 Y7.948 Z-24.682 I2.717 J3.603 F333.3
X59.839 Y7.917 Z-24.856 I2.703 J3.613
X59.907 Y7.868 Z-25.018 I2.661 J3.644
X60.001 Y7.804 Z-25.161 I2.593 J3.693
X60.117 Y7.729 Z-25.279 I2.499 J3.757
X60.253 Y7.648 Z-25.368 I2.383 J3.832
X60.405 Y7.565 Z-25.426 I2.247 J3.913
X60.566 Y7.484 Z-25.45 I2.095 J3.996
X64.434 Y15.638 Z-25.945 I1.934 J4.077
X60.566 Y7.484 Z-26.44 I-1.934 J-4.077
X64.434 Y15.638 Z-26.935 I1.934 J4.077
X60.566 Y7.484 Z-27.43 I-1.934 J-4.077
X62.5 Y7.049 Z-27.5 I1.934 J4.077
G1 X62.657 F1800
G3 X65.539 Y9.931 J2.882
G1 Y130.069
G3 X62.657 Y132.951 I-2.882
G1 X62.307
G3 X59.461 Y130.105 J-2.846
G1 Y9.931
G3 X62.343 Y7.049 I2.882
G1 X62.5
G2 X67.278 Y4.318 J-5.546
G3 X72.588 Y5.765 I2.458 J1.448
G1 Y139.363
G2 Y139.384 I2.625
G1 X72.593 Y140
X52.406
X52.412 Y137.738
Y137.731
Y0.637
G2 Y0.616 I-2.625
G1 X52.407 Y0
X72.594
X72.588 Y2.262
Y2.269
Y5.765
G3 X72.228 Y6.107 I-0.342
G1 X70.682 Y6.028
G2 X70.573 Y6.04 I-0.017 J0.342
G1 X62.377 Y8.317
X61.592 Y8.639
G3 X61.352 Y8.489 I-0.067 J-0.161
X70.359 Y7.923 Z-27.995 I4.504 J-0.283 F333.3
X65.997 Y12.716 Z-28.248 I-4.504 J0.283
X61.343 Y8.206 Z-28.5 I-0.142 J-4.51
G1 Y7.918 F1800
G3 X62.212 Y7.049 I0.87
G1 X62.788
G3 X63.657 Y7.918 J0.87
G1 Y132.082
G3 X62.788 Y132.951 I-0.87
G1 X62.212
G3 X61.343 Y132.082 J-0.87
G1 Y8.206
G2 X59.062 Y4.344 I-4.41
G3 X60.18 Y0 I1.118 J-2.028
G1 X70.712
X70.706 Y2.262
Y2.269
Y139.363
G2 Y139.385 I2.625
G1 X70.711 Y140
X54.288
X54.294 Y137.738
Y137.731
Y0.637
G2 Y0.615 I-2.625
G1 X54.289 Y0
X60.18
G3 X60.364 Y0.018 Z-28.482 J0.95
X60.535 Y0.069 Z-28.428 I-0.184 J0.932
X60.681 Y0.143 Z-28.34 I-0.355 J0.881
X60.797 Y0.228 Z-28.222 I-0.501 J0.807
X60.882 Y0.31 Z-28.078 I-0.617 J0.722
X60.938 Y0.377 Z-27.914 I-0.702 J0.64
X60.969 Y0.421 Z-27.735 I-0.758 J0.573
X60.979 Y0.437 Z-27.55 I-0.789 J0.529
G0 Z5
X67.524 Y131.342
Z-26.501
G3 X67.534 Y131.355 Z-26.682 I-3.603 J2.717 F333.3
X67.565 Y131.397 Z-26.856 I-3.614 J2.703
X67.614 Y131.465 Z-27.018 I-3.644 J2.661
X67.678 Y131.559 Z-27.161 I-3.693 J2.593
X67.753 Y131.676 Z-27.279 I-3.757 J2.499
X67.834 Y131.812 Z-27.368 I-3.832 J2.383
X67.917 Y131.963 Z-27.426 I-3.913 J2.247
X67.998 Y132.124 Z-27.45 I-3.996 J2.095
X68.433 Y134.058 Z-27.52 I-4.077 J1.934
X59.408 Z-28.015 I-4.512
X68.433 Z-28.51 I4.512
X59.408 Z-29.005 I-4.512
X68.433 Z-29.5 I4.512
X60.585 I-3.924
G1 Y6.46 F1800
G3 X64.415 I1.915
G1 Y134.392
G3 X62.833 Y135.973 I-1.581
G1 X62.166
G3 X60.585 Y134.392 J-1.581
G1 Y134.058
G2 X58.573 Y131.04 I-3.27
G3 X56.561 Y128.022 I1.258 J-3.018
G1 Y0.637
G2 Y0.615 I-2.625
G1 X56.555 Y0.001
X68.446 Y0.004
X68.439 Y2.262
Y2.269
Y139.363
G2 Y139.385 I2.625
G1 X68.445 Y139.999
X56.554 Y139.996
X56.561 Y137.738
Y137.731
Y128.022
G3 X56.836 Y127.678 I0.352
G1 X58.199 Y127.372
G2 X58.37 Y127.279 I-0.077 J-0.344
G1 X64.492 Y121.231
X65.087 Y120.741
G3 X65.365 Y120.872 I0.108 J0.131
G1 Y139.363 Z-30.146 F333.3
G2 Y139.386 I2.625
G1 X65.37 Y140 Z-30.168
X59.629 Z-30.368
X59.635 Y137.738 Z-30.447
Y137.731 Z-30.448
Y136.233 Z-30.5
Y0.637 F1800
G2 Y0.614 I-2.625
G1 X59.63 Y0
X65.371
X65.365 Y2.262
Y2.269
Y139.363
G2 Y139.386 I2.625
G1 X65.37 Y140
X59.629
X59.635 Y137.738
Y137.731
Y136.233
G3 X59.653 Y136.049 Z-30.482 I0.95
X59.704 Y135.878 Z-30.428 I0.932 J0.184
X59.778 Y135.732 Z-30.34 I0.881 J0.355
X59.863 Y135.616 Z-30.222 I0.807 J0.501
X59.945 Y135.531 Z-30.078 I0.722 J0.617
X60.013 Y135.475 Z-29.914 I0.64 J0.702
X60.057 Y135.443 Z-29.735 I0.573 J0.758
X60.072 Y135.433 Z-29.55 I0.529 J0.789
G0 Z15
M9
G28 G91 Z0
G28 X0 Y0
M30
%
