; generated by Slic3r Prusa Edition 1.40.0-alpha1+ on 2018-05-23 at 22:06:13

; 

; external perimeters extrusion width = 0.45mm
; perimeters extrusion width = 0.45mm
; infill extrusion width = 0.45mm
; solid infill extrusion width = 0.45mm
; top infill extrusion width = 0.40mm
; first layer extrusion width = 0.38mm

M107
M190 S60 ; set bed temperature and wait for it to be reached
M104 S205 ; set temperature
G28 ; home all axes
G1 Z5 F5000 ; lift nozzle
; Filament gcode
M109 S205 ; set temperature and wait for it to be reached
G21 ; set units to millimeters
G90 ; use absolute coordinates
M82 ; use absolute distances for extrusion
G92 E0
M106 S255
G1 Z0.250 F7200.000
G1 E-4.00000 F3000.00000
G92 E0
G1 X35.498 Y47.571 F7200.000
G1 E4.00000 F3000.00000
G1 F2100
G1 X36.393 Y46.988 E4.03568
G1 X37.308 Y46.530 E4.06986
G1 X38.383 Y46.144 E4.10799
G1 X39.800 Y45.845 E4.15638
G1 X40.922 Y45.765 E4.19394
G1 X119.006 Y45.765 E6.80197
G1 X120.865 Y45.954 E6.86441
G1 X122.537 Y46.468 E6.92283
G1 X123.824 Y47.118 E6.97097
G1 X125.252 Y48.185 E7.03052
G1 X126.475 Y49.543 E7.09155
G1 X127.386 Y51.069 E7.15091
G1 X128.015 Y52.840 E7.21368
G1 X128.249 Y54.256 E7.26163
G1 X128.247 Y105.786 E8.98276
G1 X128.089 Y106.849 E9.01864
G1 X127.826 Y107.831 E9.05261
G1 X127.451 Y108.795 E9.08716
G1 X126.922 Y109.787 E9.12471
G1 X126.080 Y110.953 E9.17275
G1 X125.361 Y111.712 E9.20765
G1 X124.497 Y112.433 E9.24525
G1 X123.608 Y113.011 E9.28068
G1 X122.692 Y113.470 E9.31488
G1 X121.623 Y113.854 E9.35283
G1 X120.211 Y114.154 E9.40102
G1 X119.112 Y114.234 E9.43784
G1 X76.977 Y114.235 E10.84516
G1 X75.112 Y114.041 E10.90778
G1 X73.358 Y113.490 E10.96921
G1 X37.153 Y98.401 E12.27929
G1 X35.746 Y97.603 E12.33331
G1 X34.761 Y96.827 E12.37519
G1 X33.653 Y95.623 E12.42984
G1 X32.938 Y94.557 E12.47273
G1 X32.483 Y93.647 E12.50671
G1 X32.100 Y92.589 E12.54427
G1 X31.799 Y91.178 E12.59247
G1 X31.718 Y90.125 E12.62774
G1 X31.751 Y54.247 E13.82607
G1 X31.906 Y53.180 E13.86211
G1 X32.175 Y52.162 E13.89726
G1 X32.545 Y51.216 E13.93119
G1 X33.084 Y50.202 E13.96956
G1 X33.913 Y49.056 E14.01678
G1 X34.630 Y48.297 E14.05168
G1 X35.452 Y47.609 E14.08746
G1 X35.658 Y47.856 F7200.000
G1 F2100
G1 X36.565 Y47.260 E14.12369
G1 X37.439 Y46.824 E14.15632
G1 X38.472 Y46.453 E14.19298
G1 X39.849 Y46.162 E14.24000
G1 X40.927 Y46.086 E14.27609
G1 X119.006 Y46.086 E16.88395
G1 X120.803 Y46.269 E16.94430
G1 X122.422 Y46.768 E17.00086
G1 X123.655 Y47.391 E17.04702
G1 X125.034 Y48.421 E17.10450
G1 X126.214 Y49.731 E17.16341
G1 X127.099 Y51.213 E17.22104
G1 X127.705 Y52.924 E17.28167
G1 X127.929 Y54.286 E17.32779
G1 X127.928 Y105.749 E19.04664
G1 X127.775 Y106.780 E19.08148
G1 X127.521 Y107.729 E19.11426
G1 X127.160 Y108.661 E19.14766
G1 X126.649 Y109.617 E19.18389
G1 X125.830 Y110.751 E19.23061
G1 X125.136 Y111.483 E19.26429
G1 X124.305 Y112.176 E19.30043
G1 X123.436 Y112.739 E19.33501
G1 X122.566 Y113.174 E19.36748
G1 X121.534 Y113.546 E19.40414
G1 X120.162 Y113.836 E19.45097
G1 X119.100 Y113.913 E19.48653
G1 X76.978 Y113.914 E20.89343
G1 X75.181 Y113.727 E20.95379
G1 X73.482 Y113.194 E21.01326
G1 X37.297 Y98.113 E22.32259
G1 X35.926 Y97.337 E22.37522
G1 X34.979 Y96.591 E22.41550
G1 X33.903 Y95.421 E22.46857
G1 X33.210 Y94.384 E22.51023
G1 X32.778 Y93.521 E22.54247
G1 X32.409 Y92.500 E22.57875
G1 X32.116 Y91.128 E22.62558
G1 X32.039 Y90.112 E22.65963
G1 X32.070 Y54.279 E23.85648
G1 X32.220 Y53.248 E23.89126
G1 X32.480 Y52.264 E23.92525
G1 X32.834 Y51.356 E23.95779
G1 X33.354 Y50.375 E23.99489
G1 X34.162 Y49.259 E24.04092
G1 X34.852 Y48.529 E24.07446
G1 X35.612 Y47.894 E24.10752
G1 X35.817 Y48.141 F7200.000
G1 F2100
G1 X36.736 Y47.533 E24.14430
G1 X37.668 Y47.078 E24.17896
G1 X38.967 Y46.653 E24.22460
G1 X40.009 Y46.465 E24.25996
G1 X40.938 Y46.408 E24.29105
G1 X119.005 Y46.407 E26.89854
G1 X120.741 Y46.585 E26.95682
G1 X122.306 Y47.067 E27.01151
G1 X123.486 Y47.665 E27.05571
G1 X124.820 Y48.661 E27.11128
G1 X125.958 Y49.924 E27.16808
G1 X126.809 Y51.352 E27.22360
G1 X127.395 Y53.008 E27.28227
G1 X127.609 Y54.317 E27.32656
G1 X127.608 Y105.712 E29.04318
G1 X127.462 Y106.707 E29.07678
G1 X127.219 Y107.621 E29.10837
G1 X126.870 Y108.521 E29.14062
G1 X126.377 Y109.446 E29.17562
G1 X125.579 Y110.550 E29.22110
G1 X124.910 Y111.254 E29.25355
G1 X124.108 Y111.922 E29.28841
G1 X123.265 Y112.467 E29.32194
G1 X122.435 Y112.880 E29.35289
G1 X121.444 Y113.237 E29.38807
G1 X120.108 Y113.519 E29.43371
G1 X119.089 Y113.592 E29.46783
G1 X76.984 Y113.593 E30.87414
G1 X75.243 Y113.412 E30.93260
G1 X73.606 Y112.897 E30.98993
G1 X37.436 Y97.824 E32.29872
G1 X36.102 Y97.068 E32.34993
G1 X35.196 Y96.354 E32.38844
G1 X34.153 Y95.220 E32.43991
G1 X33.485 Y94.218 E32.48016
G1 X33.072 Y93.390 E32.51104
G1 X32.717 Y92.410 E32.54586
G1 X32.434 Y91.079 E32.59132
G1 X32.360 Y90.094 E32.62431
G1 X32.390 Y54.309 E33.81953
G1 X32.534 Y53.316 E33.85306
G1 X32.785 Y52.366 E33.88587
G1 X33.125 Y51.491 E33.91721
G1 X33.628 Y50.544 E33.95304
G1 X34.412 Y49.461 E33.99768
G1 X35.078 Y48.758 E34.03005
G1 X35.771 Y48.179 E34.06020
G1 X35.977 Y48.425 F7200.000
G1 F2100
G1 X36.084 Y48.336 E34.06485
G1 X36.902 Y47.808 E34.09737
G1 X37.790 Y47.375 E34.13040
G1 X39.055 Y46.962 E34.17483
G1 X40.053 Y46.783 E34.20871
G1 X40.943 Y46.729 E34.23848
G1 X119.005 Y46.729 E36.84578
G1 X120.679 Y46.900 E36.90200
G1 X122.185 Y47.365 E36.95464
G1 X123.314 Y47.936 E36.99689
G1 X124.598 Y48.893 E37.05038
G1 X125.698 Y50.113 E37.10523
G1 X126.520 Y51.491 E37.15883
G1 X127.085 Y53.092 E37.21553
G1 X127.288 Y54.342 E37.25781
G1 X127.288 Y105.681 E38.97258
G1 X127.141 Y106.675 E39.00613
G1 X126.879 Y107.621 E39.03892
G1 X126.522 Y108.503 E39.07070
G1 X125.880 Y109.624 E39.11385
G1 X125.244 Y110.450 E39.14868
G1 X124.610 Y111.096 E39.17889
G1 X123.891 Y111.682 E39.20989
G1 X123.099 Y112.191 E39.24133
G1 X122.309 Y112.585 E39.27079
G1 X121.360 Y112.927 E39.30450
G1 X120.064 Y113.201 E39.34875
G1 X119.082 Y113.271 E39.38161
G1 X76.985 Y113.271 E40.78769
G1 X75.305 Y113.097 E40.84408
G1 X73.724 Y112.599 E40.89945
G1 X37.570 Y97.531 E42.20769
G1 X36.278 Y96.799 E42.25731
G1 X35.410 Y96.114 E42.29423
G1 X34.400 Y95.014 E42.34409
G1 X33.757 Y94.046 E42.38290
G1 X33.367 Y93.264 E42.41210
G1 X33.026 Y92.320 E42.44564
G1 X32.751 Y91.024 E42.48989
G1 X32.681 Y90.081 E42.52147
G1 X32.711 Y54.339 E43.71526
G1 X32.849 Y53.378 E43.74770
G1 X33.090 Y52.467 E43.77917
G1 X33.417 Y51.626 E43.80931
G1 X33.899 Y50.716 E43.84368
G1 X34.661 Y49.663 E43.88711
G1 X35.304 Y48.986 E43.91830
G1 X35.931 Y48.464 E43.94554
G1 E39.94554 F3000.00000
G92 E0
G1 X109.365 Y99.450 F7200.000
G1 E4.00000 F3000.00000
G1 F1350
G1 X109.423 Y98.902 E4.01840
G1 X109.586 Y98.399 E4.03606
G1 X109.731 Y98.115 E4.04672
G1 X110.042 Y97.687 E4.06439
G1 X110.451 Y97.318 E4.08278
G1 X110.928 Y97.043 E4.10118
G1 X111.452 Y96.873 E4.11956
G1 X111.968 Y96.818 E4.13691
G1 X112.295 Y96.834 E4.14784
G1 X112.814 Y96.944 E4.16557
G1 X113.317 Y97.168 E4.18396
G1 X113.763 Y97.492 E4.20236
G1 X114.132 Y97.901 E4.22076
G1 X114.407 Y98.378 E4.23916
G1 X114.577 Y98.902 E4.25756
G1 X114.635 Y99.450 E4.27595
G1 X114.577 Y99.998 E4.29435
G1 X114.407 Y100.522 E4.31275
G1 X114.132 Y100.999 E4.33114
G1 X113.778 Y101.392 E4.34881
G1 X113.530 Y101.593 E4.35947
G1 X113.072 Y101.857 E4.37713
G1 X112.548 Y102.027 E4.39553
G1 X112.000 Y102.085 E4.41393
G1 X111.452 Y102.027 E4.43233
G1 X110.929 Y101.857 E4.45071
G1 X110.479 Y101.598 E4.46805
G1 X110.224 Y101.393 E4.47898
G1 X109.868 Y100.999 E4.49671
G1 X109.593 Y100.522 E4.51511
G1 X109.423 Y99.998 E4.53351
G1 X109.372 Y99.510 E4.54990
G1 X109.688 Y99.450 F7200.000
G1 F1350
G1 X109.739 Y98.969 E4.56604
G1 X109.884 Y98.523 E4.58173
G1 X110.006 Y98.283 E4.59070
G1 X110.282 Y97.903 E4.60639
G1 X110.641 Y97.580 E4.62253
G1 X111.060 Y97.338 E4.63868
G1 X111.519 Y97.189 E4.65481
G1 X111.977 Y97.140 E4.67020
G1 X112.254 Y97.154 E4.67944
G1 X112.714 Y97.251 E4.69517
G1 X113.156 Y97.448 E4.71131
G1 X113.547 Y97.732 E4.72745
G1 X113.870 Y98.091 E4.74359
G1 X114.112 Y98.510 E4.75974
G1 X114.261 Y98.969 E4.77588
G1 X114.312 Y99.450 E4.79202
G1 X114.261 Y99.931 E4.80816
G1 X114.112 Y100.390 E4.82430
G1 X113.870 Y100.809 E4.84044
G1 X113.556 Y101.158 E4.85614
G1 X113.347 Y101.327 E4.86510
G1 X112.940 Y101.562 E4.88080
G1 X112.481 Y101.711 E4.89694
G1 X112.000 Y101.762 E4.91308
G1 X111.519 Y101.711 E4.92922
G1 X111.060 Y101.562 E4.94535
G1 X110.661 Y101.332 E4.96075
G1 X110.445 Y101.159 E4.96998
G1 X110.130 Y100.809 E4.98571
G1 X109.888 Y100.390 E5.00185
G1 X109.739 Y99.931 E5.01800
G1 X109.695 Y99.510 E5.03213
G1 X110.011 Y99.450 F7200.000
G1 F1350
G1 X110.055 Y99.037 E5.04602
G1 X110.182 Y98.646 E5.05974
G1 X110.281 Y98.452 E5.06702
G1 X110.522 Y98.119 E5.08074
G1 X110.831 Y97.841 E5.09462
G1 X111.191 Y97.633 E5.10851
G1 X111.586 Y97.505 E5.12239
G1 X111.987 Y97.462 E5.13583
G1 X112.212 Y97.473 E5.14337
G1 X112.614 Y97.559 E5.15711
G1 X112.994 Y97.728 E5.17099
G1 X113.331 Y97.972 E5.18488
G1 X113.609 Y98.281 E5.19877
G1 X113.817 Y98.641 E5.21265
G1 X113.945 Y99.037 E5.22654
G1 X113.989 Y99.450 E5.24042
G1 X113.945 Y99.863 E5.25430
G1 X113.817 Y100.259 E5.26819
G1 X113.609 Y100.619 E5.28208
G1 X113.334 Y100.924 E5.29580
G1 X113.165 Y101.061 E5.30307
G1 X112.809 Y101.267 E5.31679
G1 X112.413 Y101.395 E5.33068
G1 X112.000 Y101.439 E5.34456
G1 X111.587 Y101.395 E5.35845
G1 X111.191 Y101.267 E5.37233
G1 X110.842 Y101.066 E5.38578
G1 X110.666 Y100.924 E5.39332
G1 X110.391 Y100.619 E5.40705
G1 X110.183 Y100.259 E5.42094
G1 X110.055 Y99.863 E5.43482
G1 X110.018 Y99.510 E5.44670
G1 X109.665 Y99.250 F7200.000
G1 E1.44670 F3000.00000
G92 E0
G1 X99.064 Y86.797 F7200.000
G1 E4.00000 F3000.00000
G1 F1350
G1 X98.752 Y87.050 E4.01339
G1 X98.416 Y87.268 E4.02679
G1 X98.058 Y87.450 E4.04019
G1 X97.684 Y87.594 E4.05358
G1 X97.297 Y87.698 E4.06697
G1 X96.901 Y87.760 E4.08037
G1 X96.500 Y87.781 E4.09376
G1 X96.099 Y87.760 E4.10716
G1 X95.703 Y87.698 E4.12055
G1 X95.316 Y87.594 E4.13395
G1 X94.942 Y87.450 E4.14734
G1 X94.584 Y87.268 E4.16074
G1 X94.248 Y87.050 E4.17414
G1 X93.936 Y86.797 E4.18753
G1 X93.653 Y86.514 E4.20092
G1 X93.400 Y86.202 E4.21432
G1 X93.182 Y85.866 E4.22771
G1 X93.000 Y85.508 E4.24111
G1 X92.856 Y85.134 E4.25450
G1 X92.752 Y84.747 E4.26789
G1 X92.690 Y84.351 E4.28129
G1 X92.669 Y83.950 E4.29468
G1 X92.690 Y83.549 E4.30808
G1 X92.752 Y83.153 E4.32147
G1 X92.856 Y82.766 E4.33487
G1 X93.000 Y82.392 E4.34826
G1 X93.182 Y82.034 E4.36165
G1 X93.400 Y81.698 E4.37505
G1 X93.653 Y81.386 E4.38845
G1 X93.936 Y81.103 E4.40184
G1 X94.248 Y80.850 E4.41523
G1 X94.584 Y80.632 E4.42864
G1 X94.942 Y80.450 E4.44202
G1 X95.316 Y80.306 E4.45542
G1 X95.703 Y80.202 E4.46882
G1 X96.100 Y80.140 E4.48221
G1 X96.500 Y80.119 E4.49560
G1 X96.900 Y80.140 E4.50900
G1 X97.297 Y80.202 E4.52239
G1 X97.684 Y80.306 E4.53579
G1 X98.058 Y80.450 E4.54918
G1 X98.416 Y80.632 E4.56257
G1 X98.752 Y80.850 E4.57598
G1 X99.064 Y81.103 E4.58937
G1 X99.347 Y81.386 E4.60276
G1 X99.600 Y81.698 E4.61615
G1 X99.818 Y82.034 E4.62955
G1 X100.000 Y82.392 E4.64295
G1 X100.144 Y82.766 E4.65634
G1 X100.248 Y83.153 E4.66974
G1 X100.310 Y83.549 E4.68313
G1 X100.331 Y83.950 E4.69653
G1 X100.310 Y84.351 E4.70992
G1 X100.248 Y84.747 E4.72331
G1 X100.144 Y85.134 E4.73671
G1 X100.000 Y85.508 E4.75010
G1 X99.818 Y85.866 E4.76350
G1 X99.600 Y86.202 E4.77689
G1 X99.347 Y86.514 E4.79029
G1 X99.106 Y86.755 E4.80168
G1 X98.848 Y86.558 F7200.000
G1 F1350
G1 X98.563 Y86.789 E4.81394
G1 X98.255 Y86.989 E4.82622
G1 X97.927 Y87.156 E4.83849
G1 X97.584 Y87.288 E4.85076
G1 X97.230 Y87.383 E4.86303
G1 X96.867 Y87.440 E4.87529
G1 X96.500 Y87.460 E4.88757
G1 X96.133 Y87.440 E4.89984
G1 X95.770 Y87.383 E4.91210
G1 X95.415 Y87.288 E4.92438
G1 X95.073 Y87.156 E4.93665
G1 X94.745 Y86.989 E4.94891
G1 X94.437 Y86.789 E4.96119
G1 X94.152 Y86.558 E4.97345
G1 X93.892 Y86.298 E4.98572
G1 X93.661 Y86.013 E4.99799
G1 X93.461 Y85.705 E5.01026
G1 X93.294 Y85.377 E5.02253
G1 X93.162 Y85.034 E5.03480
G1 X93.067 Y84.680 E5.04707
G1 X93.010 Y84.317 E5.05934
G1 X92.990 Y83.950 E5.07161
G1 X93.010 Y83.583 E5.08388
G1 X93.067 Y83.220 E5.09615
G1 X93.162 Y82.865 E5.10842
G1 X93.294 Y82.523 E5.12069
G1 X93.461 Y82.195 E5.13296
G1 X93.661 Y81.887 E5.14523
G1 X93.892 Y81.602 E5.15750
G1 X94.152 Y81.342 E5.16976
G1 X94.437 Y81.111 E5.18204
G1 X94.745 Y80.911 E5.19431
G1 X95.073 Y80.744 E5.20658
G1 X95.415 Y80.612 E5.21884
G1 X95.770 Y80.517 E5.23112
G1 X96.133 Y80.460 E5.24339
G1 X96.500 Y80.440 E5.25566
G1 X96.867 Y80.460 E5.26793
G1 X97.230 Y80.517 E5.28019
G1 X97.585 Y80.612 E5.29247
G1 X97.927 Y80.744 E5.30474
G1 X98.255 Y80.911 E5.31700
G1 X98.563 Y81.111 E5.32928
G1 X98.848 Y81.342 E5.34155
G1 X99.108 Y81.602 E5.35381
G1 X99.339 Y81.887 E5.36608
G1 X99.539 Y82.195 E5.37835
G1 X99.706 Y82.523 E5.39062
G1 X99.838 Y82.865 E5.40289
G1 X99.933 Y83.220 E5.41516
G1 X99.990 Y83.583 E5.42743
G1 X100.010 Y83.950 E5.43970
G1 X99.990 Y84.317 E5.45197
G1 X99.933 Y84.680 E5.46424
G1 X99.838 Y85.034 E5.47651
G1 X99.706 Y85.377 E5.48878
G1 X99.539 Y85.705 E5.50105
G1 X99.339 Y86.013 E5.51332
G1 X99.108 Y86.298 E5.52559
G1 X98.891 Y86.516 E5.53585
G1 X98.633 Y86.319 F7200.000
G1 F1350
G1 X98.374 Y86.529 E5.54700
G1 X98.094 Y86.711 E5.55814
G1 X97.797 Y86.862 E5.56929
G1 X97.485 Y86.982 E5.58044
G1 X97.163 Y87.068 E5.59158
G1 X96.833 Y87.120 E5.60272
G1 X96.500 Y87.138 E5.61387
G1 X96.167 Y87.120 E5.62501
G1 X95.837 Y87.068 E5.63616
G1 X95.515 Y86.982 E5.64730
G1 X95.203 Y86.862 E5.65845
G1 X94.906 Y86.711 E5.66959
G1 X94.626 Y86.529 E5.68074
G1 X94.367 Y86.319 E5.69188
G1 X94.131 Y86.083 E5.70302
G1 X93.921 Y85.824 E5.71417
G1 X93.739 Y85.544 E5.72531
G1 X93.588 Y85.247 E5.73646
G1 X93.468 Y84.935 E5.74761
G1 X93.382 Y84.613 E5.75875
G1 X93.330 Y84.283 E5.76989
G1 X93.312 Y83.950 E5.78104
G1 X93.330 Y83.617 E5.79218
G1 X93.382 Y83.287 E5.80333
G1 X93.468 Y82.965 E5.81447
G1 X93.588 Y82.653 E5.82562
G1 X93.739 Y82.356 E5.83676
G1 X93.921 Y82.076 E5.84791
G1 X94.131 Y81.817 E5.85905
G1 X94.367 Y81.581 E5.87019
G1 X94.626 Y81.371 E5.88134
G1 X94.906 Y81.189 E5.89249
G1 X95.203 Y81.038 E5.90363
G1 X95.515 Y80.918 E5.91477
G1 X95.837 Y80.832 E5.92592
G1 X96.167 Y80.780 E5.93706
G1 X96.500 Y80.762 E5.94821
G1 X96.833 Y80.780 E5.95935
G1 X97.163 Y80.832 E5.97050
G1 X97.485 Y80.918 E5.98164
G1 X97.797 Y81.038 E5.99279
G1 X98.094 Y81.189 E6.00393
G1 X98.374 Y81.371 E6.01508
G1 X98.633 Y81.581 E6.02622
G1 X98.869 Y81.817 E6.03736
G1 X99.079 Y82.076 E6.04851
G1 X99.261 Y82.356 E6.05966
G1 X99.412 Y82.653 E6.07080
G1 X99.532 Y82.965 E6.08194
G1 X99.618 Y83.287 E6.09309
G1 X99.670 Y83.617 E6.10423
G1 X99.688 Y83.950 E6.11538
G1 X99.670 Y84.283 E6.12652
G1 X99.618 Y84.613 E6.13767
G1 X99.532 Y84.935 E6.14881
G1 X99.412 Y85.247 E6.15996
G1 X99.261 Y85.544 E6.17110
G1 X99.079 Y85.824 E6.18225
G1 X98.869 Y86.083 E6.19339
G1 X98.675 Y86.277 E6.20253
G1 X98.702 Y86.645 F7200.000
G1 E2.20253 F3000.00000
G92 E0
G1 X110.928 Y70.857 F7200.000
G1 E4.00000 F3000.00000
G1 F1350
G1 X110.470 Y70.593 E4.01766
G1 X110.222 Y70.392 E4.02832
G1 X109.868 Y69.999 E4.04599
G1 X109.593 Y69.522 E4.06438
G1 X109.423 Y68.998 E4.08278
G1 X109.365 Y68.450 E4.10118
G1 X109.423 Y67.902 E4.11957
G1 X109.586 Y67.399 E4.13724
G1 X109.731 Y67.115 E4.14790
G1 X110.042 Y66.687 E4.16557
G1 X110.451 Y66.318 E4.18396
G1 X110.928 Y66.043 E4.20236
G1 X111.452 Y65.873 E4.22074
G1 X111.968 Y65.818 E4.23808
G1 X112.295 Y65.834 E4.24902
G1 X112.814 Y65.944 E4.26674
G1 X113.317 Y66.168 E4.28514
G1 X113.763 Y66.492 E4.30354
G1 X114.132 Y66.901 E4.32194
G1 X114.407 Y67.378 E4.34034
G1 X114.577 Y67.902 E4.35874
G1 X114.635 Y68.450 E4.37713
G1 X114.577 Y68.998 E4.39553
G1 X114.407 Y69.522 E4.41393
G1 X114.132 Y69.999 E4.43232
G1 X113.763 Y70.408 E4.45071
G1 X113.344 Y70.713 E4.46805
G1 X113.053 Y70.863 E4.47898
G1 X112.548 Y71.027 E4.49671
G1 X112.000 Y71.085 E4.51511
G1 X111.452 Y71.027 E4.53350
G1 X110.985 Y70.876 E4.54990
G1 X111.060 Y70.562 F7200.000
G1 F1350
G1 X110.653 Y70.327 E4.56559
G1 X110.444 Y70.158 E4.57456
G1 X110.130 Y69.809 E4.59025
G1 X109.888 Y69.390 E4.60639
G1 X109.739 Y68.931 E4.62254
G1 X109.688 Y68.450 E4.63868
