; generated by Slic3r Prusa Edition 1.40.0-alpha1+ on 2018-06-01 at 18:55:22

; 

; external perimeters extrusion width = 0.45mm
; perimeters extrusion width = 0.45mm
; infill extrusion width = 0.45mm
; solid infill extrusion width = 0.45mm
; top infill extrusion width = 0.40mm
; first layer extrusion width = 0.52mm

M107
M190 S60 ; set bed temperature and wait for it to be reached
M104 S210 ; set temperature
G28 ; home all axes
G1 Z5 F5000 ; lift nozzle
; Filament gcode
M109 S210 ; set temperature and wait for it to be reached
G21 ; set units to millimeters
G90 ; use absolute coordinates
M83 ; use relative distances for extrusion
M106 S255
G1 Z0.350 F7200.000
G1 E-4.00000 F3000.00000
G1 X50.753 Y51.501 F7200.000
G1 E4.00000 F3000.00000
G1 F2100
G1 X51.908 Y50.589 E0.09637
G1 X53.746 Y49.530 E0.13885
G1 X55.126 Y48.985 E0.09716
G1 X56.591 Y48.614 E0.09892
G1 X57.634 Y48.458 E0.06901
G1 X58.838 Y48.396 E0.07895
G1 X100.870 Y48.396 E2.75164
G1 X102.097 Y48.458 E0.08043
G1 X103.182 Y48.622 E0.07180
G1 X104.816 Y49.059 E0.11074
G1 X105.837 Y49.460 E0.07181
G1 X106.935 Y50.021 E0.08075
G1 X107.971 Y50.691 E0.08075
G1 X108.804 Y51.353 E0.06965
G1 X110.013 Y52.554 E0.11157
G1 X110.707 Y53.422 E0.07272
G1 X111.357 Y54.421 E0.07804
G1 X112.061 Y55.836 E0.10345
G1 X112.435 Y56.838 E0.07005
G1 X112.755 Y58.047 E0.08183
G1 X112.946 Y59.262 E0.08051
G1 X113.014 Y60.502 E0.08130
G1 X113.150 Y101.642 E2.69324
G1 X113.053 Y103.125 E0.09731
G1 X112.880 Y104.172 E0.06949
G1 X112.585 Y105.282 E0.07519
G1 X112.112 Y106.538 E0.08786
G1 X111.524 Y107.696 E0.08502
G1 X110.816 Y108.784 E0.08494
G1 X109.949 Y109.840 E0.08946
G1 X90.437 Y128.946 E1.78777
G1 X89.047 Y130.087 E0.11773
G1 X87.690 Y130.967 E0.10587
G1 X86.223 Y131.711 E0.10770
G1 X84.712 Y132.286 E0.10584
G1 X82.965 Y132.733 E0.11805
G1 X81.609 Y132.940 E0.08975
G1 X80.256 Y133.018 E0.08873
G1 X78.624 Y132.959 E0.10691
G1 X76.856 Y132.700 E0.11697
G1 X75.330 Y132.299 E0.10334
G1 X73.751 Y131.700 E0.11055
G1 X72.291 Y130.956 E0.10728
G1 X70.926 Y130.067 E0.10662
G1 X69.579 Y128.961 E0.11409
G1 X50.048 Y109.839 E1.78936
G1 X49.193 Y108.797 E0.08826
G1 X48.516 Y107.764 E0.08085
G1 X47.923 Y106.616 E0.08455
G1 X47.516 Y105.584 E0.07263
G1 X47.080 Y103.961 E0.11001
G1 X46.914 Y102.868 E0.07241
G1 X46.851 Y101.655 E0.07948
G1 X46.715 Y60.502 E2.69415
G1 X46.814 Y59.031 E0.09647
G1 X46.984 Y58.007 E0.06799
G1 X47.279 Y56.889 E0.07569
G1 X47.776 Y55.582 E0.09149
G1 X48.464 Y54.274 E0.09679
G1 X49.691 Y52.584 E0.13672
G1 X50.711 Y51.544 E0.09534
G1 X51.032 Y51.871 F7200.000
G1 F2100
G1 X51.165 Y51.741 E0.01214
G1 X52.838 Y50.521 E0.13558
G1 X54.098 Y49.861 E0.09312
G1 X55.435 Y49.362 E0.09342
G1 X57.432 Y48.937 E0.13362
G1 X58.856 Y48.846 E0.09343
G1 X100.870 Y48.846 E2.75045
G1 X102.058 Y48.907 E0.07789
G1 X103.110 Y49.066 E0.06960
G1 X104.664 Y49.482 E0.10535
G1 X105.654 Y49.871 E0.06960
G1 X106.712 Y50.411 E0.07778
G1 X107.714 Y51.060 E0.07813
G1 X108.525 Y51.706 E0.06789
G1 X109.670 Y52.845 E0.10577
G1 X110.340 Y53.682 E0.07018
G1 X110.975 Y54.658 E0.07618
G1 X111.534 Y55.745 E0.08006
G1 X111.914 Y56.710 E0.06791
G1 X112.320 Y58.165 E0.09889
G1 X112.499 Y59.315 E0.07616
G1 X112.565 Y60.505 E0.07802
G1 X112.700 Y101.642 E2.69302
G1 X112.608 Y103.057 E0.09288
G1 X112.441 Y104.074 E0.06745
G1 X112.153 Y105.159 E0.07346
G1 X111.700 Y106.357 E0.08389
G1 X111.133 Y107.472 E0.08186
G1 X110.452 Y108.520 E0.08181
G1 X109.618 Y109.536 E0.08604
G1 X90.123 Y128.624 E1.78615
G1 X88.790 Y129.718 E0.11287
G1 X87.469 Y130.575 E0.10311
G1 X86.050 Y131.296 E0.10417
G1 X84.579 Y131.856 E0.10309
G1 X82.891 Y132.289 E0.11403
G1 X81.567 Y132.493 E0.08776
G1 X80.233 Y132.569 E0.08745
G1 X78.649 Y132.510 E0.10376
G1 X76.941 Y132.258 E0.11301
G1 X75.454 Y131.866 E0.10071
G1 X73.927 Y131.286 E0.10689
G1 X72.515 Y130.566 E0.10377
G1 X71.190 Y129.703 E0.10349
G1 X69.892 Y128.638 E0.10992
G1 X50.378 Y109.533 E1.78780
G1 X49.555 Y108.530 E0.08494
G1 X48.901 Y107.531 E0.07820
G1 X48.330 Y106.425 E0.08145
G1 X47.935 Y105.420 E0.07068
G1 X47.523 Y103.881 E0.10432
G1 X47.362 Y102.826 E0.06987
G1 X47.301 Y101.653 E0.07687
G1 X47.165 Y60.503 E2.69392
G1 X47.258 Y59.099 E0.09211
G1 X47.424 Y58.100 E0.06627
G1 X47.712 Y57.012 E0.07367
G1 X48.249 Y55.634 E0.09687
G1 X49.276 Y53.848 E0.13486
G1 X50.159 Y52.730 E0.09321
G1 X50.990 Y51.913 E0.07632
G1 E-4.00000 F3000.00000
G1 X85.208 Y124.541 F7200.000
G1 E4.00000 F3000.00000
G1 F1800
G1 X85.092 Y124.634 E0.00971
G1 X84.332 Y125.128 E0.05937
G1 X83.524 Y125.540 E0.05937
G1 X82.677 Y125.865 E0.05937
G1 X81.801 Y126.100 E0.05937
G1 X80.906 Y126.241 E0.05936
G1 X80.000 Y126.289 E0.05937
G1 X79.094 Y126.241 E0.05937
G1 X78.199 Y126.100 E0.05936
G1 X77.323 Y125.865 E0.05937
G1 X76.476 Y125.540 E0.05937
G1 X75.668 Y125.128 E0.05937
G1 X74.907 Y124.634 E0.05942
G1 X74.196 Y124.056 E0.05998
G1 X73.561 Y123.422 E0.05870
G1 X72.991 Y122.717 E0.05936
G1 X72.497 Y121.957 E0.05937
G1 X72.085 Y121.149 E0.05937
G1 X71.760 Y120.302 E0.05937
G1 X71.525 Y119.426 E0.05937
G1 X71.384 Y118.531 E0.05936
G1 X71.336 Y117.625 E0.05937
G1 X71.384 Y116.719 E0.05937
G1 X71.525 Y115.824 E0.05936
G1 X71.760 Y114.948 E0.05937
G1 X72.085 Y114.100 E0.05941
G1 X72.502 Y113.284 E0.05999
G1 X72.991 Y112.533 E0.05870
G1 X73.561 Y111.828 E0.05936
G1 X74.203 Y111.186 E0.05937
G1 X74.908 Y110.616 E0.05937
G1 X75.668 Y110.122 E0.05937
G1 X76.476 Y109.710 E0.05937
G1 X77.323 Y109.385 E0.05937
G1 X78.199 Y109.150 E0.05937
G1 X79.094 Y109.009 E0.05936
G1 X79.990 Y108.962 E0.05870
G1 X80.905 Y109.008 E0.05999
G1 X81.801 Y109.150 E0.05941
G1 X82.677 Y109.385 E0.05937
G1 X83.524 Y109.710 E0.05937
G1 X84.332 Y110.122 E0.05937
G1 X85.092 Y110.616 E0.05937
G1 X85.797 Y111.186 E0.05937
G1 X86.439 Y111.828 E0.05937
G1 X87.009 Y112.533 E0.05937
G1 X87.503 Y113.293 E0.05937
G1 X87.915 Y114.101 E0.05937
G1 X88.240 Y114.948 E0.05937
G1 X88.475 Y115.824 E0.05937
G1 X88.616 Y116.719 E0.05936
G1 X88.664 Y117.625 E0.05937
G1 X88.616 Y118.531 E0.05937
G1 X88.475 Y119.426 E0.05936
G1 X88.240 Y120.302 E0.05937
G1 X87.915 Y121.149 E0.05937
G1 X87.503 Y121.957 E0.05937
G1 X87.009 Y122.717 E0.05937
G1 X86.439 Y123.422 E0.05937
G1 X85.797 Y124.064 E0.05937
G1 X85.254 Y124.503 E0.04573
G1 X84.925 Y124.191 F7200.000
G1 F1800
G1 X84.107 Y124.738 E0.06441
G1 X83.341 Y125.128 E0.05628
G1 X82.538 Y125.436 E0.05628
G1 X81.708 Y125.659 E0.05628
G1 X80.859 Y125.793 E0.05628
G1 X80.000 Y125.838 E0.05628
G1 X79.141 Y125.793 E0.05628
G1 X78.292 Y125.659 E0.05628
G1 X77.462 Y125.436 E0.05628
G1 X76.659 Y125.128 E0.05628
G1 X75.893 Y124.738 E0.05628
G1 X75.172 Y124.269 E0.05631
G1 X74.497 Y123.722 E0.05690
G1 X73.896 Y123.121 E0.05563
G1 X73.355 Y122.453 E0.05628
G1 X72.887 Y121.732 E0.05628
G1 X72.497 Y120.966 E0.05628
G1 X72.189 Y120.163 E0.05628
G1 X71.966 Y119.333 E0.05628
G1 X71.832 Y118.484 E0.05628
G1 X71.787 Y117.625 E0.05628
G1 X71.832 Y116.766 E0.05628
G1 X71.966 Y115.917 E0.05628
G1 X72.189 Y115.087 E0.05628
G1 X72.497 Y114.284 E0.05631
G1 X72.892 Y113.510 E0.05690
G1 X73.355 Y112.797 E0.05563
G1 X73.896 Y112.129 E0.05628
G1 X74.504 Y111.521 E0.05628
G1 X75.172 Y110.980 E0.05628
G1 X75.893 Y110.512 E0.05628
G1 X76.659 Y110.122 E0.05628
G1 X77.462 Y109.814 E0.05628
G1 X78.292 Y109.591 E0.05628
G1 X79.141 Y109.457 E0.05628
G1 X79.990 Y109.412 E0.05563
G1 X80.858 Y109.457 E0.05690
G1 X81.708 Y109.591 E0.05630
G1 X82.538 Y109.814 E0.05628
G1 X83.341 Y110.122 E0.05628
G1 X84.107 Y110.512 E0.05628
G1 X84.828 Y110.980 E0.05628
G1 X85.496 Y111.521 E0.05628
G1 X86.104 Y112.129 E0.05628
G1 X86.645 Y112.797 E0.05628
G1 X87.113 Y113.518 E0.05628
G1 X87.503 Y114.284 E0.05628
G1 X87.811 Y115.087 E0.05628
G1 X88.034 Y115.917 E0.05628
G1 X88.168 Y116.766 E0.05628
G1 X88.213 Y117.625 E0.05628
G1 X88.168 Y118.484 E0.05628
G1 X88.034 Y119.333 E0.05628
G1 X87.811 Y120.163 E0.05628
G1 X87.503 Y120.966 E0.05628
G1 X87.113 Y121.732 E0.05628
G1 X86.645 Y122.453 E0.05628
G1 X86.104 Y123.121 E0.05628
G1 X85.496 Y123.729 E0.05628
G1 X84.971 Y124.153 E0.04418
G1 X84.642 Y123.842 F7200.000
G1 F1350
G1 X83.881 Y124.348 E0.05979
G1 X83.157 Y124.717 E0.05320
G1 X82.399 Y125.008 E0.05319
G1 X81.614 Y125.218 E0.05319
G1 X80.811 Y125.345 E0.05319
G1 X80.000 Y125.388 E0.05320
G1 X79.189 Y125.345 E0.05320
G1 X78.386 Y125.218 E0.05319
G1 X77.601 Y125.008 E0.05319
G1 X76.843 Y124.717 E0.05319
G1 X76.119 Y124.348 E0.05320
G1 X75.437 Y123.905 E0.05321
G1 X74.799 Y123.387 E0.05381
G1 X74.231 Y122.819 E0.05256
G1 X73.720 Y122.188 E0.05319
G1 X73.277 Y121.506 E0.05320
G1 X72.908 Y120.782 E0.05320
G1 X72.617 Y120.024 E0.05319
G1 X72.407 Y119.239 E0.05319
G1 X72.280 Y118.436 E0.05319
G1 X72.237 Y117.625 E0.05320
G1 X72.280 Y116.814 E0.05320
G1 X72.407 Y116.011 E0.05319
G1 X72.617 Y115.226 E0.05319
G1 X72.908 Y114.467 E0.05320
G1 X73.282 Y113.735 E0.05381
G1 X73.720 Y113.062 E0.05256
G1 X74.231 Y112.431 E0.05319
G1 X74.806 Y111.856 E0.05319
G1 X75.437 Y111.345 E0.05319
G1 X76.119 Y110.902 E0.05320
G1 X76.843 Y110.533 E0.05320
G1 X77.601 Y110.242 E0.05319
G1 X78.386 Y110.032 E0.05319
G1 X79.189 Y109.905 E0.05319
G1 X79.990 Y109.863 E0.05257
G1 X80.811 Y109.905 E0.05381
G1 X81.614 Y110.032 E0.05320
G1 X82.399 Y110.242 E0.05319
G1 X83.157 Y110.533 E0.05319
G1 X83.881 Y110.902 E0.05320
G1 X84.563 Y111.345 E0.05320
G1 X85.194 Y111.856 E0.05319
G1 X85.769 Y112.431 E0.05319
G1 X86.280 Y113.062 E0.05319
G1 X86.723 Y113.744 E0.05320
G1 X87.092 Y114.468 E0.05320
G1 X87.383 Y115.226 E0.05319
G1 X87.593 Y116.011 E0.05319
G1 X87.720 Y116.814 E0.05319
G1 X87.763 Y117.625 E0.05320
G1 X87.720 Y118.436 E0.05320
G1 X87.593 Y119.239 E0.05319
G1 X87.383 Y120.024 E0.05319
G1 X87.092 Y120.782 E0.05319
G1 X86.723 Y121.506 E0.05320
G1 X86.280 Y122.188 E0.05320
G1 X85.769 Y122.819 E0.05319
G1 X85.194 Y123.394 E0.05319
G1 X84.688 Y123.804 E0.04264
G1 X84.687 Y124.239 F7200.000
G1 E-4.00000 F3000.00000
G1 X63.023 Y105.248 F7200.000
G1 E4.00000 F3000.00000
G1 F1350
G1 X62.623 Y105.648 E0.03711
G1 X62.182 Y106.005 E0.03709
G1 X61.707 Y106.314 E0.03709
G1 X61.202 Y106.571 E0.03710
G1 X60.673 Y106.774 E0.03710
G1 X60.126 Y106.921 E0.03710
G1 X59.566 Y107.009 E0.03709
G1 X59.000 Y107.039 E0.03710
G1 X58.434 Y107.009 E0.03710
G1 X57.874 Y106.921 E0.03709
G1 X57.327 Y106.774 E0.03710
G1 X56.798 Y106.571 E0.03710
G1 X56.293 Y106.314 E0.03710
G1 X55.818 Y106.005 E0.03709
G1 X55.377 Y105.648 E0.03709
G1 X54.977 Y105.248 E0.03711
G1 X54.620 Y104.807 E0.03709
G1 X54.311 Y104.331 E0.03714
G1 X54.052 Y103.821 E0.03745
G1 X53.851 Y103.298 E0.03670
G1 X53.704 Y102.751 E0.03709
G1 X53.616 Y102.191 E0.03709
G1 X53.586 Y101.625 E0.03710
G1 X53.616 Y101.059 E0.03710
G1 X53.704 Y100.499 E0.03709
G1 X53.851 Y99.952 E0.03709
G1 X54.054 Y99.423 E0.03710
G1 X54.311 Y98.918 E0.03710
G1 X54.620 Y98.443 E0.03709
G1 X54.977 Y98.002 E0.03710
G1 X55.377 Y97.602 E0.03710
G1 X55.818 Y97.245 E0.03709
G1 X56.293 Y96.936 E0.03710
G1 X56.798 Y96.679 E0.03710
G1 X57.327 Y96.476 E0.03710
G1 X57.874 Y96.329 E0.03710
G1 X58.434 Y96.241 E0.03710
G1 X58.994 Y96.211 E0.03670
G1 X59.565 Y96.241 E0.03744
G1 X60.126 Y96.329 E0.03715
G1 X60.673 Y96.476 E0.03710
G1 X61.202 Y96.679 E0.03710
G1 X61.707 Y96.936 E0.03710
G1 X62.182 Y97.245 E0.03710
G1 X62.623 Y97.602 E0.03709
G1 X63.023 Y98.002 E0.03710
G1 X63.380 Y98.443 E0.03710
G1 X63.689 Y98.918 E0.03709
G1 X63.946 Y99.423 E0.03710
G1 X64.149 Y99.952 E0.03710
G1 X64.296 Y100.499 E0.03709
G1 X64.384 Y101.059 E0.03709
G1 X64.414 Y101.625 E0.03710
G1 X64.384 Y102.191 E0.03710
G1 X64.296 Y102.751 E0.03709
G1 X64.149 Y103.298 E0.03709
G1 X63.946 Y103.828 E0.03715
G1 X63.685 Y104.337 E0.03745
G1 X63.380 Y104.807 E0.03670
G1 X63.061 Y105.201 E0.03317
G1 X62.689 Y104.946 F7200.000
G1 F1350
G1 X62.321 Y105.314 E0.03402
G1 X61.917 Y105.640 E0.03401
G1 X61.482 Y105.923 E0.03401
G1 X61.019 Y106.159 E0.03401
G1 X60.534 Y106.345 E0.03401
G1 X60.032 Y106.480 E0.03401
G1 X59.519 Y106.561 E0.03401
G1 X59.000 Y106.588 E0.03401
G1 X58.481 Y106.561 E0.03401
G1 X57.968 Y106.480 E0.03401
G1 X57.466 Y106.345 E0.03401
G1 X56.981 Y106.159 E0.03401
G1 X56.518 Y105.923 E0.03401
G1 X56.083 Y105.640 E0.03401
G1 X55.679 Y105.314 E0.03401
G1 X55.311 Y104.946 E0.03402
G1 X54.985 Y104.542 E0.03401
G1 X54.701 Y104.106 E0.03404
G1 X54.464 Y103.638 E0.03436
G1 X54.280 Y103.159 E0.03363
G1 X54.145 Y102.657 E0.03401
G1 X54.064 Y102.144 E0.03401
G1 X54.037 Y101.625 E0.03401
G1 X54.064 Y101.106 E0.03401
G1 X54.145 Y100.593 E0.03401
G1 X54.280 Y100.091 E0.03401
G1 X54.466 Y99.606 E0.03401
G1 X54.702 Y99.143 E0.03401
G1 X54.985 Y98.708 E0.03401
G1 X55.311 Y98.304 E0.03401
G1 X55.679 Y97.936 E0.03401
G1 X56.083 Y97.610 E0.03401
G1 X56.518 Y97.327 E0.03401
G1 X56.981 Y97.091 E0.03401
G1 X57.466 Y96.905 E0.03401
G1 X57.968 Y96.770 E0.03401
G1 X58.481 Y96.689 E0.03401
G1 X58.994 Y96.662 E0.03363
G1 X59.518 Y96.689 E0.03436
G1 X60.032 Y96.770 E0.03404
G1 X60.534 Y96.905 E0.03401
G1 X61.019 Y97.091 E0.03401
G1 X61.482 Y97.327 E0.03401
G1 X61.917 Y97.610 E0.03401
G1 X62.321 Y97.936 E0.03401
G1 X62.689 Y98.304 E0.03401
G1 X63.015 Y98.708 E0.03401
G1 X63.298 Y99.143 E0.03401
G1 X63.534 Y99.606 E0.03401
G1 X63.720 Y100.091 E0.03401
G1 X63.855 Y100.593 E0.03401
G1 X63.936 Y101.106 E0.03401
G1 X63.963 Y101.625 E0.03401
G1 X63.936 Y102.144 E0.03401
G1 X63.855 Y102.657 E0.03401
G1 X63.720 Y103.159 E0.03401
G1 X63.534 Y103.644 E0.03404
G1 X63.295 Y104.112 E0.03436
G1 X63.015 Y104.542 E0.03363
G1 X62.726 Y104.899 E0.03008
G1 X62.354 Y104.645 F7200.000
G1 F1350
G1 X62.020 Y104.979 E0.03093
G1 X61.653 Y105.276 E0.03092
G1 X61.256 Y105.533 E0.03092
G1 X60.836 Y105.748 E0.03093
G1 X60.395 Y105.917 E0.03092
G1 X59.938 Y106.039 E0.03092
G1 X59.472 Y106.113 E0.03092
G1 X59.000 Y106.138 E0.03092
G1 X58.528 Y106.113 E0.03092
G1 X58.062 Y106.039 E0.03092
G1 X57.605 Y105.917 E0.03092
G1 X57.164 Y105.748 E0.03092
G1 X56.744 Y105.533 E0.03093
G1 X56.347 Y105.276 E0.03092
G1 X55.980 Y104.979 E0.03092
G1 X55.646 Y104.645 E0.03093
G1 X55.349 Y104.278 E0.03092
G1 X55.092 Y103.881 E0.03093
G1 X54.875 Y103.455 E0.03128
G1 X54.708 Y103.020 E0.03056
G1 X54.586 Y102.563 E0.03092
G1 X54.512 Y102.097 E0.03092
G1 X54.487 Y101.625 E0.03092
G1 X54.512 Y101.153 E0.03092
G1 X54.586 Y100.687 E0.03092
G1 X54.708 Y100.230 E0.03092
G1 X54.877 Y99.789 E0.03092
G1 X55.092 Y99.369 E0.03093
G1 X55.349 Y98.972 E0.03092
G1 X55.646 Y98.605 E0.03092
G1 X55.980 Y98.271 E0.03093
G1 X56.347 Y97.974 E0.03092
G1 X56.744 Y97.717 E0.03092
G1 X57.164 Y97.502 E0.03093
G1 X57.605 Y97.333 E0.03092
G1 X58.062 Y97.211 E0.03092
G1 X58.528 Y97.137 E0.03092
G1 X58.994 Y97.112 E0.03056
G1 X59.472 Y97.137 E0.03127
G1 X59.938 Y97.211 E0.03094
G1 X60.395 Y97.333 E0.03092
G1 X60.836 Y97.502 E0.03092
G1 X61.256 Y97.717 E0.03093
G1 X61.653 Y97.974 E0.03092
G1 X62.020 Y98.271 E0.03092
G1 X62.354 Y98.605 E0.03093
G1 X62.651 Y98.972 E0.03092
G1 X62.908 Y99.369 E0.03092
G1 X63.123 Y99.789 E0.03093
G1 X63.292 Y100.230 E0.03092
G1 X63.414 Y100.687 E0.03092
G1 X63.488 Y101.153 E0.03092
G1 X63.513 Y101.625 E0.03092
G1 X63.488 Y102.097 E0.03092
G1 X63.414 Y102.563 E0.03092
G1 X63.292 Y103.020 E0.03092
G1 X63.123 Y103.461 E0.03093
G1 X62.905 Y103.886 E0.03128
G1 X62.651 Y104.278 E0.03056
G1 X62.392 Y104.598 E0.02699
G1 X62.477 Y105.025 F7200.000
G1 E-4.00000 F3000.00000
G1 X95.616 Y102.191 F7200.000
G1 E4.00000 F3000.00000
G1 F1350
G1 X95.586 Y101.625 E0.03710
G1 X95.616 Y101.059 E0.03710
G1 X95.704 Y100.499 E0.03709
G1 X95.851 Y99.952 E0.03709
G1 X96.054 Y99.422 E0.03715
G1 X96.315 Y98.913 E0.03745
G1 X96.620 Y98.443 E0.03669
G1 X96.977 Y98.002 E0.03710
G1 X97.377 Y97.602 E0.03710
G1 X97.818 Y97.245 E0.03709
G1 X98.293 Y96.936 E0.03710
G1 X98.798 Y96.679 E0.03710
G1 X99.327 Y96.476 E0.03710
G1 X99.874 Y96.329 E0.03710
G1 X100.434 Y96.241 E0.03710
G1 X100.994 Y96.211 E0.03670
G1 X101.565 Y96.241 E0.03745
G1 X102.126 Y96.329 E0.03714
G1 X102.673 Y96.476 E0.03710
G1 X103.202 Y96.679 E0.03710
G1 X103.707 Y96.936 E0.03710
G1 X104.182 Y97.245 E0.03710
G1 X104.623 Y97.602 E0.03710
G1 X105.023 Y98.002 E0.03710
G1 X105.380 Y98.443 E0.03710
G1 X105.689 Y98.918 E0.03710
G1 X105.946 Y99.423 E0.03710
G1 X106.149 Y99.952 E0.03710
