; generated by Slic3r Prusa Edition 1.40.0-alpha1+ on 2018-05-25 at 08:38:48

; 

; external perimeters extrusion width = 0.45mm
; perimeters extrusion width = 0.45mm
; infill extrusion width = 0.45mm
; solid infill extrusion width = 0.45mm
; top infill extrusion width = 0.40mm
; first layer extrusion width = 0.45mm

M107
M190 S60 ; set bed temperature and wait for it to be reached
M104 S210 ; set temperature
G28 ; home all axes
G1 Z5 F5000 ; lift nozzle
; Filament gcode
M109 S210 ; set temperature and wait for it to be reached
G21 ; set units to millimeters
G90 ; use absolute coordinates
M83 ; use relative distances for extrusion
M106 S255
G1 Z0.300 F7200.000
G1 E-4.00000 F3000.00000
G1 X46.879 Y47.609 F7200.000
G1 E4.00000 F3000.00000
G1 F2100
G1 X48.154 Y46.439 E0.08329
G1 X49.588 Y45.592 E0.08007
G1 X51.201 Y45.045 E0.08191
G1 X52.764 Y44.849 E0.07580
G1 X107.006 Y44.843 E2.60882
G1 X108.604 Y45.003 E0.07727
G1 X110.075 Y45.448 E0.07389
G1 X111.240 Y46.033 E0.06275
G1 X112.464 Y46.945 E0.07337
G1 X113.555 Y48.145 E0.07801
G1 X114.346 Y49.460 E0.07380
G1 X114.819 Y50.681 E0.06301
G1 X115.119 Y52.218 E0.07530
G1 X115.154 Y107.168 E2.64293
G1 X114.983 Y108.675 E0.07291
G1 X114.546 Y110.090 E0.07127
G1 X113.981 Y111.217 E0.06060
G1 X113.121 Y112.391 E0.07004
G1 X111.845 Y113.561 E0.08327
G1 X110.377 Y114.424 E0.08191
G1 X108.749 Y114.966 E0.08252
G1 X107.056 Y115.157 E0.08191
G1 X52.826 Y115.154 E2.60828
G1 X51.329 Y114.984 E0.07248
G1 X49.925 Y114.552 E0.07066
G1 X48.791 Y113.986 E0.06095
G1 X47.609 Y113.121 E0.07044
G1 X46.428 Y111.832 E0.08409
G1 X45.567 Y110.359 E0.08204
G1 X45.029 Y108.729 E0.08257
G1 X44.843 Y107.057 E0.08092
G1 X44.846 Y52.826 E2.60831
G1 X45.017 Y51.327 E0.07258
G1 X45.453 Y49.910 E0.07128
G1 X46.019 Y48.783 E0.06069
G1 X46.843 Y47.658 E0.06706
G1 X47.154 Y47.886 F7200.000
G1 F2100
G1 X48.395 Y46.740 E0.08126
G1 X49.763 Y45.935 E0.07631
G1 X51.294 Y45.419 E0.07774
G1 X52.789 Y45.233 E0.07242
G1 X107.005 Y45.229 E2.60764
G1 X108.531 Y45.382 E0.07375
G1 X109.936 Y45.807 E0.07061
G1 X111.036 Y46.360 E0.05921
G1 X112.209 Y47.234 E0.07035
G1 X113.250 Y48.382 E0.07453
G1 X114.004 Y49.639 E0.07049
G1 X114.449 Y50.792 E0.05946
G1 X114.737 Y52.271 E0.07245
G1 X114.769 Y107.151 E2.63956
G1 X114.606 Y108.594 E0.06985
G1 X114.187 Y109.951 E0.06832
G1 X113.651 Y111.018 E0.05740
G1 X112.822 Y112.147 E0.06739
G1 X111.609 Y113.256 E0.07906
G1 X110.208 Y114.077 E0.07808
G1 X108.663 Y114.590 E0.07832
G1 X107.050 Y114.771 E0.07807
G1 X52.844 Y114.769 E2.60713
G1 X51.408 Y114.606 E0.06948
G1 X50.059 Y114.190 E0.06791
G1 X48.984 Y113.652 E0.05781
G1 X47.849 Y112.818 E0.06773
G1 X46.730 Y111.591 E0.07988
G1 X45.915 Y110.192 E0.07790
G1 X45.405 Y108.643 E0.07841
G1 X45.229 Y107.050 E0.07709
G1 X45.231 Y52.844 E2.60715
G1 X45.395 Y51.402 E0.06980
G1 X45.815 Y50.044 E0.06833
G1 X46.349 Y48.982 E0.05723
G1 X47.118 Y47.935 E0.06248
G1 X47.429 Y48.163 F7200.000
G1 F2100
G1 X47.479 Y48.094 E0.00411
G1 X48.631 Y47.045 E0.07494
G1 X49.933 Y46.282 E0.07255
G1 X51.393 Y45.792 E0.07408
G1 X52.817 Y45.618 E0.06903
G1 X107.005 Y45.614 E2.60624
G1 X108.458 Y45.761 E0.07025
G1 X109.798 Y46.167 E0.06732
G1 X110.832 Y46.688 E0.05570
G1 X111.950 Y47.520 E0.06705
G1 X112.943 Y48.615 E0.07104
G1 X113.663 Y49.817 E0.06742
G1 X114.080 Y50.903 E0.05594
G1 X114.354 Y52.323 E0.06955
G1 X114.384 Y107.134 E2.63626
G1 X114.229 Y108.514 E0.06679
G1 X113.825 Y109.817 E0.06559
G1 X113.318 Y110.823 E0.05421
G1 X112.520 Y111.907 E0.06470
G1 X111.377 Y112.948 E0.07438
G1 X110.045 Y113.728 E0.07424
G1 X108.577 Y114.215 E0.07439
G1 X107.043 Y114.385 E0.07423
G1 X52.860 Y114.383 E2.60600
G1 X51.487 Y114.229 E0.06648
G1 X50.198 Y113.831 E0.06488
G1 X49.182 Y113.321 E0.05468
G1 X48.094 Y112.520 E0.06498
G1 X47.038 Y111.360 E0.07543
G1 X46.264 Y110.029 E0.07403
G1 X45.780 Y108.557 E0.07452
G1 X45.615 Y107.043 E0.07326
G1 X45.617 Y52.860 E2.60602
G1 X45.772 Y51.482 E0.06674
G1 X46.174 Y50.184 E0.06535
G1 X46.680 Y49.180 E0.05404
G1 X47.393 Y48.211 E0.05787
G1 E-4.00000 F3000.00000
G1 X83.210 Y103.616 F7200.000
G1 E4.00000 F3000.00000
G1 F1350
G1 X83.326 Y103.919 E0.01561
G1 X83.421 Y104.273 E0.01760
G1 X83.478 Y104.634 E0.01762
G1 X83.498 Y105.000 E0.01760
G1 X83.478 Y105.366 E0.01760
G1 X83.421 Y105.727 E0.01762
G1 X83.326 Y106.081 E0.01760
G1 X83.195 Y106.422 E0.01760
G1 X83.029 Y106.749 E0.01762
G1 X82.830 Y107.056 E0.01761
G1 X82.599 Y107.340 E0.01760
G1 X82.340 Y107.599 E0.01762
G1 X82.056 Y107.830 E0.01760
G1 X81.749 Y108.029 E0.01761
G1 X81.422 Y108.195 E0.01762
G1 X81.081 Y108.326 E0.01760
G1 X80.727 Y108.421 E0.01760
G1 X80.366 Y108.478 E0.01762
G1 X80.000 Y108.498 E0.01760
G1 X79.634 Y108.478 E0.01760
G1 X79.273 Y108.421 E0.01762
G1 X78.919 Y108.326 E0.01760
G1 X78.578 Y108.195 E0.01760
G1 X78.251 Y108.029 E0.01762
G1 X77.944 Y107.830 E0.01761
G1 X77.660 Y107.599 E0.01760
G1 X77.401 Y107.340 E0.01762
G1 X77.170 Y107.056 E0.01760
G1 X76.971 Y106.749 E0.01761
G1 X76.805 Y106.422 E0.01762
G1 X76.674 Y106.081 E0.01760
G1 X76.579 Y105.727 E0.01760
G1 X76.522 Y105.366 E0.01762
G1 X76.502 Y105.000 E0.01760
G1 X76.522 Y104.634 E0.01760
G1 X76.579 Y104.273 E0.01762
G1 X76.674 Y103.919 E0.01760
G1 X76.805 Y103.578 E0.01760
G1 X76.971 Y103.251 E0.01762
G1 X77.170 Y102.944 E0.01761
G1 X77.401 Y102.660 E0.01760
G1 X77.660 Y102.401 E0.01762
G1 X77.944 Y102.170 E0.01760
G1 X78.251 Y101.971 E0.01761
G1 X78.578 Y101.805 E0.01762
G1 X78.919 Y101.674 E0.01760
G1 X79.275 Y101.578 E0.01772
G1 X79.650 Y101.521 E0.01824
G1 X80.000 Y101.502 E0.01686
G1 X80.366 Y101.522 E0.01760
G1 X80.727 Y101.579 E0.01762
G1 X81.081 Y101.674 E0.01760
G1 X81.422 Y101.805 E0.01760
G1 X81.749 Y101.971 E0.01762
G1 X82.056 Y102.170 E0.01761
G1 X82.340 Y102.401 E0.01760
G1 X82.599 Y102.660 E0.01762
G1 X82.830 Y102.944 E0.01760
G1 X83.029 Y103.251 E0.01761
G1 X83.187 Y103.561 E0.01673
G1 X82.850 Y103.754 F7200.000
G1 F1350
G1 X82.959 Y104.039 E0.01464
G1 X83.043 Y104.353 E0.01566
G1 X83.094 Y104.675 E0.01567
G1 X83.111 Y105.000 E0.01566
G1 X83.094 Y105.325 E0.01566
G1 X83.043 Y105.647 E0.01567
G1 X82.959 Y105.961 E0.01566
G1 X82.843 Y106.265 E0.01566
G1 X82.695 Y106.556 E0.01567
G1 X82.517 Y106.829 E0.01567
G1 X82.312 Y107.082 E0.01566
G1 X82.082 Y107.312 E0.01567
G1 X81.829 Y107.517 E0.01566
G1 X81.556 Y107.695 E0.01567
G1 X81.265 Y107.843 E0.01567
G1 X80.961 Y107.959 E0.01566
G1 X80.647 Y108.043 E0.01566
G1 X80.325 Y108.094 E0.01567
G1 X80.000 Y108.111 E0.01566
G1 X79.675 Y108.094 E0.01566
G1 X79.353 Y108.043 E0.01567
G1 X79.039 Y107.959 E0.01566
G1 X78.735 Y107.843 E0.01566
G1 X78.444 Y107.695 E0.01567
G1 X78.171 Y107.517 E0.01567
G1 X77.918 Y107.312 E0.01566
G1 X77.688 Y107.082 E0.01567
G1 X77.483 Y106.829 E0.01566
G1 X77.305 Y106.556 E0.01567
G1 X77.157 Y106.265 E0.01567
G1 X77.041 Y105.961 E0.01566
G1 X76.957 Y105.647 E0.01566
G1 X76.906 Y105.325 E0.01567
G1 X76.889 Y105.000 E0.01566
G1 X76.906 Y104.675 E0.01566
G1 X76.957 Y104.353 E0.01567
G1 X77.041 Y104.039 E0.01566
G1 X77.157 Y103.735 E0.01566
G1 X77.305 Y103.444 E0.01567
G1 X77.483 Y103.171 E0.01567
G1 X77.688 Y102.918 E0.01566
G1 X77.918 Y102.688 E0.01567
G1 X78.171 Y102.483 E0.01566
G1 X78.444 Y102.305 E0.01567
G1 X78.735 Y102.157 E0.01567
G1 X79.039 Y102.041 E0.01566
G1 X79.354 Y101.956 E0.01573
G1 X79.689 Y101.905 E0.01630
G1 X80.000 Y101.889 E0.01496
G1 X80.325 Y101.906 E0.01566
G1 X80.647 Y101.957 E0.01567
G1 X80.961 Y102.041 E0.01566
G1 X81.265 Y102.157 E0.01566
G1 X81.556 Y102.305 E0.01567
G1 X81.829 Y102.483 E0.01567
G1 X82.082 Y102.688 E0.01566
G1 X82.312 Y102.918 E0.01567
G1 X82.517 Y103.171 E0.01566
G1 X82.695 Y103.444 E0.01567
G1 X82.825 Y103.700 E0.01380
G1 X82.490 Y103.892 F7200.000
G1 F1350
G1 X82.592 Y104.158 E0.01372
G1 X82.666 Y104.433 E0.01372
G1 X82.710 Y104.715 E0.01372
G1 X82.725 Y105.000 E0.01372
G1 X82.710 Y105.285 E0.01372
G1 X82.666 Y105.567 E0.01372
G1 X82.592 Y105.842 E0.01372
G1 X82.490 Y106.108 E0.01372
G1 X82.360 Y106.363 E0.01372
G1 X82.205 Y106.602 E0.01372
G1 X82.025 Y106.824 E0.01371
G1 X81.824 Y107.025 E0.01373
G1 X81.602 Y107.205 E0.01371
G1 X81.363 Y107.360 E0.01372
G1 X81.108 Y107.490 E0.01372
G1 X80.842 Y107.592 E0.01372
G1 X80.567 Y107.666 E0.01372
G1 X80.285 Y107.710 E0.01372
G1 X80.000 Y107.725 E0.01372
G1 X79.715 Y107.710 E0.01372
G1 X79.433 Y107.666 E0.01372
G1 X79.158 Y107.592 E0.01372
G1 X78.892 Y107.490 E0.01372
G1 X78.637 Y107.360 E0.01372
G1 X78.398 Y107.205 E0.01372
G1 X78.176 Y107.025 E0.01371
G1 X77.975 Y106.824 E0.01373
G1 X77.795 Y106.602 E0.01371
G1 X77.640 Y106.363 E0.01372
G1 X77.510 Y106.108 E0.01372
G1 X77.408 Y105.842 E0.01372
G1 X77.334 Y105.567 E0.01372
G1 X77.290 Y105.285 E0.01372
G1 X77.275 Y105.000 E0.01372
G1 X77.290 Y104.715 E0.01372
G1 X77.334 Y104.433 E0.01372
G1 X77.408 Y104.158 E0.01372
G1 X77.510 Y103.892 E0.01372
G1 X77.640 Y103.637 E0.01372
G1 X77.795 Y103.398 E0.01372
G1 X77.975 Y103.176 E0.01371
G1 X78.176 Y102.975 E0.01373
G1 X78.398 Y102.795 E0.01371
G1 X78.637 Y102.640 E0.01372
G1 X78.892 Y102.510 E0.01372
G1 X79.158 Y102.408 E0.01372
G1 X79.434 Y102.334 E0.01374
G1 X79.729 Y102.289 E0.01435
G1 X80.000 Y102.275 E0.01306
G1 X80.285 Y102.290 E0.01372
G1 X80.567 Y102.334 E0.01372
G1 X80.842 Y102.408 E0.01372
G1 X81.108 Y102.510 E0.01372
G1 X81.363 Y102.640 E0.01372
G1 X81.602 Y102.795 E0.01372
G1 X81.824 Y102.975 E0.01371
G1 X82.025 Y103.176 E0.01373
G1 X82.205 Y103.398 E0.01371
G1 X82.360 Y103.637 E0.01372
G1 X82.463 Y103.838 E0.01084
G1 X82.773 Y103.921 F7200.000
G1 E-4.00000 F3000.00000
G1 X81.002 Y98.347 F7200.000
G1 E4.00000 F3000.00000
G1 F1350
G1 X80.727 Y98.421 E0.01369
G1 X80.366 Y98.478 E0.01762
G1 X80.000 Y98.498 E0.01760
G1 X79.634 Y98.478 E0.01760
G1 X79.273 Y98.421 E0.01762
G1 X78.919 Y98.326 E0.01760
G1 X78.578 Y98.195 E0.01760
G1 X78.251 Y98.029 E0.01762
G1 X77.944 Y97.830 E0.01761
G1 X77.660 Y97.599 E0.01760
G1 X77.401 Y97.340 E0.01762
G1 X77.170 Y97.056 E0.01760
G1 X76.971 Y96.749 E0.01761
G1 X76.805 Y96.422 E0.01762
G1 X76.674 Y96.081 E0.01760
G1 X76.579 Y95.727 E0.01760
G1 X76.522 Y95.366 E0.01762
G1 X76.502 Y95.000 E0.01760
G1 X76.522 Y94.634 E0.01761
G1 X76.579 Y94.273 E0.01762
G1 X76.674 Y93.919 E0.01760
G1 X76.805 Y93.578 E0.01760
G1 X76.971 Y93.251 E0.01762
G1 X77.170 Y92.944 E0.01761
G1 X77.401 Y92.660 E0.01760
G1 X77.660 Y92.401 E0.01762
G1 X77.944 Y92.170 E0.01760
G1 X78.251 Y91.971 E0.01761
G1 X78.578 Y91.805 E0.01762
G1 X78.919 Y91.674 E0.01760
G1 X79.275 Y91.578 E0.01772
G1 X79.650 Y91.521 E0.01824
G1 X80.000 Y91.502 E0.01686
G1 X80.366 Y91.522 E0.01760
G1 X80.727 Y91.579 E0.01762
G1 X81.081 Y91.674 E0.01760
G1 X81.422 Y91.805 E0.01760
G1 X81.749 Y91.971 E0.01762
G1 X82.056 Y92.170 E0.01761
G1 X82.340 Y92.401 E0.01760
G1 X82.599 Y92.660 E0.01762
G1 X82.830 Y92.944 E0.01760
G1 X83.029 Y93.251 E0.01761
G1 X83.195 Y93.578 E0.01762
G1 X83.326 Y93.919 E0.01760
G1 X83.421 Y94.273 E0.01760
G1 X83.478 Y94.634 E0.01762
G1 X83.498 Y95.000 E0.01760
G1 X83.478 Y95.366 E0.01760
G1 X83.421 Y95.727 E0.01762
G1 X83.326 Y96.081 E0.01760
G1 X83.195 Y96.422 E0.01760
G1 X83.029 Y96.749 E0.01762
G1 X82.830 Y97.056 E0.01761
G1 X82.599 Y97.340 E0.01760
G1 X82.340 Y97.599 E0.01762
G1 X82.056 Y97.830 E0.01760
G1 X81.749 Y98.029 E0.01761
G1 X81.422 Y98.195 E0.01762
G1 X81.060 Y98.332 E0.01862
G1 X80.902 Y97.975 F7200.000
G1 F1350
G1 X80.647 Y98.043 E0.01271
G1 X80.325 Y98.094 E0.01567
G1 X80.000 Y98.111 E0.01566
G1 X79.675 Y98.094 E0.01566
G1 X79.353 Y98.043 E0.01567
G1 X79.039 Y97.959 E0.01566
G1 X78.735 Y97.843 E0.01566
G1 X78.444 Y97.695 E0.01567
G1 X78.171 Y97.517 E0.01567
G1 X77.918 Y97.312 E0.01566
G1 X77.688 Y97.082 E0.01567
G1 X77.483 Y96.829 E0.01566
G1 X77.305 Y96.556 E0.01567
G1 X77.157 Y96.265 E0.01567
G1 X77.041 Y95.961 E0.01566
G1 X76.957 Y95.647 E0.01566
G1 X76.906 Y95.325 E0.01567
G1 X76.889 Y95.000 E0.01566
G1 X76.906 Y94.675 E0.01566
G1 X76.957 Y94.353 E0.01567
G1 X77.041 Y94.039 E0.01566
G1 X77.157 Y93.735 E0.01566
G1 X77.305 Y93.444 E0.01567
G1 X77.483 Y93.171 E0.01567
G1 X77.688 Y92.918 E0.01566
G1 X77.918 Y92.688 E0.01567
G1 X78.171 Y92.483 E0.01566
G1 X78.444 Y92.305 E0.01567
G1 X78.735 Y92.157 E0.01567
G1 X79.039 Y92.041 E0.01566
G1 X79.354 Y91.956 E0.01573
G1 X79.689 Y91.905 E0.01630
G1 X80.000 Y91.889 E0.01496
G1 X80.325 Y91.906 E0.01566
G1 X80.647 Y91.957 E0.01567
G1 X80.961 Y92.041 E0.01566
G1 X81.265 Y92.157 E0.01566
G1 X81.556 Y92.305 E0.01567
G1 X81.829 Y92.483 E0.01567
G1 X82.082 Y92.688 E0.01566
G1 X82.312 Y92.918 E0.01567
G1 X82.517 Y93.171 E0.01566
G1 X82.695 Y93.444 E0.01567
G1 X82.843 Y93.735 E0.01567
G1 X82.959 Y94.039 E0.01566
G1 X83.043 Y94.353 E0.01566
G1 X83.094 Y94.675 E0.01567
G1 X83.111 Y95.000 E0.01566
G1 X83.094 Y95.325 E0.01566
G1 X83.043 Y95.647 E0.01567
G1 X82.959 Y95.961 E0.01566
G1 X82.843 Y96.265 E0.01566
G1 X82.695 Y96.556 E0.01567
G1 X82.517 Y96.829 E0.01567
G1 X82.312 Y97.082 E0.01566
G1 X82.082 Y97.312 E0.01567
G1 X81.829 Y97.517 E0.01566
G1 X81.556 Y97.695 E0.01567
G1 X81.265 Y97.843 E0.01567
G1 X80.960 Y97.959 E0.01572
G1 X80.802 Y97.603 F7200.000
G1 F1350
G1 X80.567 Y97.666 E0.01174
G1 X80.285 Y97.710 E0.01372
G1 X80.000 Y97.725 E0.01372
G1 X79.715 Y97.710 E0.01372
G1 X79.433 Y97.666 E0.01372
G1 X79.158 Y97.592 E0.01372
G1 X78.892 Y97.490 E0.01372
G1 X78.637 Y97.360 E0.01372
G1 X78.398 Y97.205 E0.01372
G1 X78.176 Y97.025 E0.01371
G1 X77.975 Y96.824 E0.01373
G1 X77.795 Y96.602 E0.01371
G1 X77.640 Y96.363 E0.01372
G1 X77.510 Y96.108 E0.01372
G1 X77.408 Y95.842 E0.01372
G1 X77.334 Y95.567 E0.01372
G1 X77.290 Y95.285 E0.01372
G1 X77.275 Y95.000 E0.01372
G1 X77.290 Y94.715 E0.01372
G1 X77.334 Y94.433 E0.01372
G1 X77.408 Y94.158 E0.01372
G1 X77.510 Y93.892 E0.01372
G1 X77.640 Y93.637 E0.01372
G1 X77.795 Y93.398 E0.01372
G1 X77.975 Y93.176 E0.01371
G1 X78.176 Y92.975 E0.01373
G1 X78.398 Y92.795 E0.01371
G1 X78.637 Y92.640 E0.01372
G1 X78.892 Y92.510 E0.01372
G1 X79.158 Y92.408 E0.01372
G1 X79.434 Y92.334 E0.01374
G1 X79.729 Y92.289 E0.01435
G1 X80.000 Y92.275 E0.01306
G1 X80.285 Y92.290 E0.01372
G1 X80.567 Y92.334 E0.01372
G1 X80.842 Y92.408 E0.01372
G1 X81.108 Y92.510 E0.01372
G1 X81.363 Y92.640 E0.01372
G1 X81.602 Y92.795 E0.01372
G1 X81.824 Y92.975 E0.01371
G1 X82.025 Y93.176 E0.01373
G1 X82.205 Y93.398 E0.01371
G1 X82.360 Y93.637 E0.01372
G1 X82.490 Y93.892 E0.01372
G1 X82.592 Y94.158 E0.01372
G1 X82.666 Y94.433 E0.01372
G1 X82.710 Y94.715 E0.01372
G1 X82.725 Y95.000 E0.01372
G1 X82.710 Y95.285 E0.01372
G1 X82.666 Y95.567 E0.01372
G1 X82.592 Y95.842 E0.01372
G1 X82.490 Y96.108 E0.01372
G1 X82.360 Y96.363 E0.01373
G1 X82.205 Y96.602 E0.01372
G1 X82.025 Y96.824 E0.01371
G1 X81.824 Y97.025 E0.01373
G1 X81.602 Y97.205 E0.01371
G1 X81.363 Y97.360 E0.01372
G1 X81.108 Y97.490 E0.01372
G1 X80.860 Y97.585 E0.01281
G1 X80.751 Y97.841 F7200.000
G1 E-4.00000 F3000.00000
G1 X86.660 Y96.031 F7200.000
G1 E4.00000 F3000.00000
G1 F1350
G1 X86.579 Y95.727 E0.01512
G1 X86.522 Y95.366 E0.01762
G1 X86.502 Y95.000 E0.01760
G1 X86.522 Y94.634 E0.01761
G1 X86.579 Y94.273 E0.01762
G1 X86.674 Y93.919 E0.01760
G1 X86.805 Y93.578 E0.01760
G1 X86.971 Y93.251 E0.01762
G1 X87.170 Y92.944 E0.01761
G1 X87.401 Y92.660 E0.01760
G1 X87.660 Y92.401 E0.01762
G1 X87.944 Y92.170 E0.01760
G1 X88.251 Y91.971 E0.01761
G1 X88.578 Y91.805 E0.01762
G1 X88.919 Y91.674 E0.01760
G1 X89.275 Y91.578 E0.01772
G1 X89.650 Y91.521 E0.01824
G1 X90.000 Y91.502 E0.01686
G1 X90.366 Y91.522 E0.01760
G1 X90.727 Y91.579 E0.01762
G1 X91.081 Y91.674 E0.01760
G1 X91.422 Y91.805 E0.01760
G1 X91.749 Y91.971 E0.01762
G1 X92.056 Y92.170 E0.01761
G1 X92.340 Y92.401 E0.01760
G1 X92.599 Y92.660 E0.01762
G1 X92.830 Y92.944 E0.01760
G1 X93.029 Y93.251 E0.01761
G1 X93.195 Y93.578 E0.01762
G1 X93.326 Y93.919 E0.01760
G1 X93.421 Y94.273 E0.01760
G1 X93.478 Y94.634 E0.01762
G1 X93.498 Y95.000 E0.01760
G1 X93.478 Y95.366 E0.01760
G1 X93.421 Y95.727 E0.01762
G1 X93.326 Y96.081 E0.01760
G1 X93.195 Y96.422 E0.01760
G1 X93.029 Y96.749 E0.01762
G1 X92.830 Y97.056 E0.01761
G1 X92.599 Y97.340 E0.01760
G1 X92.340 Y97.599 E0.01762
G1 X92.056 Y97.830 E0.01760
G1 X91.749 Y98.029 E0.01761
G1 X91.422 Y98.195 E0.01762
G1 X91.081 Y98.326 E0.01760
