; generated by Slic3r Prusa Edition 1.40.0-alpha1+ on 2018-05-23 at 20:16:12

; 

; external perimeters extrusion width = 0.45mm
; perimeters extrusion width = 0.45mm
; infill extrusion width = 0.45mm
; solid infill extrusion width = 0.45mm
; top infill extrusion width = 0.40mm
; first layer extrusion width = 0.52mm

M107
M190 S60 ; set bed temperature and wait for it to be reached
M104 S205 ; set temperature
G28 ; home all axes
G1 Z5 F5000 ; lift nozzle
; Filament gcode
M109 S205 ; set temperature and wait for it to be reached
G21 ; set units to millimeters
G90 ; use absolute coordinates
M82 ; use absolute distances for extrusion
G92 E0
G1 Z0.350 F7200.000
G1 E-4.00000 F3000.00000
G92 E0
G1 X66.213 Y34.971 F7200.000
G1 E4.00000 F3000.00000
G1 F2100
G1 X93.255 Y34.942 E5.77033
G1 X94.179 Y35.031 E5.83110
G1 X95.065 Y35.290 E5.89152
G1 X95.891 Y35.714 E5.95228
G1 X96.622 Y36.286 E6.01305
G1 X97.229 Y36.982 E6.07347
G1 X97.697 Y37.783 E6.13424
G1 X98.005 Y38.659 E6.19500
G1 X98.143 Y39.577 E6.25577
G1 X98.150 Y120.169 E11.53174
G1 X98.093 Y120.899 E11.57967
G1 X97.929 Y121.613 E11.62760
G1 X97.665 Y122.284 E11.67481
G1 X97.308 Y122.904 E11.72167
G1 X96.865 Y123.466 E11.76852
G1 X96.344 Y123.958 E11.81538
G1 X95.758 Y124.368 E11.86224
G1 X95.118 Y124.688 E11.90909
G1 X94.438 Y124.912 E11.95595
G1 X93.733 Y125.034 E12.00281
G1 X66.717 Y125.058 E13.77137
G1 X65.998 Y125.000 E13.81858
G1 X65.296 Y124.837 E13.86580
G1 X64.595 Y124.559 E13.91515
G1 X63.946 Y124.176 E13.96451
G1 X63.362 Y123.698 E14.01386
G1 X62.859 Y123.137 E14.06322
G1 X62.448 Y122.505 E14.11257
G1 X62.139 Y121.817 E14.16193
G1 X61.940 Y121.090 E14.21128
G1 X61.854 Y120.341 E14.26064
G1 X61.850 Y39.831 E19.53124
G1 X61.907 Y39.101 E19.57917
G1 X62.071 Y38.387 E19.62710
G1 X62.328 Y37.731 E19.67324
G1 X62.680 Y37.114 E19.71974
G1 X63.117 Y36.554 E19.76624
G1 X63.630 Y36.063 E19.81274
G1 X64.209 Y35.652 E19.85924
G1 X64.842 Y35.329 E19.90574
G1 X65.514 Y35.100 E19.95224
G1 X66.154 Y34.982 E19.99481
G1 X65.047 Y35.730 F7200.000
G1 F2100
G1 X66.301 Y35.414 E20.07946
G1 X93.255 Y35.392 E21.84399
G1 X94.094 Y35.472 E21.89918
G1 X94.903 Y35.710 E21.95436
G1 X95.653 Y36.096 E22.00955
G1 X96.320 Y36.620 E22.06508
G1 X96.872 Y37.257 E22.12026
G1 X97.297 Y37.991 E22.17579
G1 X97.573 Y38.787 E22.23098
G1 X97.694 Y39.622 E22.28616
G1 X97.700 Y120.169 E27.55918
G1 X97.648 Y120.833 E27.60281
G1 X97.497 Y121.488 E27.64678
G1 X96.929 Y122.661 E27.73211
G1 X96.046 Y123.620 E27.81743
G1 X94.924 Y124.282 E27.90276
G1 X93.652 Y124.590 E27.98842
G1 X66.724 Y124.608 E29.75126
G1 X65.421 Y124.405 E29.83760
G1 X64.787 Y124.152 E29.88225
G1 X64.196 Y123.802 E29.92724
G1 X63.669 Y123.369 E29.97189
G1 X63.211 Y122.857 E30.01688
G1 X62.838 Y122.280 E30.06187
G1 X62.558 Y121.652 E30.10686
G1 X62.379 Y120.994 E30.15151
G1 X62.303 Y120.311 E30.19650
G1 X62.300 Y39.831 E35.46508
G1 X62.352 Y39.167 E35.50871
G1 X62.503 Y38.512 E35.55268
G1 X63.065 Y37.348 E35.63733
G1 X63.937 Y36.393 E35.72198
G1 X64.996 Y35.761 E35.80271
G1 E31.80271 F3000.00000
G92 E0
G1 X91.638 Y41.454 F7200.000
G1 E4.00000 F3000.00000
G1 F1800
G1 X91.638 Y118.546 E9.04685
G1 X68.362 Y118.546 E10.57059
G1 X68.362 Y41.454 E15.61744
G1 X91.578 Y41.454 E17.13725
G1 X92.088 Y41.004 F7200.000
G1 F1800
G1 X92.088 Y118.996 E22.24301
G1 X67.912 Y118.996 E23.82565
G1 X67.912 Y41.004 E28.93140
G1 X92.028 Y41.004 E30.51012
G1 X92.538 Y40.554 F7200.000
G1 F1800
G1 X92.538 Y119.446 E35.67478
G1 X67.462 Y119.446 E37.31632
G1 X67.462 Y40.554 E42.48098
G1 X92.478 Y40.554 E44.11860
G1 X92.988 Y40.104 F7200.000
G1 F1350
G1 X92.988 Y119.896 E49.34216
G1 X67.012 Y119.896 E51.04261
G1 X67.012 Y40.104 E56.26617
G1 X92.928 Y40.104 E57.96269
G1 X92.946 Y40.502 F7200.000
G1 E53.96269 F3000.00000
G92 E0
G1 X91.503 Y42.498 F7200.000
G1 E4.00000 F3000.00000
G1 F1950
G1 X90.796 Y41.791 E4.06550
G1 X90.159 Y41.791 E4.10717
G1 X91.300 Y42.932 E4.21286
G1 X91.300 Y43.569 E4.25454
G1 X89.523 Y41.791 E4.41916
G1 X88.886 Y41.791 E4.46084
G1 X91.300 Y44.205 E4.68440
G1 X91.300 Y44.842 E4.72608
G1 X88.250 Y41.791 E5.00858
G1 X87.614 Y41.791 E5.05025
G1 X91.300 Y45.478 E5.39169
G1 X91.300 Y46.114 E5.43337
G1 X86.977 Y41.791 E5.83374
G1 X86.341 Y41.791 E5.87542
G1 X91.300 Y46.751 E6.33473
G1 X91.300 Y47.387 E6.37641
G1 X85.704 Y41.791 E6.89466
G1 X85.068 Y41.791 E6.93634
G1 X91.300 Y48.024 E7.51353
G1 X91.300 Y48.660 E7.55520
G1 X84.431 Y41.791 E8.19133
G1 X83.795 Y41.791 E8.23301
G1 X91.300 Y49.297 E8.92807
G1 X91.300 Y49.933 E8.96975
G1 X83.159 Y41.791 E9.72375
G1 X82.522 Y41.791 E9.76543
G1 X91.300 Y50.569 E10.57837
G1 X91.300 Y51.206 E10.62004
G1 X81.886 Y41.791 E11.49192
G1 X81.249 Y41.791 E11.53360
G1 X91.300 Y51.842 E12.46441
G1 X91.300 Y52.479 E12.50609
G1 X80.613 Y41.791 E13.49584
G1 X79.976 Y41.791 E13.53752
G1 X91.300 Y53.115 E14.58621
G1 X91.300 Y53.752 E14.62789
G1 X79.340 Y41.791 E15.73552
G1 X78.704 Y41.791 E15.77719
G1 X91.300 Y54.388 E16.94376
G1 X91.300 Y55.024 E16.98543
G1 X78.067 Y41.791 E18.21094
G1 X77.431 Y41.791 E18.25262
G1 X91.300 Y55.661 E19.53706
G1 X91.300 Y56.297 E19.57873
G1 X76.794 Y41.791 E20.92211
G1 X76.158 Y41.791 E20.96379
G1 X91.300 Y56.934 E22.36611
G1 X91.300 Y57.570 E22.40778
G1 X75.521 Y41.791 E23.86904
G1 X74.885 Y41.791 E23.91072
G1 X91.300 Y58.206 E25.43091
G1 X91.300 Y58.843 E25.47259
G1 X74.249 Y41.791 E27.05172
G1 X73.612 Y41.791 E27.09339
G1 X91.300 Y59.479 E28.73146
G1 X91.300 Y60.116 E28.77314
G1 X72.976 Y41.791 E30.47015
G1 X72.339 Y41.791 E30.51182
G1 X91.300 Y60.752 E32.26777
G1 X91.300 Y61.389 E32.30944
G1 X71.703 Y41.791 E34.12433
G1 X71.067 Y41.791 E34.16600
G1 X91.300 Y62.025 E36.03982
G1 X91.300 Y62.661 E36.08150
G1 X70.430 Y41.791 E38.01426
G1 X69.794 Y41.791 E38.05593
G1 X91.300 Y63.298 E40.04763
G1 X91.300 Y63.934 E40.08930
G1 X69.157 Y41.791 E42.13994
G1 X68.700 Y41.791 E42.16991
G1 X68.700 Y41.970 E42.18161
G1 X91.300 Y64.571 E44.27463
G1 X91.300 Y65.207 E44.31631
G1 X68.700 Y42.606 E46.40933
G1 X68.700 Y43.243 E46.45100
G1 X91.300 Y65.844 E48.54402
G1 X91.300 Y66.480 E48.58570
G1 X68.700 Y43.879 E50.67871
G1 X68.700 Y44.516 E50.72039
G1 X91.300 Y67.116 E52.81341
G1 X91.300 Y67.753 E52.85508
G1 X68.700 Y45.152 E54.94810
G1 X68.700 Y45.788 E54.98978
G1 X91.300 Y68.389 E57.08280
G1 X91.300 Y69.026 E57.12447
G1 X68.700 Y46.425 E59.21749
G1 X68.700 Y47.061 E59.25917
G1 X91.300 Y69.662 E61.35219
G1 X91.300 Y70.299 E61.39386
G1 X68.700 Y47.698 E63.48688
G1 X68.700 Y48.334 E63.52855
G1 X91.300 Y70.935 E65.62157
G1 X91.300 Y71.571 E65.66325
G1 X68.700 Y48.970 E67.75627
G1 X68.700 Y49.607 E67.79794
G1 X91.300 Y72.208 E69.89096
G1 X91.300 Y72.844 E69.93264
G1 X68.700 Y50.243 E72.02566
G1 X68.700 Y50.880 E72.06733
G1 X91.300 Y73.481 E74.16035
G1 X91.300 Y74.117 E74.20203
G1 X68.700 Y51.516 E76.29504
G1 X68.700 Y52.153 E76.33672
G1 X91.300 Y74.753 E78.42974
G1 X91.300 Y75.390 E78.47141
G1 X68.700 Y52.789 E80.56443
G1 X68.700 Y53.425 E80.60611
G1 X91.300 Y76.026 E82.69913
G1 X91.300 Y76.663 E82.74080
G1 X68.700 Y54.062 E84.83382
G1 X68.700 Y54.698 E84.87550
G1 X91.300 Y77.299 E86.96852
G1 X91.300 Y77.936 E87.01019
G1 X68.700 Y55.335 E89.10321
G1 X68.700 Y55.971 E89.14488
G1 X91.300 Y78.572 E91.23790
G1 X91.300 Y79.208 E91.27958
G1 X68.700 Y56.608 E93.37260
G1 X68.700 Y57.244 E93.41427
G1 X91.300 Y79.845 E95.50729
G1 X91.300 Y80.481 E95.54897
G1 X68.700 Y57.880 E97.64199
G1 X68.700 Y58.517 E97.68366
G1 X91.300 Y81.118 E99.77668
G1 X91.300 Y81.754 E99.81836
G1 X68.700 Y59.153 E101.91137
G1 X68.700 Y59.790 E101.95305
G1 X91.300 Y82.391 E104.04607
G1 X91.300 Y83.027 E104.08774
G1 X68.700 Y60.426 E106.18076
G1 X68.700 Y61.063 E106.22244
G1 X91.300 Y83.663 E108.31546
G1 X91.300 Y84.300 E108.35713
G1 X68.700 Y61.699 E110.45015
G1 X68.700 Y62.335 E110.49183
G1 X91.300 Y84.936 E112.58485
G1 X91.300 Y85.573 E112.62652
G1 X68.700 Y62.972 E114.71954
G1 X68.700 Y63.608 E114.76121
G1 X91.300 Y86.209 E116.85423
G1 X91.300 Y86.846 E116.89591
G1 X68.700 Y64.245 E118.98893
G1 X68.700 Y64.881 E119.03060
G1 X91.300 Y87.482 E121.12362
G1 X91.300 Y88.118 E121.16530
G1 X68.700 Y65.517 E123.25832
G1 X68.700 Y66.154 E123.29999
G1 X91.300 Y88.755 E125.39301
G1 X91.300 Y89.391 E125.43469
G1 X68.700 Y66.790 E127.52770
G1 X68.700 Y67.427 E127.56938
G1 X91.300 Y90.028 E129.66240
G1 X91.300 Y90.664 E129.70407
G1 X68.700 Y68.063 E131.79709
G1 X68.700 Y68.700 E131.83877
G1 X91.300 Y91.300 E133.93179
G1 X91.300 Y91.937 E133.97346
G1 X68.700 Y69.336 E136.06648
G1 X68.700 Y69.972 E136.10816
G1 X91.300 Y92.573 E138.20118
G1 X91.300 Y93.210 E138.24285
G1 X68.700 Y70.609 E140.33587
G1 X68.700 Y71.245 E140.37754
G1 X91.300 Y93.846 E142.47056
G1 X91.300 Y94.483 E142.51224
G1 X68.700 Y71.882 E144.60526
G1 X68.700 Y72.518 E144.64693
G1 X91.300 Y95.119 E146.73995
G1 X91.300 Y95.755 E146.78163
G1 X68.700 Y73.155 E148.87465
G1 X68.700 Y73.791 E148.91632
G1 X91.300 Y96.392 E151.00934
G1 X91.300 Y97.028 E151.05102
G1 X68.700 Y74.427 E153.14403
G1 X68.700 Y75.064 E153.18571
G1 X91.300 Y97.665 E155.27873
G1 X91.300 Y98.301 E155.32040
G1 X68.700 Y75.700 E157.41342
G1 X68.700 Y76.337 E157.45510
G1 X91.300 Y98.938 E159.54812
G1 X91.300 Y99.574 E159.58979
G1 X68.700 Y76.973 E161.68281
G1 X68.700 Y77.610 E161.72449
G1 X91.300 Y100.210 E163.81751
G1 X91.300 Y100.847 E163.85918
G1 X68.700 Y78.246 E165.95220
G1 X68.700 Y78.882 E165.99388
G1 X91.300 Y101.483 E168.08689
G1 X91.300 Y102.120 E168.12857
G1 X68.700 Y79.519 E170.22159
G1 X68.700 Y80.155 E170.26326
G1 X91.300 Y102.756 E172.35628
G1 X91.300 Y103.393 E172.39796
G1 X68.700 Y80.792 E174.49098
G1 X68.700 Y81.428 E174.53265
G1 X91.300 Y104.029 E176.62567
G1 X91.300 Y104.665 E176.66735
G1 X68.700 Y82.064 E178.76037
G1 X68.700 Y82.701 E178.80204
G1 X91.300 Y105.302 E180.89506
G1 X91.300 Y105.938 E180.93673
G1 X68.700 Y83.337 E183.02975
G1 X68.700 Y83.974 E183.07143
G1 X91.300 Y106.575 E185.16445
G1 X91.300 Y107.211 E185.20612
G1 X68.700 Y84.610 E187.29914
G1 X68.700 Y85.247 E187.34082
G1 X91.300 Y107.847 E189.43384
G1 X91.300 Y108.484 E189.47551
G1 X68.700 Y85.883 E191.56853
G1 X68.700 Y86.519 E191.61021
G1 X91.300 Y109.120 E193.70323
G1 X91.300 Y109.757 E193.74490
G1 X68.700 Y87.156 E195.83792
G1 X68.700 Y87.792 E195.87959
G1 X91.300 Y110.393 E197.97261
G1 X91.300 Y111.030 E198.01429
G1 X68.700 Y88.429 E200.10731
G1 X68.700 Y89.065 E200.14898
G1 X91.300 Y111.666 E202.24200
G1 X91.300 Y112.302 E202.28368
G1 X68.700 Y89.702 E204.37670
G1 X68.700 Y90.338 E204.41837
G1 X91.300 Y112.939 E206.51139
G1 X91.300 Y113.575 E206.55307
G1 X68.700 Y90.974 E208.64609
G1 X68.700 Y91.611 E208.68776
G1 X91.300 Y114.212 E210.78078
G1 X91.300 Y114.848 E210.82245
G1 X68.700 Y92.247 E212.91547
G1 X68.700 Y92.884 E212.95715
G1 X91.300 Y115.485 E215.05017
G1 X91.300 Y116.121 E215.09184
G1 X68.700 Y93.520 E217.18486
G1 X68.700 Y94.157 E217.22654
G1 X91.300 Y116.757 E219.31956
G1 X91.300 Y117.394 E219.36123
G1 X68.700 Y94.793 E221.45425
G1 X68.700 Y95.429 E221.49593
G1 X91.300 Y118.030 E223.58895
G1 X91.300 Y118.209 E223.60065
G1 X90.843 Y118.209 E223.63062
G1 X68.700 Y96.066 E225.68125
G1 X68.700 Y96.702 E225.72292
G1 X90.206 Y118.209 E227.71462
G1 X89.570 Y118.209 E227.75629
G1 X68.700 Y97.339 E229.68904
G1 X68.700 Y97.975 E229.73072
G1 X88.933 Y118.209 E231.60453
G1 X88.297 Y118.209 E231.64621
G1 X68.700 Y98.611 E233.46109
G1 X68.700 Y99.248 E233.50276
G1 X87.661 Y118.209 E235.25870
G1 X87.024 Y118.209 E235.30038
G1 X68.700 Y99.884 E236.99738
G1 X68.700 Y100.521 E237.03906
G1 X86.388 Y118.209 E238.67712
G1 X85.751 Y118.209 E238.71880
G1 X68.700 Y101.157 E240.29792
G1 X68.700 Y101.794 E240.33960
G1 X85.115 Y118.209 E241.85979
G1 X84.478 Y118.209 E241.90146
G1 X68.700 Y102.430 E243.36271
G1 X68.700 Y103.066 E243.40439
G1 X83.842 Y118.209 E244.80670
G1 X83.206 Y118.209 E244.84838
G1 X68.700 Y103.703 E246.19175
G1 X68.700 Y104.339 E246.23343
G1 X82.569 Y118.209 E247.51786
G1 X81.933 Y118.209 E247.55954
G1 X68.700 Y104.976 E248.78504
G1 X68.700 Y105.612 E248.82671
G1 X81.296 Y118.209 E249.99328
G1 X80.660 Y118.209 E250.03495
G1 X68.700 Y106.249 E251.14258
G1 X68.700 Y106.885 E251.18425
G1 X80.024 Y118.209 E252.23294
G1 X79.387 Y118.209 E252.27461
G1 X68.700 Y107.521 E253.26436
G1 X68.700 Y108.158 E253.30604
G1 X78.751 Y118.209 E254.23685
G1 X78.114 Y118.209 E254.27852
G1 X68.700 Y108.794 E255.15040
G1 X68.700 Y109.431 E255.19207
G1 X77.478 Y118.209 E256.00501
G1 X76.841 Y118.209 E256.04668
G1 X68.700 Y110.067 E256.80068
G1 X68.700 Y110.704 E256.84236
G1 X76.205 Y118.209 E257.53742
G1 X75.569 Y118.209 E257.57909
G1 X68.700 Y111.340 E258.21521
G1 X68.700 Y111.976 E258.25689
G1 X74.932 Y118.209 E258.83407
G1 X74.296 Y118.209 E258.87575
G1 X68.700 Y112.613 E259.39400
G1 X68.700 Y113.249 E259.43567
G1 X73.659 Y118.209 E259.89498
G1 X73.023 Y118.209 E259.93666
G1 X68.700 Y113.886 E260.33703
G1 X68.700 Y114.522 E260.37870
G1 X72.386 Y118.209 E260.72014
G1 X71.750 Y118.209 E260.76181
G1 X68.700 Y115.158 E261.04431
G1 X68.700 Y115.795 E261.08598
G1 X71.114 Y118.209 E261.30954
G1 X70.477 Y118.209 E261.35121
G1 X68.700 Y116.431 E261.51583
G1 X68.700 Y117.068 E261.55751
G1 X69.841 Y118.209 E261.66319
G1 X69.204 Y118.209 E261.70487
G1 X68.497 Y117.502 E261.77036
G1 Z0.650 F7200.000
G1 X91.868 Y40.452
G1 F3600
G1 X91.868 Y119.548 E265.57458
G1 X68.132 Y119.548 E266.71621
G1 X68.132 Y40.452 E270.52043
G1 X91.808 Y40.452 E271.65918
G1 X92.254 Y40.067 F7200.000
G1 F3600
G1 X92.254 Y119.933 E275.50049
G1 X67.746 Y119.933 E276.67922
G1 X67.746 Y40.067 E280.52053
G1 X92.194 Y40.067 E281.69637
G1 X92.639 Y39.681 F7200.000
G1 F3600
G1 X92.639 Y120.319 E285.57477
G1 X67.361 Y120.319 E286.79060
G1 X67.361 Y39.681 E290.66900
G1 X92.579 Y39.681 E291.88194
G1 X93.025 Y39.642 F7200.000
G1 F2700
G1 X93.025 Y120.358 E295.76415
G1 F3600
G1 X93.025 Y120.705 E295.78223
G1 X66.975 Y120.705 E297.14321
G1 X66.975 Y120.358 E297.16129
G1 F2700
G1 X66.975 Y39.642 E301.04350
G1 F3600
G1 X66.975 Y39.295 E301.06158
G1 X93.025 Y39.295 E302.42256
G1 X93.025 Y39.582 E302.43750
G1 E298.43750 F3000.00000
G92 E0
G1 X69.031 Y40.568 F7200.000
G1 E4.00000 F3000.00000
G1 F3900
G1 X68.421 Y41.178 E4.04166
G1 X68.421 Y41.726 E4.06813
G1 X69.405 Y40.742 E4.13537
G1 X69.953 Y40.742 E4.16184
G1 X68.421 Y42.273 E4.26652
G1 X68.421 Y42.821 E4.29299
G1 X70.501 Y40.742 E4.43509
G1 X71.049 Y40.742 E4.46156
G1 X68.421 Y43.369 E4.64110
G1 X68.421 Y43.917 E4.66757
G1 X71.596 Y40.742 E4.88455
G1 X72.144 Y40.742 E4.91102
G1 X68.421 Y44.465 E5.16542
G1 X68.421 Y45.013 E5.19189
G1 X72.692 Y40.742 E5.48374
G1 X73.240 Y40.742 E5.51020
G1 X68.421 Y45.560 E5.83948
G1 X68.421 Y46.108 E5.86595
G1 X73.788 Y40.742 E6.23266
G1 X74.336 Y40.742 E6.25913
G1 X68.421 Y46.656 E6.66327
G1 X68.421 Y47.204 E6.68974
G1 X74.883 Y40.742 E7.13132
G1 X75.431 Y40.742 E7.15779
G1 X68.421 Y47.752 E7.63680
G1 X68.421 Y48.300 E7.66327
G1 X75.979 Y40.742 E8.17971
G1 X76.527 Y40.742 E8.20618
G1 X68.421 Y48.847 E8.76006
G1 X68.421 Y49.395 E8.78652
G1 X77.075 Y40.742 E9.37784
G1 X77.623 Y40.742 E9.40430
G1 X68.421 Y49.943 E10.03305
G1 X68.421 Y50.491 E10.05952
G1 X78.171 Y40.742 E10.72570
G1 X78.718 Y40.742 E10.75217
G1 X68.421 Y51.039 E11.45578
G1 X68.421 Y51.587 E11.48225
G1 X79.266 Y40.742 E12.22329
G1 X79.814 Y40.742 E12.24976
G1 X68.421 Y52.135 E13.02824
G1 X68.421 Y52.682 E13.05471
G1 X80.362 Y40.742 E13.87062
G1 X80.910 Y40.742 E13.89709
G1 X68.421 Y53.230 E14.75044
G1 X68.421 Y53.778 E14.77691
G1 X81.458 Y40.742 E15.66769
G1 X82.005 Y40.742 E15.69416
G1 X68.421 Y54.326 E16.62237
G1 X68.421 Y54.874 E16.64884
G1 X82.553 Y40.742 E17.61449
G1 X83.101 Y40.742 E17.64096
G1 X68.421 Y55.422 E18.64404
G1 X68.421 Y55.969 E18.67051
G1 X83.649 Y40.742 E19.71102
G1 X84.197 Y40.742 E19.73749
G1 X68.421 Y56.517 E20.81544
G1 X68.421 Y57.065 E20.84191
G1 X84.745 Y40.742 E21.95729
G1 X85.292 Y40.742 E21.98376
G1 X68.421 Y57.613 E23.13657
G1 X68.421 Y58.161 E23.16304
G1 X85.840 Y40.742 E24.35329
G1 X86.388 Y40.742 E24.37976
G1 X68.421 Y58.709 E25.60744
G1 X68.421 Y59.256 E25.63391
G1 X86.936 Y40.742 E26.89903
G1 X87.484 Y40.742 E26.92550
G1 X68.421 Y59.804 E28.22805
G1 X68.421 Y60.352 E28.25452
G1 X88.032 Y40.742 E29.59450
