(1001)
(T1  D=2. CR=0. - ZMIN=0.303 - FLAT END MILL)
G0 G90 G94 G17
G21
G53 Z0.

(ROUGHING - 2MM)
M5
M9
T1
S16400 M3
G4 P4.
G55
M9
G0 X-0.263 Y-2.797
Z32.
Z22.
Z14.4
G1 Z14.2 F1500.
X-0.262 Y-2.791 Z14.148
X-0.257 Y-2.771 Z14.1
X-0.249 Y-2.741 Z14.059
X-0.238 Y-2.7 Z14.027
X-0.226 Y-2.654 Z14.007
X-0.214 Y-2.604 Z14.
G3 X0.01 Y-1.049 I-7.063 J1.809
G1 Y-0.899
X-0.097 Y-0.377
X-0.147 Y0.153
X-0.17 Y0.686
X-0.181 Y1.218
X-0.186 Y1.751
X-0.188 Y2.283
X-0.19 Y3.881
Y49.158
Y61.143
X-0.152 Y61.271
X-0.009 Y61.495
X0.191 Y61.671
X0.652 Y61.938
X1.167 Y62.072
X1.696 Y62.135
X2.228 Y62.165
X2.761 Y62.178
X3.293 Y62.185
X3.826 Y62.188
X4.891 Y62.189
X37.916 Y62.19
X61.087
X61.217 Y62.158
X61.452 Y62.034
X61.637 Y61.842
X61.921 Y61.391
X62.063 Y60.878
X62.131 Y60.35
X62.163 Y59.818
X62.178 Y59.286
X62.184 Y58.753
X62.187 Y58.22
X62.189 Y57.155
X62.19 Y35.316
Y0.959
X62.174 Y0.827
X62.121 Y0.704
X61.971 Y0.485
X61.766 Y0.314
X61.301 Y0.054
X60.785 Y-0.075
X60.255 Y-0.137
X59.724 Y-0.166
X59.191 Y-0.179
X58.658 Y-0.185
X58.126 Y-0.188
X57.06 Y-0.19
X46.94
X1.796
X1.665 Y-0.17
X1.42 Y-0.065
X1.223 Y0.114
X0.916 Y0.55
X0.758 Y1.058
X0.68 Y1.585
X0.643 Y2.117
X0.625 Y2.649
X0.617 Y3.182
X0.613 Y3.714
X0.612 Y4.247
X0.61 Y6.378
Y54.318
Y60.177
X0.701 Y60.427
X0.859 Y60.642
X1.261 Y60.99
X1.757 Y61.186
X2.28 Y61.288
X2.81 Y61.34
X3.342 Y61.366
X3.874 Y61.378
X4.407 Y61.384
X4.94 Y61.387
X6.005 Y61.389
X20.387 Y61.39
X44.357
X60.07
X60.331 Y61.336
X60.562 Y61.203
X60.752 Y61.016
X61.055 Y60.578
X61.22 Y60.072
X61.306 Y59.546
X61.349 Y59.015
X61.37 Y58.483
X61.38 Y57.95
X61.385 Y57.418
X61.388 Y56.885
X61.389 Y55.82
X61.39 Y27.588
Y2.021
X61.358 Y1.756
X61.246 Y1.514
X61.075 Y1.311
X60.656 Y0.981
X60.156 Y0.798
X59.632 Y0.704
X59.101 Y0.656
X58.569 Y0.632
X58.036 Y0.621
X57.504 Y0.615
X56.971 Y0.612
X55.906 Y0.611
X37.263 Y0.61
X2.639
X2.388 Y0.7
X2.173 Y0.856
X1.82 Y1.255
X1.621 Y1.749
X1.516 Y2.271
X1.463 Y2.801
X1.436 Y3.333
X1.423 Y3.866
X1.416 Y4.398
X1.413 Y4.931
X1.411 Y5.996
X1.41 Y15.052
Y15.584
Y59.263
X1.481 Y59.52
X1.621 Y59.746
X1.809 Y59.935
X2.247 Y60.238
X2.752 Y60.407
X3.277 Y60.497
X3.808 Y60.543
X4.34 Y60.567
X4.873 Y60.578
X5.405 Y60.584
X5.938 Y60.587
X7.003 Y60.589
X7.536 Y60.59
X57.606
X59.204
X59.464 Y60.531
X59.698 Y60.404
X59.894 Y60.224
X60.213 Y59.797
X60.393 Y59.296
X60.489 Y58.772
X60.539 Y58.241
X60.565 Y57.709
X60.577 Y57.177
X60.584 Y56.644
X60.587 Y56.112
X60.589 Y55.046
X60.59 Y48.122
Y12.433
Y2.845
X60.544 Y2.583
X60.429 Y2.342
X60.258 Y2.139
X59.841 Y1.806
X59.343 Y1.618
X58.82 Y1.516
X58.29 Y1.464
X57.758 Y1.437
X57.226 Y1.423
X56.693 Y1.417
X56.161 Y1.413
X55.095 Y1.411
X49.236 Y1.41
X20.472
X3.693
X3.428 Y1.441
X3.182 Y1.542
X2.972 Y1.705
X2.627 Y2.111
X2.429 Y2.606
X2.323 Y3.128
X2.267 Y3.657
X2.239 Y4.189
X2.224 Y4.722
X2.217 Y5.254
X2.214 Y5.787
X2.211 Y6.852
X2.21 Y11.646
Y34.018
Y58.255
X2.239 Y58.519
X2.335 Y58.768
X2.49 Y58.984
X2.884 Y59.342
X3.374 Y59.552
X3.894 Y59.666
X4.424 Y59.727
X4.955 Y59.758
X5.488 Y59.774
X6.02 Y59.782
X6.553 Y59.786
X7.086 Y59.788
X8.684 Y59.79
X27.327
X58.222
X58.487 Y59.767
X58.738 Y59.679
X58.959 Y59.53
X59.326 Y59.144
X59.543 Y58.657
X59.661 Y58.138
X59.724 Y57.609
X59.756 Y57.078
X59.773 Y56.545
X59.781 Y56.013
X59.786 Y55.48
X59.788 Y54.947
X59.79 Y53.349
Y41.098
Y3.811
X59.776 Y3.545
X59.697 Y3.291
X59.554 Y3.066
X59.366 Y2.878
X58.928 Y2.574
X58.424 Y2.402
X57.899 Y2.31
X57.369 Y2.261
X56.837 Y2.236
X56.304 Y2.223
X55.772 Y2.217
X55.239 Y2.213
X54.174 Y2.211
X48.847 Y2.21
X47.782
X4.636
X4.37 Y2.217
X4.113 Y2.289
X3.885 Y2.426
X3.693 Y2.611
X3.384 Y3.044
X3.208 Y3.547
X3.113 Y4.071
X3.063 Y4.602
X3.037 Y5.134
X3.024 Y5.666
X3.017 Y6.199
X3.013 Y6.731
X3.011 Y7.797
X3.01 Y8.329
Y57.335
X3.017 Y57.601
X3.084 Y57.859
X3.216 Y58.09
X3.397 Y58.285
X3.826 Y58.602
X4.326 Y58.783
X4.85 Y58.882
X5.38 Y58.934
X5.912 Y58.961
X6.444 Y58.975
X6.977 Y58.983
X7.51 Y58.986
X8.575 Y58.989
X12.836 Y58.99
X53.319
X57.58
X57.839 Y58.928
X58.073 Y58.8
X58.271 Y58.622
X58.593 Y58.198
X58.778 Y57.698
X58.879 Y57.175
X58.933 Y56.645
X58.961 Y56.114
X58.975 Y55.581
X58.982 Y55.048
X58.986 Y54.516
X58.989 Y53.45
X58.99 Y49.722
Y13.501
Y4.445
X58.927 Y4.186
X58.803 Y3.951
X58.628 Y3.75
X58.21 Y3.42
X57.713 Y3.229
X57.19 Y3.125
X56.661 Y3.069
X56.129 Y3.041
X55.596 Y3.026
X55.064 Y3.018
X54.531 Y3.014
X53.466 Y3.011
X49.737 Y3.01
X18.31
X5.526
X5.259 Y3.011
X4.999 Y3.068
X4.762 Y3.189
X4.559 Y3.362
X4.225 Y3.776
X4.032 Y4.273
X3.926 Y4.795
X3.87 Y5.325
X3.841 Y5.857
X3.826 Y6.389
X3.818 Y6.922
X3.814 Y7.454
X3.811 Y8.52
X3.81 Y12.248
Y39.414
Y56.459
X3.811 Y56.726
X3.866 Y56.986
X3.985 Y57.225
X4.155 Y57.429
X4.567 Y57.767
X5.062 Y57.963
X5.584 Y58.071
X6.114 Y58.128
X6.646 Y58.158
X7.178 Y58.173
X7.711 Y58.182
X8.243 Y58.186
X8.776 Y58.188
X10.374 Y58.19
X35.942
X56.716
X56.977 Y58.138
X57.217 Y58.022
X57.423 Y57.853
X57.763 Y57.443
X57.961 Y56.949
X58.069 Y56.427
X58.127 Y55.898
X58.157 Y55.366
X58.173 Y54.834
X58.181 Y54.301
X58.186 Y53.768
X58.188 Y53.236
X58.19 Y51.638
Y29.266
Y5.296
X58.138 Y5.035
X58.025 Y4.794
X57.857 Y4.586
X57.45 Y4.243
X56.957 Y4.043
X56.435 Y3.933
X55.906 Y3.874
X55.374 Y3.843
X54.842 Y3.827
X54.309 Y3.819
X53.777 Y3.815
X53.244 Y3.812
X51.646 Y3.81
X32.47
X6.103
X5.841 Y3.86
X5.599 Y3.971
X5.391 Y4.137
X5.046 Y4.543
X4.845 Y5.036
X4.734 Y5.557
X4.675 Y6.086
X4.643 Y6.618
X4.627 Y7.151
X4.619 Y7.683
X4.615 Y8.216
X4.612 Y8.748
X4.61 Y10.346
Y26.859
Y55.889
X4.659 Y56.151
X4.769 Y56.394
X4.934 Y56.603
X5.338 Y56.95
X5.831 Y57.153
X6.351 Y57.264
X6.881 Y57.324
X7.412 Y57.356
X7.945 Y57.372
X8.477 Y57.381
X9.01 Y57.385
X9.543 Y57.388
X11.141 Y57.39
X24.99
X55.885
X56.147 Y57.343
X56.39 Y57.234
X56.6 Y57.07
X56.948 Y56.667
X57.151 Y56.175
X57.264 Y55.654
X57.324 Y55.125
X57.356 Y54.593
X57.372 Y54.061
X57.381 Y53.528
X57.385 Y52.996
X57.388 Y52.463
X57.39 Y50.865
Y38.614
Y6.121
X57.344 Y5.859
X57.236 Y5.615
X57.073 Y5.405
X56.67 Y5.055
X56.179 Y4.851
X55.658 Y4.737
X55.129 Y4.677
X54.597 Y4.645
X54.065 Y4.628
X53.532 Y4.619
X53. Y4.615
X52.467 Y4.612
X50.869 Y4.61
X40.216
X6.924
X6.662 Y4.655
X6.418 Y4.762
X6.207 Y4.925
X5.857 Y5.326
X5.651 Y5.818
X5.538 Y6.338
X5.477 Y6.867
X5.445 Y7.399
X5.428 Y7.931
X5.419 Y8.464
X5.415 Y8.997
X5.412 Y9.529
X5.41 Y11.127
Y20.715
Y55.072
X5.455 Y55.335
X5.561 Y55.579
X5.724 Y55.79
X6.124 Y56.141
X6.615 Y56.347
X7.136 Y56.461
X7.665 Y56.523
X8.197 Y56.555
X8.729 Y56.572
X9.261 Y56.581
X9.794 Y56.585
X10.327 Y56.587
X11.925 Y56.59
X20.447
X55.071
X55.333 Y56.546
X55.578 Y56.44
X55.789 Y56.278
X56.141 Y55.878
X56.347 Y55.387
X56.461 Y54.866
X56.522 Y54.337
X56.555 Y53.805
X56.572 Y53.273
X56.581 Y52.74
X56.585 Y52.208
X56.587 Y51.675
X56.59 Y50.077
Y41.555
Y6.931
X56.546 Y6.669
X56.44 Y6.424
X56.279 Y6.212
X55.879 Y5.861
X55.388 Y5.654
X54.868 Y5.539
X54.338 Y5.478
X53.807 Y5.445
X53.274 Y5.428
X52.742 Y5.42
X52.209 Y5.415
X51.677 Y5.413
X50.611 Y5.411
X41.556 Y5.41
X7.732
X7.469 Y5.454
X7.224 Y5.559
X7.013 Y5.721
X6.661 Y6.121
X6.454 Y6.612
X6.339 Y7.132
X6.278 Y7.661
X6.245 Y8.193
X6.228 Y8.725
X6.22 Y9.258
X6.215 Y9.79
X6.213 Y10.323
X6.211 Y11.388
X6.21 Y20.976
Y54.268
X6.254 Y54.531
X6.359 Y54.775
X6.521 Y54.987
X6.921 Y55.339
X7.412 Y55.546
X7.932 Y55.66
X8.461 Y55.722
X8.993 Y55.754
X9.525 Y55.771
X10.058 Y55.78
X10.59 Y55.785
X11.123 Y55.787
X12.188 Y55.789
X22.309 Y55.79
X54.269
X54.532 Y55.746
X54.776 Y55.64
X54.988 Y55.479
X55.339 Y55.078
X55.546 Y54.588
X55.66 Y54.067
X55.722 Y53.538
X55.754 Y53.007
X55.772 Y52.474
X55.78 Y51.942
X55.785 Y51.409
X55.787 Y50.876
X55.789 Y49.811
X55.79 Y39.69
Y38.092
Y7.73
X55.746 Y7.468
X55.64 Y7.223
X55.478 Y7.012
X55.077 Y6.661
X54.586 Y6.454
X54.066 Y6.34
X53.537 Y6.278
X53.005 Y6.246
X52.473 Y6.229
X51.94 Y6.22
X51.408 Y6.215
X50.875 Y6.213
X49.81 Y6.211
X39.689 Y6.21
X36.493
X8.528
X8.266 Y6.255
X8.022 Y6.361
X7.81 Y6.523
X7.46 Y6.924
X7.253 Y7.416
X7.139 Y7.936
X7.078 Y8.465
X7.045 Y8.997
X7.028 Y9.529
X7.02 Y10.062
X7.015 Y10.594
X7.013 Y11.127
X7.011 Y12.192
X7.01 Y22.313
Y27.64
Y53.474
X7.055 Y53.736
X7.162 Y53.98
X7.325 Y54.191
X7.727 Y54.541
X8.218 Y54.747
X8.738 Y54.861
X9.267 Y54.922
X9.799 Y54.955
X10.331 Y54.972
X10.864 Y54.98
X11.397 Y54.985
X11.929 Y54.987
X12.995 Y54.989
X23.115 Y54.99
X30.573
X53.477
X53.74 Y54.944
X53.983 Y54.836
X54.194 Y54.673
X54.543 Y54.271
X54.748 Y53.779
X54.861 Y53.258
X54.922 Y52.729
X54.955 Y52.198
X54.972 Y51.665
X54.98 Y51.133
X54.985 Y50.6
X54.987 Y50.067
X54.989 Y49.002
X54.99 Y38.881
Y28.228
Y8.519
X54.943 Y8.257
X54.835 Y8.014
X54.671 Y7.804
X54.267 Y7.456
X53.776 Y7.252
X53.255 Y7.138
X52.726 Y7.077
X52.194 Y7.045
X51.662 Y7.028
X51.129 Y7.02
X50.597 Y7.015
X50.064 Y7.013
X48.999 Y7.011
X38.878 Y7.01
X25.029
X9.315 Y7.011
X9.053 Y7.058
X8.81 Y7.168
X8.601 Y7.333
X8.254 Y7.737
X8.05 Y8.229
X7.938 Y8.75
X7.877 Y9.279
X7.845 Y9.811
X7.828 Y10.343
X7.82 Y10.876
X7.815 Y11.408
X7.813 Y11.941
X7.81 Y13.539
Y40.705
Y52.424
X7.811 Y52.69
X7.86 Y52.952
X7.97 Y53.194
X8.136 Y53.402
X8.541 Y53.748
X9.034 Y53.951
X9.555 Y54.063
X10.084 Y54.123
X10.616 Y54.155
X11.148 Y54.172
X11.681 Y54.181
X12.213 Y54.185
X12.746 Y54.187
X14.344 Y54.19
X45.239
X52.696
X52.957 Y54.139
X53.199 Y54.027
X53.407 Y53.861
X53.751 Y53.454
X53.952 Y52.961
X54.064 Y52.44
X54.124 Y51.911
X54.155 Y51.379
X54.172 Y50.846
X54.181 Y50.314
X54.185 Y49.781
X54.187 Y49.248
X54.19 Y47.65
Y11.962
Y9.299
X54.138 Y9.037
X54.025 Y8.796
X53.857 Y8.589
X53.449 Y8.247
X52.955 Y8.047
X52.434 Y7.936
X51.905 Y7.876
X51.373 Y7.845
X50.841 Y7.828
X50.308 Y7.819
X49.776 Y7.815
X49.243 Y7.813
X47.645 Y7.81
X10.358
X10.092 Y7.811
X9.831 Y7.865
X9.591 Y7.98
X9.385 Y8.148
X9.044 Y8.558
X8.845 Y9.052
X8.735 Y9.573
X8.676 Y10.102
X8.644 Y10.634
X8.628 Y11.167
X8.619 Y11.699
X8.615 Y12.232
X8.613 Y12.765
X8.61 Y14.362
Y51.649
X8.612 Y51.915
X8.667 Y52.176
X8.783 Y52.415
X8.954 Y52.62
X9.365 Y52.959
X9.859 Y53.157
X10.381 Y53.266
X10.91 Y53.325
X11.442 Y53.356
X11.974 Y53.372
X12.507 Y53.381
X13.04 Y53.385
X13.572 Y53.387
X15.17 Y53.39
X16.236
X51.924
X52.184 Y53.333
X52.423 Y53.214
X52.626 Y53.042
X52.962 Y52.629
X53.159 Y52.134
X53.267 Y51.612
X53.325 Y51.083
X53.356 Y50.551
X53.372 Y50.019
X53.381 Y49.486
X53.385 Y48.953
X53.388 Y48.421
X53.39 Y46.823
Y39.366
Y10.069
X53.331 Y9.809
X53.211 Y9.572
X53.038 Y9.369
X52.623 Y9.035
X52.127 Y8.84
X51.606 Y8.732
X51.076 Y8.674
X50.544 Y8.644
X50.012 Y8.627
X49.479 Y8.619
X48.947 Y8.615
X48.414 Y8.612
X46.816 Y8.61
X32.967
X11.127
X10.861 Y8.613
X10.602 Y8.673
X10.365 Y8.796
X10.163 Y8.97
X9.831 Y9.386
X9.638 Y9.882
X9.531 Y10.404
X9.474 Y10.934
X9.443 Y11.465
X9.427 Y11.998
X9.419 Y12.53
X9.415 Y13.063
X9.412 Y13.596
X9.41 Y15.194
Y35.968
Y50.882
X9.414 Y51.149
X9.477 Y51.408
X9.601 Y51.643
X9.777 Y51.843
X10.195 Y52.173
X10.692 Y52.365
X11.214 Y52.47
X11.744 Y52.527
X12.276 Y52.557
X12.808 Y52.573
X13.341 Y52.581
X13.873 Y52.585
X14.406 Y52.588
X16.004 Y52.59
X43.703
X51.16
X51.418 Y52.524
X51.652 Y52.397
X51.851 Y52.22
X52.177 Y51.799
X52.367 Y51.301
X52.472 Y50.779
X52.528 Y50.249
X52.557 Y49.717
X52.573 Y49.185
X52.581 Y48.652
X52.585 Y48.119
X52.588 Y47.587
X52.59 Y45.989
Y10.833
X52.522 Y10.575
X52.394 Y10.342
X52.215 Y10.145
X51.792 Y9.82
X51.294 Y9.631
X50.772 Y9.528
X50.242 Y9.472
X49.71 Y9.442
X49.178 Y9.427
X48.645 Y9.419
X48.113 Y9.415
X47.58 Y9.412
X45.982 Y9.41
X11.891
X11.625 Y9.418
X11.368 Y9.486
X11.135 Y9.617
X10.939 Y9.796
X10.616 Y10.22
X10.429 Y10.719
X10.326 Y11.242
X10.271 Y11.771
X10.242 Y12.303
X10.227 Y12.836
X10.219 Y13.368
X10.215 Y13.901
X10.212 Y14.434
X10.21 Y16.032
Y17.63
Y50.122
X10.221 Y50.388
X10.292 Y50.645
X10.425 Y50.876
X10.607 Y51.07
X11.034 Y51.389
X11.533 Y51.574
X12.056 Y51.675
X12.586 Y51.73
X13.118 Y51.759
X13.65 Y51.774
X14.183 Y51.781
X14.716 Y51.786
X15.248 Y51.788
X16.846 Y51.79
X26.967
X50.404
X50.659 Y51.713
X50.888 Y51.576
X51.08 Y51.392
X51.395 Y50.962
X51.577 Y50.462
X51.677 Y49.939
X51.731 Y49.409
X51.759 Y48.877
X51.774 Y48.344
X51.782 Y47.812
X51.786 Y47.279
X51.788 Y46.746
X51.79 Y45.148
Y25.44
Y11.59
X51.712 Y11.336
X51.574 Y11.108
X51.389 Y10.917
X50.958 Y10.603
X50.457 Y10.422
X49.934 Y10.323
X49.404 Y10.269
X48.872 Y10.241
X48.339 Y10.226
X47.807 Y10.218
X47.274 Y10.214
X46.741 Y10.212
X45.143 Y10.21
X15.847
X12.651
X12.385 Y10.226
X12.13 Y10.304
X11.903 Y10.442
X11.712 Y10.628
X11.4 Y11.06
X11.22 Y11.561
X11.121 Y12.085
X11.069 Y12.615
X11.041 Y13.147
X11.026 Y13.679
X11.018 Y14.212
X11.014 Y14.744
X11.011 Y15.81
X11.01 Y19.006
Y49.368
X11.031 Y49.633
X11.113 Y49.887
X11.255 Y50.112
X11.632 Y50.488
X12.113 Y50.716
X12.63 Y50.844
X13.159 Y50.913
X13.69 Y50.95
X14.222 Y50.969
X14.755 Y50.979
X15.288 Y50.984
X15.82 Y50.987
X16.886 Y50.989
X17.418 Y50.99
X49.378
X49.644 Y50.969
X49.896 Y50.884
X50.12 Y50.74
X50.494 Y50.361
X50.719 Y49.878
X50.846 Y49.361
X50.914 Y48.832
X50.95 Y48.301
X50.969 Y47.769
X50.979 Y47.236
X50.984 Y46.703
X50.987 Y46.171
X50.989 Y45.105
X50.99 Y38.713
Y33.387
Y12.613
X50.966 Y12.348
X50.88 Y12.096
X50.734 Y11.873
X50.352 Y11.501
X49.868 Y11.278
X49.351 Y11.153
X48.822 Y11.085
X48.291 Y11.049
X47.759 Y11.031
X47.226 Y11.021
X46.693 Y11.016
X46.161 Y11.013
X45.095 Y11.011
X38.171 Y11.01
X22.191
X13.402
X13.137 Y11.039
X12.886 Y11.129
X12.665 Y11.278
X12.297 Y11.662
X12.075 Y12.147
X11.951 Y12.665
X11.885 Y13.193
X11.849 Y13.725
X11.83 Y14.257
X11.821 Y14.79
X11.816 Y15.322
X11.813 Y15.855
X11.811 Y16.92
X11.81 Y23.845
Y48.614
X11.841 Y48.879
X11.933 Y49.129
X12.084 Y49.347
X12.471 Y49.713
X12.958 Y49.931
X13.476 Y50.052
X14.005 Y50.117
X14.537 Y50.152
X15.069 Y50.17
X15.602 Y50.18
X16.134 Y50.185
X16.667 Y50.187
X17.732 Y50.189
X25.19 Y50.19
X48.627
X48.891 Y50.157
X49.14 Y50.062
X49.357 Y49.908
X49.72 Y49.518
X49.934 Y49.03
X50.054 Y48.511
X50.118 Y47.982
X50.152 Y47.451
X50.17 Y46.918
X50.18 Y46.386
X50.185 Y45.853
X50.187 Y45.32
X50.189 Y44.255
X50.19 Y36.265
Y35.2
Y13.36
X50.154 Y13.097
X50.056 Y12.849
X49.899 Y12.633
X49.506 Y12.275
X49.017 Y12.062
X48.498 Y11.944
X47.969 Y11.881
X47.437 Y11.847
X46.905 Y11.829
X46.372 Y11.82
X45.84 Y11.815
X45.307 Y11.813
X44.242 Y11.811
X36.252 Y11.81
X22.402
X14.412
X14.146 Y11.811
X13.883 Y11.851
X13.637 Y11.953
X13.423 Y12.112
X13.069 Y12.51
X12.859 Y12.999
X12.743 Y13.519
X12.68 Y14.048
X12.647 Y14.58
X12.629 Y15.112
X12.62 Y15.645
X12.615 Y16.177
X12.613 Y16.71
X12.611 Y17.775
X12.61 Y26.298
Y47.605
X12.611 Y47.871
X12.654 Y48.134
X12.759 Y48.378
X12.922 Y48.59
X13.323 Y48.94
X13.814 Y49.146
X14.334 Y49.26
X14.864 Y49.322
X15.395 Y49.354
X15.928 Y49.371
X16.46 Y49.38
X16.993 Y49.385
X17.525 Y49.387
X18.591 Y49.389
X27.646 Y49.39
X47.887
X48.15 Y49.343
X48.392 Y49.234
X48.601 Y49.069
X48.947 Y48.663
X49.15 Y48.171
X49.262 Y47.65
X49.323 Y47.121
X49.355 Y46.589
X49.372 Y46.057
X49.38 Y45.524
X49.385 Y44.992
X49.387 Y44.459
X49.389 Y43.394
X49.39 Y33.806
Y30.61
Y14.097
X49.339 Y13.836
X49.226 Y13.594
X49.058 Y13.388
X48.65 Y13.046
X48.156 Y12.846
X47.635 Y12.736
X47.105 Y12.676
X46.574 Y12.645
X46.041 Y12.628
X45.509 Y12.619
X44.976 Y12.615
X44.443 Y12.613
X42.845 Y12.61
X16.212
X15.147
X14.881 Y12.612
X14.62 Y12.667
X14.381 Y12.784
X14.176 Y12.955
X13.839 Y13.368
X13.642 Y13.863
X13.533 Y14.384
X13.475 Y14.913
X13.444 Y15.445
X13.428 Y15.978
X13.419 Y16.51
X13.415 Y17.043
X13.413 Y17.575
X13.41 Y19.173
Y46.872
X13.413 Y47.138
X13.472 Y47.398
X13.593 Y47.635
X13.767 Y47.837
X14.183 Y48.169
X14.68 Y48.362
X15.202 Y48.469
X15.731 Y48.526
X16.263 Y48.557
X16.795 Y48.573
X17.328 Y48.581
X17.861 Y48.585
X18.393 Y48.588
X19.991 Y48.59
X26.383
X47.157
X47.416 Y48.526
X47.651 Y48.401
X47.85 Y48.224
X48.176 Y47.803
X48.367 Y47.305
X48.471 Y46.783
X48.528 Y46.254
X48.557 Y45.722
X48.573 Y45.189
X48.581 Y44.657
X48.585 Y44.124
X48.588 Y43.591
X48.59 Y41.993
Y19.621
Y14.827
X48.522 Y14.57
X48.393 Y14.337
X48.214 Y14.14
X47.79 Y13.817
X47.291 Y13.63
X46.769 Y13.527
X46.239 Y13.471
X45.707 Y13.442
X45.175 Y13.427
X44.642 Y13.419
X44.109 Y13.415
X43.577 Y13.412
X41.979 Y13.41
X15.878
X15.612 Y13.42
X15.355 Y13.49
X15.124 Y13.623
X14.929 Y13.804
X14.611 Y14.231
X14.426 Y14.731
X14.325 Y15.254
X14.27 Y15.784
X14.242 Y16.316
X14.226 Y16.848
X14.219 Y17.381
X14.214 Y17.913
X14.212 Y18.446
X14.21 Y20.044
Y24.838
Y46.145
X14.224 Y46.411
X14.299 Y46.666
X14.437 Y46.894
X14.622 Y47.086
X15.053 Y47.399
X15.554 Y47.579
X16.077 Y47.678
X16.607 Y47.731
X17.139 Y47.759
X17.672 Y47.774
X18.204 Y47.782
X18.737 Y47.786
X19.802 Y47.789
X22.998 Y47.79
X42.174
X46.436
X46.688 Y47.706
X46.913 Y47.562
X47.289 Y47.185
X47.516 Y46.703
X47.644 Y46.186
X47.713 Y45.658
X47.75 Y45.127
X47.769 Y44.594
X47.779 Y44.062
X47.784 Y43.529
X47.787 Y42.996
X47.789 Y41.931
X47.79 Y35.539
Y15.83
X47.771 Y15.565
X47.689 Y15.311
X47.546 Y15.086
X47.17 Y14.71
X46.688 Y14.482
X46.171 Y14.355
X45.642 Y14.286
X45.111 Y14.25
X44.579 Y14.231
X44.046 Y14.221
X43.513 Y14.216
X42.981 Y14.213
X41.915 Y14.211
X35.523 Y14.21
X34.991
X16.348
X16.097 Y14.3
X15.875 Y14.447
X15.504 Y14.83
X15.28 Y15.313
X15.154 Y15.83
X15.086 Y16.359
X15.05 Y16.89
X15.031 Y17.423
X15.021 Y17.955
X15.016 Y18.488
X15.013 Y19.02
X15.011 Y20.086
X15.01 Y26.478
Y45.121
Y45.654
X15.1 Y45.904
X15.248 Y46.126
X15.631 Y46.496
X16.114 Y46.72
X16.632 Y46.845
X17.16 Y46.914
X17.692 Y46.95
X18.224 Y46.969
X18.757 Y46.979
X19.289 Y46.984
X19.822 Y46.987
X20.887 Y46.989
X27.279 Y46.99
X45.39
X45.655 Y46.968
X45.908 Y46.884
X46.13 Y46.737
X46.503 Y46.357
X46.725 Y45.872
X46.849 Y45.354
X46.916 Y44.826
X46.951 Y44.294
X46.97 Y43.762
X46.979 Y43.23
X46.984 Y42.697
X46.987 Y42.164
X46.989 Y41.099
X46.99 Y34.174
Y28.848
Y16.596
X46.962 Y16.331
X46.873 Y16.08
X46.724 Y15.86
X46.34 Y15.491
X45.854 Y15.272
X45.336 Y15.149
X44.807 Y15.083
X44.276 Y15.048
X43.743 Y15.03
X43.211 Y15.02
X42.678 Y15.015
X42.145 Y15.013
X41.08 Y15.011
X33.623 Y15.01
X17.376
X17.112 Y15.039
X16.862 Y15.132
X16.644 Y15.286
X16.281 Y15.675
X16.066 Y16.163
X15.946 Y16.682
X15.882 Y17.211
X15.848 Y17.742
X15.83 Y18.274
X15.82 Y18.807
X15.815 Y19.34
X15.813 Y19.872
X15.811 Y20.938
X15.81 Y22.003
Y44.641
X15.843 Y44.906
X15.941 Y45.153
X16.097 Y45.369
X16.492 Y45.727
X16.981 Y45.938
X17.5 Y46.056
X18.029 Y46.119
X18.561 Y46.153
X19.093 Y46.171
X19.626 Y46.18
X20.158 Y46.185
X20.691 Y46.187
X21.756 Y46.189
X29.746 Y46.19
X42.53
X44.661
X44.924 Y46.151
X45.171 Y46.049
X45.383 Y45.889
X45.736 Y45.49
X45.944 Y45.
X46.059 Y44.48
X46.121 Y43.951
X46.154 Y43.419
X46.171 Y42.887
X46.18 Y42.354
X46.185 Y41.821
X46.187 Y41.289
X46.189 Y40.223
X46.19 Y31.168
Y17.319
X46.145 Y17.056
X46.038 Y16.812
X45.874 Y16.602
X45.47 Y16.255
X44.978 Y16.051
X44.458 Y15.938
X43.929 Y15.877
X43.397 Y15.845
X42.864 Y15.828
X42.332 Y15.82
X41.799 Y15.815
X41.267 Y15.813
X40.201 Y15.811
X30.613 Y15.81
X28.483
X18.362
X18.096 Y15.811
X17.834 Y15.861
X17.592 Y15.973
X17.386 Y16.141
X17.045 Y16.55
X16.845 Y17.044
X16.735 Y17.565
X16.676 Y18.095
X16.644 Y18.626
X16.628 Y19.159
X16.619 Y19.691
X16.615 Y20.224
X16.613 Y20.757
X16.61 Y22.355
Y43.661
X16.612 Y43.928
X16.667 Y44.188
X16.785 Y44.427
X16.957 Y44.631
X17.371 Y44.965
X17.867 Y45.16
X18.388 Y45.268
X18.918 Y45.326
X19.45 Y45.356
X19.982 Y45.372
X20.515 Y45.381
X21.047 Y45.385
X21.58 Y45.388
X23.178 Y45.39
X26.907
X43.952
X44.211 Y45.329
X44.447 Y45.205
X44.647 Y45.03
X44.975 Y44.61
X45.166 Y44.113
X45.271 Y43.59
X45.328 Y43.061
X45.357 Y42.529
X45.373 Y41.996
X45.381 Y41.464
X45.385 Y40.931
X45.388 Y40.398
X45.39 Y38.8
Y18.027
X45.323 Y17.769
X45.194 Y17.536
X45.015 Y17.339
X44.591 Y17.017
X44.092 Y16.829
X43.57 Y16.726
X43.04 Y16.671
X42.508 Y16.642
X41.975 Y16.627
X41.443 Y16.619
X40.91 Y16.615
X40.378 Y16.612
X38.78 Y16.61
X19.071
X18.805 Y16.621
X18.548 Y16.691
X18.318 Y16.825
X18.124 Y17.007
X17.807 Y17.436
X17.624 Y17.936
X17.523 Y18.459
X17.47 Y18.989
X17.441 Y19.521
X17.426 Y20.053
X17.418 Y20.586
X17.414 Y21.119
X17.412 Y21.651
X17.41 Y23.249
Y42.958
X17.427 Y43.224
X17.505 Y43.478
X17.646 Y43.705
X17.832 Y43.895
X18.266 Y44.204
X18.768 Y44.382
X19.291 Y44.48
X19.821 Y44.532
X20.353 Y44.56
X20.886 Y44.574
X21.418 Y44.582
X21.951 Y44.586
X23.016 Y44.589
X26.212 Y44.59
X43.258
X43.508 Y44.5
X43.729 Y44.352
X44.1 Y43.969
X44.323 Y43.485
X44.448 Y42.967
X44.515 Y42.439
X44.551 Y41.908
X44.57 Y41.375
X44.579 Y40.843
X44.584 Y40.31
X44.587 Y39.777
X44.589 Y38.712
X44.59 Y31.787
Y20.601
Y19.003
X44.564 Y18.738
X44.475 Y18.487
X44.327 Y18.266
X43.944 Y17.896
X43.46 Y17.674
X42.942 Y17.55
X42.413 Y17.484
X41.882 Y17.449
X41.349 Y17.43
X40.817 Y17.42
X40.284 Y17.415
X39.752 Y17.413
X38.686 Y17.411
X31.229 Y17.41
X19.777
X19.512 Y17.444
X19.264 Y17.54
X19.046 Y17.694
X18.683 Y18.084
X18.467 Y18.57
X18.346 Y19.089
X18.282 Y19.618
X18.247 Y20.149
X18.23 Y20.682
X18.22 Y21.214
X18.215 Y21.747
X18.213 Y22.28
X18.211 Y23.345
X18.21 Y31.335
Y39.858
Y41.988
X18.211 Y42.255
X18.253 Y42.518
X18.358 Y42.763
X18.517 Y42.976
X18.914 Y43.331
X19.404 Y43.542
X19.923 Y43.658
X20.452 Y43.721
X20.984 Y43.754
X21.516 Y43.771
X22.049 Y43.78
X22.582 Y43.785
X23.114 Y43.787
X24.18 Y43.789
X33.235 Y43.79
X42.29
X42.553 Y43.747
X42.797 Y43.639
X43.006 Y43.474
X43.35 Y43.068
X43.552 Y42.575
X43.664 Y42.054
X43.724 Y41.525
X43.755 Y40.993
X43.772 Y40.461
X43.781 Y39.928
X43.785 Y39.396
X43.787 Y38.863
X43.79 Y37.265
Y21.285
Y19.687
X43.738 Y19.426
X43.624 Y19.185
X43.455 Y18.979
X43.044 Y18.641
X42.549 Y18.443
X42.028 Y18.334
X41.498 Y18.275
X40.967 Y18.244
X40.434 Y18.228
X39.902 Y18.219
X39.369 Y18.215
X38.836 Y18.212
X37.238 Y18.21
X20.726
X20.459 Y18.214
X20.2 Y18.272
X19.962 Y18.393
X19.761 Y18.567
X19.43 Y18.985
X19.237 Y19.481
X19.13 Y20.003
X19.073 Y20.533
X19.043 Y21.064
X19.027 Y21.597
X19.019 Y22.129
X19.015 Y22.662
X19.012 Y23.195
X19.01 Y24.793
Y41.305
X19.019 Y41.572
X19.085 Y41.83
X19.213 Y42.063
X19.392 Y42.26
X19.816 Y42.583
X20.315 Y42.77
X20.837 Y42.874
X21.367 Y42.929
X21.899 Y42.958
X22.431 Y42.973
X22.964 Y42.981
X23.497 Y42.986
X24.029 Y42.988
X25.627 Y42.99
X41.607
X41.863 Y42.916
X42.091 Y42.779
X42.284 Y42.595
X42.598 Y42.164
X42.779 Y41.664
X42.878 Y41.14
X42.931 Y40.61
X42.959 Y40.078
X42.974 Y39.546
X42.982 Y39.013
X42.986 Y38.481
X42.989 Y37.415
X42.99 Y34.219
Y20.37
X42.908 Y20.117
X42.766 Y19.891
X42.391 Y19.513
X41.91 Y19.284
X41.393 Y19.156
X40.865 Y19.087
X40.333 Y19.05
X39.801 Y19.031
X39.268 Y19.021
X38.736 Y19.016
X38.203 Y19.013
X37.138 Y19.011
X30.746 Y19.01
X21.158
X20.906 Y19.096
X20.682 Y19.241
X20.308 Y19.62
X20.081 Y20.102
X19.955 Y20.62
X19.886 Y21.148
X19.85 Y21.679
X19.831 Y22.212
X19.821 Y22.744
X19.816 Y23.277
X19.813 Y23.809
X19.811 Y24.875
X19.81 Y31.799
Y40.855
X19.901 Y41.105
X20.048 Y41.327
X20.431 Y41.698
X20.914 Y41.921
X21.432 Y42.047
X21.96 Y42.114
X22.492 Y42.15
X23.024 Y42.169
X23.557 Y42.179
X24.089 Y42.184
X24.622 Y42.187
X25.687 Y42.189
X28.883 Y42.19
X40.602
X40.867 Y42.164
X41.118 Y42.074
X41.339 Y41.925
X41.707 Y41.54
X41.928 Y41.055
X42.051 Y40.537
X42.117 Y40.009
X42.152 Y39.477
X42.17 Y38.945
X42.18 Y38.412
X42.185 Y37.88
X42.187 Y37.347
X42.189 Y36.282
X42.19 Y28.292
Y21.367
X42.159 Y21.102
X42.065 Y20.853
X41.911 Y20.636
X41.519 Y20.276
X41.03 Y20.063
X40.511 Y19.944
X39.982 Y19.881
X39.451 Y19.847
X38.918 Y19.829
X38.386 Y19.82
X37.853 Y19.815
X37.32 Y19.813
X36.255 Y19.811
X27.732 Y19.81
X26.134
X22.139
X21.876 Y19.847
X21.629 Y19.948
X21.416 Y20.108
X21.063 Y20.507
X20.856 Y20.997
X20.74 Y21.517
X20.679 Y22.046
X20.646 Y22.578
X20.629 Y23.11
X20.62 Y23.643
X20.615 Y24.176
X20.613 Y24.708
X20.611 Y25.774
X20.61 Y34.829
Y39.889
X20.653 Y40.152
X20.761 Y40.396
X20.926 Y40.605
X21.332 Y40.949
X21.825 Y41.151
X22.346 Y41.263
X22.875 Y41.323
X23.407 Y41.355
X23.939 Y41.372
X24.472 Y41.381
X25.005 Y41.385
X25.537 Y41.387
X27.135 Y41.39
X39.919
X40.18 Y41.337
X40.42 Y41.222
X40.625 Y41.051
X40.962 Y40.639
X41.159 Y40.144
X41.267 Y39.622
X41.325 Y39.093
X41.356 Y38.561
X41.372 Y38.028
X41.381 Y37.496
X41.385 Y36.963
X41.388 Y36.431
X41.39 Y34.833
Y22.049
X41.331 Y21.789
X41.208 Y21.553
X41.032 Y21.352
X40.613 Y21.024
X40.115 Y20.834
X39.593 Y20.728
X39.063 Y20.672
X38.532 Y20.642
X37.999 Y20.627
X37.467 Y20.619
X36.934 Y20.615
X36.401 Y20.612
X34.803 Y20.61
X23.085
X22.818 Y20.617
X22.56 Y20.683
X22.328 Y20.814
X22.132 Y20.994
X21.812 Y21.419
X21.626 Y21.919
X21.525 Y22.442
X21.47 Y22.971
X21.441 Y23.503
X21.426 Y24.036
X21.419 Y24.568
X21.414 Y25.101
X21.412 Y25.634
X21.41 Y27.232
Y36.82
Y38.95
X21.424 Y39.216
X21.5 Y39.472
X21.638 Y39.699
X21.823 Y39.891
X22.256 Y40.202
X22.757 Y40.381
X23.281 Y40.48
X23.811 Y40.532
X24.343 Y40.56
X24.875 Y40.574
X25.408 Y40.582
X25.94 Y40.586
X27.006 Y40.589
X30.202 Y40.59
X39.257
X39.508 Y40.5
X39.729 Y40.352
X40.101 Y39.97
X40.324 Y39.486
X40.448 Y38.968
X40.515 Y38.44
X40.551 Y37.909
X40.57 Y37.376
X40.579 Y36.844
X40.584 Y36.311
X40.587 Y35.778
X40.589 Y34.713
X40.59 Y27.788
Y22.994
X40.562 Y22.729
X40.472 Y22.479
X40.322 Y22.259
X39.938 Y21.89
X39.452 Y21.67
X38.934 Y21.548
X38.405 Y21.483
X37.874 Y21.448
X37.341 Y21.43
X36.809 Y21.42
X36.276 Y21.415
X35.743 Y21.413
X34.678 Y21.411
X29.884 Y21.41
X23.758
X23.495 Y21.448
X23.248 Y21.548
X23.033 Y21.705
X22.673 Y22.098
X22.461 Y22.587
X22.343 Y23.106
X22.28 Y23.635
X22.247 Y24.167
X22.229 Y24.699
X22.22 Y25.232
X22.215 Y25.764
X22.213 Y26.297
X22.211 Y27.362
X22.21 Y36.418
Y38.016
X22.211 Y38.282
X22.26 Y38.544
X22.37 Y38.786
X22.535 Y38.996
X22.937 Y39.344
X23.429 Y39.549
X23.95 Y39.662
X24.479 Y39.723
X25.01 Y39.755
X25.543 Y39.772
X26.075 Y39.781
X26.608 Y39.785
X27.141 Y39.787
X28.739 Y39.79
X38.327
X38.588 Y39.74
X38.828 Y39.623
X39.032 Y39.452
X39.366 Y39.037
X39.561 Y38.542
X39.669 Y38.02
X39.726 Y37.49
X39.757 Y36.959
X39.773 Y36.426
X39.781 Y35.894
X39.785 Y35.361
X39.788 Y34.828
X39.79 Y33.23
Y30.567
Y23.642
X39.729 Y23.383
X39.604 Y23.148
X39.428 Y22.948
X39.007 Y22.622
X38.509 Y22.432
X37.987 Y22.328
X37.457 Y22.272
X36.925 Y22.242
X36.393 Y22.227
X35.86 Y22.219
X35.328 Y22.215
X34.795 Y22.212
X33.197 Y22.21
X24.674
X24.408 Y22.222
X24.151 Y22.291
X23.92 Y22.425
X23.725 Y22.606
X23.408 Y23.034
X23.224 Y23.534
X23.123 Y24.057
X23.069 Y24.587
X23.041 Y25.118
X23.026 Y25.651
X23.018 Y26.184
X23.014 Y26.716
X23.012 Y27.249
X23.01 Y28.847
Y37.369
X23.033 Y37.635
X23.114 Y37.888
X23.257 Y38.113
X23.444 Y38.302
X23.88 Y38.609
X24.383 Y38.785
X24.907 Y38.882
X25.437 Y38.933
X25.969 Y38.96
X26.501 Y38.975
X27.034 Y38.982
X27.566 Y38.986
X28.632 Y38.989
X31.828 Y38.99
X33.958
X37.421
X37.685 Y38.959
X37.935 Y38.865
X38.153 Y38.713
X38.519 Y38.326
X38.734 Y37.839
X38.854 Y37.32
X38.919 Y36.791
X38.953 Y36.259
X38.971 Y35.727
X38.98 Y35.194
X38.985 Y34.662
X38.987 Y34.129
X38.989 Y33.064
X38.99 Y24.541
X38.949 Y24.278
X38.845 Y24.033
X38.685 Y23.82
X38.288 Y23.465
X37.798 Y23.256
X37.278 Y23.141
X36.749 Y23.079
X36.217 Y23.046
X35.685 Y23.029
X35.152 Y23.02
X34.619 Y23.015
X34.087 Y23.013
X33.021 Y23.011
X25.564 Y23.01
X25.298 Y23.011
X25.037 Y23.065
X24.797 Y23.18
X24.59 Y23.348
X24.247 Y23.755
X24.046 Y24.248
X23.935 Y24.769
X23.876 Y25.299
X23.844 Y25.831
X23.828 Y26.363
X23.819 Y26.896
X23.815 Y27.428
X23.813 Y27.961
X23.81 Y29.559
Y36.484
X23.815 Y36.75
X23.881 Y37.008
X24.008 Y37.242
X24.183 Y37.442
X24.601 Y37.773
X25.098 Y37.965
X25.62 Y38.071
X26.149 Y38.127
X26.681 Y38.157
X27.214 Y38.173
X27.746 Y38.181
X28.279 Y38.185
X28.812 Y38.188
X30.41 Y38.19
X36.802
X37.058 Y38.117
X37.287 Y37.981
X37.481 Y37.799
X37.796 Y37.369
X37.978 Y36.869
X38.078 Y36.345
X38.131 Y35.815
X38.159 Y35.284
X38.174 Y34.751
X38.182 Y34.218
X38.186 Y33.686
X38.189 Y32.621
X38.19 Y29.425
Y25.163
X38.106 Y24.911
X37.962 Y24.686
X37.774 Y24.497
X37.338 Y24.191
X36.836 Y24.015
X36.312 Y23.918
X35.782 Y23.867
X35.25 Y23.84
X34.717 Y23.825
X34.185 Y23.818
X33.652 Y23.814
X32.587 Y23.811
X29.391 Y23.81
X26.195
X25.93 Y23.841
X25.68 Y23.932
X25.46 Y24.082
X25.09 Y24.466
X24.871 Y24.951
X24.749 Y25.47
X24.683 Y25.998
X24.648 Y26.53
X24.63 Y27.062
X24.62 Y27.595
X24.615 Y28.128
X24.613 Y28.66
X24.611 Y29.725
X24.61 Y35.585
Y35.851
X24.653 Y36.114
X24.757 Y36.359
X24.916 Y36.573
X25.311 Y36.93
X25.8 Y37.141
X26.32 Y37.258
X26.849 Y37.32
X27.38 Y37.354
X27.913 Y37.371
X28.445 Y37.38
X28.978 Y37.385
X29.511 Y37.387
X30.576 Y37.389
X35.903 Y37.39
X36.164 Y37.338
X36.404 Y37.223
X36.611 Y37.056
X36.954 Y36.648
X37.155 Y36.155
X37.265 Y35.634
X37.325 Y35.105
X37.356 Y34.573
X37.372 Y34.04
X37.381 Y33.508
X37.385 Y32.975
X37.388 Y32.442
X37.39 Y30.844
Y26.05
X37.326 Y25.792
X37.2 Y25.557
X37.025 Y25.357
X36.607 Y25.026
X36.11 Y24.834
X35.588 Y24.729
X35.058 Y24.672
X34.526 Y24.643
X33.994 Y24.627
X33.461 Y24.619
X32.929 Y24.615
X32.396 Y24.612
X30.798 Y24.61
X27.069
X26.803 Y24.623
X26.547 Y24.694
X26.317 Y24.828
X26.122 Y25.01
X25.805 Y25.438
X25.623 Y25.939
X25.522 Y26.462
X25.469 Y26.992
X25.441 Y27.524
X25.426 Y28.056
X25.418 Y28.589
X25.414 Y29.122
X25.411 Y30.187
X25.41 Y33.383
Y34.981
X25.436 Y35.246
X25.52 Y35.498
X25.666 Y35.722
X25.854 Y35.91
X26.292 Y36.214
X26.795 Y36.388
X27.319 Y36.483
X27.849 Y36.534
X28.381 Y36.561
X28.914 Y36.575
X29.446 Y36.582
X29.979 Y36.586
X31.044 Y36.589
X34.773 Y36.59
X35.039
X35.303 Y36.552
X35.55 Y36.453
X35.766 Y36.297
X36.126 Y35.904
X36.338 Y35.416
X36.456 Y34.896
X36.52 Y34.367
X36.553 Y33.836
X36.571 Y33.303
X36.58 Y32.771
X36.585 Y32.238
X36.587 Y31.705
X36.589 Y30.64
X36.59 Y26.911
X36.54 Y26.65
X36.428 Y26.408
X36.263 Y26.199
X35.859 Y25.853
X35.366 Y25.649
X34.845 Y25.537
X34.316 Y25.477
X33.784 Y25.445
X33.252 Y25.428
X32.72 Y25.419
X32.187 Y25.415
X31.654 Y25.413
X30.056 Y25.41
X27.926
X27.659 Y25.413
X27.4 Y25.475
X27.164 Y25.599
X26.963 Y25.773
X26.63 Y26.189
X26.437 Y26.686
X26.33 Y27.207
X26.273 Y27.737
X26.243 Y28.269
X26.227 Y28.801
X26.219 Y29.334
X26.215 Y29.867
X26.212 Y30.399
X26.21 Y31.997
Y34.128
X26.222 Y34.394
X26.299 Y34.649
X26.434 Y34.878
X26.617 Y35.072
X27.044 Y35.391
X27.543 Y35.575
X28.066 Y35.676
X28.596 Y35.73
X29.128 Y35.759
X29.661 Y35.774
X30.193 Y35.782
X30.726 Y35.786
X31.259 Y35.788
X32.857 Y35.79
X34.455
X34.705 Y35.7
X34.927 Y35.553
X35.3 Y35.173
X35.523 Y34.689
X35.648 Y34.171
X35.715 Y33.642
X35.751 Y33.111
X35.769 Y32.579
X35.779 Y32.046
X35.784 Y31.513
X35.787 Y30.981
X35.789 Y29.915
X35.79 Y27.785
X35.757 Y27.521
X35.664 Y27.271
X35.512 Y27.052
X35.125 Y26.686
X34.639 Y26.468
X34.12 Y26.347
X33.592 Y26.282
X33.06 Y26.248
X32.528 Y26.23
X31.995 Y26.22
X31.462 Y26.215
X30.93 Y26.213
X29.864 Y26.211
X28.533 Y26.21
X28.27 Y26.256
X28.026 Y26.363
X27.815 Y26.525
X27.462 Y26.924
X27.255 Y27.415
X27.14 Y27.935
X27.078 Y28.464
X27.046 Y28.996
X27.029 Y29.528
X27.02 Y30.061
X27.015 Y30.593
X27.013 Y31.126
X27.011 Y32.191
X27.01 Y33.256
X27.012 Y33.523
X27.073 Y33.782
X27.194 Y34.02
X27.365 Y34.223
X27.777 Y34.561
X28.272 Y34.758
X28.793 Y34.867
X29.323 Y34.925
X29.855 Y34.956
X30.387 Y34.972
X30.92 Y34.981
X31.452 Y34.985
X31.985 Y34.988
X33.583 Y34.99
X33.841 Y34.924
X34.073 Y34.793
X34.27 Y34.614
X34.59 Y34.188
X34.775 Y33.688
X34.876 Y33.166
X34.93 Y32.636
X34.959 Y32.104
X34.974 Y31.571
X34.982 Y31.039
X34.986 Y30.506
X34.988 Y29.973
X34.99 Y28.375
X34.909 Y28.122
X34.768 Y27.896
X34.582 Y27.705
X34.148 Y27.396
X33.646 Y27.218
X33.122 Y27.12
X32.592 Y27.068
X32.06 Y27.04
X31.528 Y27.026
X30.995 Y27.018
X30.463 Y27.014
X29.397 Y27.011
X29.133 Y27.041
X28.882 Y27.131
X28.662 Y27.281
X28.292 Y27.664
X28.072 Y28.149
X27.949 Y28.668
X27.883 Y29.196
X27.848 Y29.728
X27.83 Y30.26
X27.82 Y30.793
X27.815 Y31.325
X27.813 Y31.858
X27.811 Y32.657
X27.855 Y32.92
X27.96 Y33.165
X28.12 Y33.377
X28.517 Y33.733
X29.007 Y33.942
X29.526 Y34.058
X30.055 Y34.121
X30.587 Y34.154
X31.119 Y34.171
X31.652 Y34.18
X32.185 Y34.185
X32.717 Y34.187
X32.974 Y34.114
X33.205 Y33.983
X33.401 Y33.802
X33.721 Y33.377
X33.904 Y32.876
X34.004 Y32.353
X34.058 Y31.823
X34.086 Y31.291
X34.101 Y30.759
X34.109 Y30.226
X34.113 Y29.694
X34.115 Y29.427
X34.092 Y29.162
X34.001 Y28.912
X33.848 Y28.694
X33.454 Y28.335
X32.964 Y28.126
X32.444 Y28.012
X31.915 Y27.95
X31.383 Y27.918
X30.851 Y27.901
X30.318 Y27.892
X30.052 Y27.896
X29.793 Y27.96
X29.563 Y28.094
X29.37 Y28.277
X29.06 Y28.71
X28.884 Y29.213
X28.789 Y29.737
X28.738 Y30.268
X28.711 Y30.8
X28.697 Y31.332
X28.69 Y31.865
X28.738 Y32.127
X28.851 Y32.368
X29.022 Y32.572
X29.437 Y32.905
X29.935 Y33.096
X30.457 Y33.2
X30.987 Y33.256
X31.519 Y33.285
X31.785 Y33.293
X32.048 Y33.251
X32.29 Y33.14
X32.496 Y32.971
X32.832 Y32.558
X33.024 Y32.061
X33.128 Y31.539
X33.184 Y31.009
X33.213 Y30.477
X33.221 Y30.211
X33.187 Y29.947
X33.08 Y29.703
X32.912 Y29.496
X32.497 Y29.162
X31.999 Y28.972
X31.477 Y28.869
X30.947 Y28.815
X30.685 Y28.863
X30.449 Y28.986
X30.252 Y29.166
X29.935 Y29.594
X29.757 Y30.096
X29.661 Y30.62
X29.635 Y30.885
X29.633 Y31.151
X29.709 Y31.406
X29.856 Y31.628
X30.05 Y31.811
X30.496 Y32.103
X30.75 Y32.183
X30.879 Y32.214
X31.012 Y32.222
X31.144 Y32.207
X31.399 Y32.129
X31.615 Y31.973
X31.962 Y31.569
X32.059 Y31.321
X32.135 Y31.065
X32.138 Y30.932
X32.114 Y30.801
X32.019 Y30.553
X31.853 Y30.344
X31.744 Y30.268
X31.617 Y30.226
X31.484 Y30.221
X31.355 Y30.254
X31.241 Y30.322
G3 X31.013 Y29.996 I-0.096 J-0.175
G1 X31.044 Y29.974 Z14.004
X31.081 Y29.964 Z14.015
X31.115 Y29.955 Z14.035
X31.145 Y29.947 Z14.06
X31.175 Y29.951 Z14.102
X31.194 Y29.954 Z14.149
X31.201 Y29.955 Z14.2
G0 Z22.
X-0.263 Y-2.797
Z11.4
G1 Z11.2 F1500.
X-0.262 Y-2.791 Z11.148
X-0.257 Y-2.771 Z11.1
X-0.249 Y-2.741 Z11.059
X-0.238 Y-2.7 Z11.027
X-0.226 Y-2.654 Z11.007
X-0.214 Y-2.604 Z11.
G3 X0.01 Y-1.049 I-7.063 J1.809
G1 Y-0.899
X-0.097 Y-0.377
X-0.147 Y0.153
X-0.17 Y0.686
X-0.181 Y1.218
X-0.186 Y1.751
X-0.188 Y2.283
X-0.19 Y3.881
Y49.158
Y61.143
X-0.152 Y61.271
X-0.009 Y61.495
X0.191 Y61.671
X0.652 Y61.938
X1.167 Y62.072
X1.696 Y62.135
X2.228 Y62.165
X2.761 Y62.178
X3.293 Y62.185
X3.826 Y62.188
X4.891 Y62.189
X37.916 Y62.19
X61.087
X61.217 Y62.158
X61.452 Y62.034
X61.637 Y61.842
X61.921 Y61.391
X62.063 Y60.878
X62.131 Y60.35
X62.163 Y59.818
X62.178 Y59.286
X62.184 Y58.753
X62.187 Y58.22
X62.189 Y57.155
X62.19 Y35.316
Y0.959
X62.174 Y0.827
X62.121 Y0.704
X61.971 Y0.485
X61.766 Y0.314
X61.301 Y0.054
X60.785 Y-0.075
X60.255 Y-0.137
X59.724 Y-0.166
X59.191 Y-0.179
X58.658 Y-0.185
X58.126 Y-0.188
X57.06 Y-0.19
X46.94
X1.796
X1.665 Y-0.17
X1.42 Y-0.065
X1.223 Y0.114
X0.916 Y0.55
X0.758 Y1.058
X0.68 Y1.585
X0.643 Y2.117
X0.625 Y2.649
X0.617 Y3.182
X0.613 Y3.714
X0.612 Y4.247
X0.61 Y6.378
Y54.318
Y60.177
X0.701 Y60.427
X0.859 Y60.642
X1.261 Y60.99
X1.757 Y61.186
X2.28 Y61.288
X2.81 Y61.34
X3.342 Y61.366
X3.874 Y61.378
X4.407 Y61.384
X4.94 Y61.387
X6.005 Y61.389
X20.387 Y61.39
X44.357
X60.07
X60.331 Y61.336
X60.562 Y61.203
X60.752 Y61.016
X61.055 Y60.578
X61.22 Y60.072
X61.306 Y59.546
X61.349 Y59.015
X61.37 Y58.483
X61.38 Y57.95
X61.385 Y57.418
X61.388 Y56.885
X61.389 Y55.82
X61.39 Y27.588
Y2.021
X61.358 Y1.756
X61.246 Y1.514
X61.075 Y1.311
X60.656 Y0.981
X60.156 Y0.798
X59.632 Y0.704
X59.101 Y0.656
X58.569 Y0.632
X58.036 Y0.621
X57.504 Y0.615
X56.971 Y0.612
X55.906 Y0.611
X37.263 Y0.61
X2.639
X2.388 Y0.7
X2.173 Y0.856
X1.82 Y1.255
X1.621 Y1.749
X1.516 Y2.271
X1.463 Y2.801
X1.436 Y3.333
X1.423 Y3.866
X1.416 Y4.398
X1.413 Y4.931
X1.411 Y5.996
X1.41 Y15.052
Y15.584
Y59.263
X1.481 Y59.52
X1.621 Y59.746
X1.809 Y59.935
X2.247 Y60.238
X2.752 Y60.407
X3.277 Y60.497
X3.808 Y60.543
X4.34 Y60.567
X4.873 Y60.578
X5.405 Y60.584
X5.938 Y60.587
X7.003 Y60.589
X7.536 Y60.59
X57.606
X59.204
X59.464 Y60.531
X59.698 Y60.404
X59.894 Y60.224
X60.213 Y59.797
X60.393 Y59.296
X60.489 Y58.772
X60.539 Y58.241
X60.565 Y57.709
X60.577 Y57.177
X60.584 Y56.644
X60.587 Y56.112
X60.589 Y55.046
X60.59 Y48.122
Y12.433
Y2.845
X60.544 Y2.583
X60.429 Y2.342
X60.258 Y2.139
X59.841 Y1.806
X59.343 Y1.618
X58.82 Y1.516
X58.29 Y1.464
X57.758 Y1.437
X57.226 Y1.423
X56.693 Y1.417
X56.161 Y1.413
X55.095 Y1.411
X49.236 Y1.41
X20.472
X3.693
X3.428 Y1.441
X3.182 Y1.542
X2.972 Y1.705
X2.627 Y2.111
X2.429 Y2.606
X2.323 Y3.128
X2.267 Y3.657
X2.239 Y4.189
X2.224 Y4.722
X2.217 Y5.254
X2.214 Y5.787
X2.211 Y6.852
X2.21 Y11.646
Y34.018
Y58.255
X2.239 Y58.519
X2.335 Y58.768
X2.49 Y58.984
X2.884 Y59.342
X3.374 Y59.552
X3.894 Y59.666
X4.424 Y59.727
X4.955 Y59.758
X5.488 Y59.774
X6.02 Y59.782
X6.553 Y59.786
X7.086 Y59.788
X8.684 Y59.79
X27.327
X58.222
X58.487 Y59.767
X58.738 Y59.679
X58.959 Y59.53
X59.326 Y59.144
X59.543 Y58.657
X59.661 Y58.138
X59.724 Y57.609
X59.756 Y57.078
X59.773 Y56.545
X59.781 Y56.013
X59.786 Y55.48
X59.788 Y54.947
X59.79 Y53.349
Y41.098
Y3.811
X59.776 Y3.545
X59.697 Y3.291
X59.554 Y3.066
X59.366 Y2.878
X58.928 Y2.574
X58.424 Y2.402
X57.899 Y2.31
X57.369 Y2.261
X56.837 Y2.236
X56.304 Y2.223
X55.772 Y2.217
X55.239 Y2.213
X54.174 Y2.211
X48.847 Y2.21
X47.782
X4.636
X4.37 Y2.217
X4.113 Y2.289
X3.885 Y2.426
X3.693 Y2.611
X3.384 Y3.044
X3.208 Y3.547
X3.113 Y4.071
X3.063 Y4.602
X3.037 Y5.134
X3.024 Y5.666
X3.017 Y6.199
X3.013 Y6.731
X3.011 Y7.797
X3.01 Y8.329
Y57.335
X3.017 Y57.601
X3.084 Y57.859
X3.216 Y58.09
X3.397 Y58.285
X3.826 Y58.602
X4.326 Y58.783
X4.85 Y58.882
X5.38 Y58.934
X5.912 Y58.961
X6.444 Y58.975
X6.977 Y58.983
X7.51 Y58.986
X8.575 Y58.989
X12.836 Y58.99
X53.319
X57.58
X57.839 Y58.928
X58.073 Y58.8
X58.271 Y58.622
X58.593 Y58.198
X58.778 Y57.698
X58.879 Y57.175
X58.933 Y56.645
X58.961 Y56.114
X58.975 Y55.581
X58.982 Y55.048
X58.986 Y54.516
X58.989 Y53.45
X58.99 Y49.722
Y13.501
Y4.445
X58.927 Y4.186
X58.803 Y3.951
X58.628 Y3.75
X58.21 Y3.42
X57.713 Y3.229
X57.19 Y3.125
X56.661 Y3.069
X56.129 Y3.041
X55.596 Y3.026
X55.064 Y3.018
X54.531 Y3.014
X53.466 Y3.011
X49.737 Y3.01
X18.31
X5.526
X5.259 Y3.011
X4.999 Y3.068
X4.762 Y3.189
X4.559 Y3.362
X4.225 Y3.776
X4.032 Y4.273
X3.926 Y4.795
X3.87 Y5.325
X3.841 Y5.857
X3.826 Y6.389
X3.818 Y6.922
X3.814 Y7.454
X3.811 Y8.52
X3.81 Y12.248
Y39.414
Y56.459
X3.811 Y56.726
X3.866 Y56.986
X3.985 Y57.225
X4.155 Y57.429
X4.567 Y57.767
X5.062 Y57.963
X5.584 Y58.071
X6.114 Y58.128
X6.646 Y58.158
X7.178 Y58.173
X7.711 Y58.182
X8.243 Y58.186
X8.776 Y58.188
X10.374 Y58.19
X35.942
X56.716
X56.977 Y58.138
X57.217 Y58.022
X57.423 Y57.853
X57.763 Y57.443
X57.961 Y56.949
X58.069 Y56.427
X58.127 Y55.898
X58.157 Y55.366
X58.173 Y54.834
X58.181 Y54.301
X58.186 Y53.768
X58.188 Y53.236
X58.19 Y51.638
Y29.266
Y5.296
X58.138 Y5.035
X58.025 Y4.794
X57.857 Y4.586
X57.45 Y4.243
X56.957 Y4.043
X56.435 Y3.933
X55.906 Y3.874
X55.374 Y3.843
X54.842 Y3.827
X54.309 Y3.819
X53.777 Y3.815
X53.244 Y3.812
X51.646 Y3.81
X32.47
X6.103
X5.841 Y3.86
X5.599 Y3.971
X5.391 Y4.137
X5.046 Y4.543
X4.845 Y5.036
X4.734 Y5.557
X4.675 Y6.086
X4.66 Y6.328
X4.654 Y6.384
X4.64 Y6.439
X4.62 Y6.492
X4.594 Y6.549
X4.435 Y7.034
X4.398 Y7.155
X4.371 Y7.281
X4.354 Y7.397
X4.328 Y7.639
X4.318 Y7.76
X4.305 Y8.002
X4.304 Y8.123
X4.329 Y8.365
X4.342 Y8.486
X4.398 Y8.849
X4.41 Y8.886
X4.448 Y9.031
X4.524 Y9.476
X4.571 Y10.007
X4.592 Y10.539
X4.602 Y11.072
X4.606 Y11.604
X4.608 Y12.137
X4.61 Y13.735
Y55.815
X4.641 Y56.08
X4.733 Y56.33
X4.885 Y56.549
X5.27 Y56.916
X5.757 Y57.134
X6.275 Y57.254
X6.804 Y57.319
X7.336 Y57.353
X7.868 Y57.371
X8.401 Y57.38
X8.933 Y57.385
X9.466 Y57.387
X10.531 Y57.389
X20.652 Y57.39
X52.445
X52.51 Y57.395
X52.573 Y57.408
X52.634 Y57.43
X52.788 Y57.496
X52.909 Y57.535
X53.03 Y57.565
X53.514 Y57.667
X53.635 Y57.676
X53.877 Y57.687
X53.998 Y57.689
X54.24
X54.361 Y57.682
X54.482 Y57.669
X54.966 Y57.566
X55.375 Y57.49
X55.905 Y57.435
X56.164 Y57.375
X56.404 Y57.258
X56.61 Y57.09
X56.953 Y56.682
X57.153 Y56.189
X57.23 Y55.828
X57.243 Y55.781
X57.26 Y55.736
X57.282 Y55.693
G3 X57.622 Y55.904 I0.17 J0.105
X57.498 Y55.993 I-0.17 J-0.105
G1 X57.447 Y56.005 Z11.007
X57.4 Y56.016 Z11.027
X57.36 Y56.025 Z11.059
X57.329 Y56.033 Z11.1
X57.309 Y56.037 Z11.148
X57.303 Y56.039 Z11.2
G0 Z22.
X54.141 Y58.095
Z11.4
G1 Z11.2 F1500.
X54.146 Y58.09 Z11.148
X54.16 Y58.076 Z11.1
X54.183 Y58.054 Z11.059
X54.213 Y58.025 Z11.027
X54.247 Y57.991 Z11.007
X54.285 Y57.955 Z11.
G3 X54.966 Y57.566 I1.102 J1.136
G1 X55.088 Y57.537
X55.209 Y57.496
X55.33 Y57.446
X55.572 Y57.338
X55.814 Y57.227
X55.935 Y57.145
X56.177 Y56.978
X56.298 Y56.891
X56.419 Y56.801
X56.441 Y56.782
X56.54 Y56.689
X56.568 Y56.661
X56.677 Y56.54
X56.964 Y56.218
X56.975 Y56.204
X57.213 Y55.814
X57.351 Y55.572
X57.406 Y55.451
X57.565 Y54.966
X57.602 Y54.845
X57.629 Y54.719
X57.646 Y54.603
X57.672 Y54.361
X57.682 Y54.24
X57.695 Y53.998
X57.696 Y53.877
X57.671 Y53.635
X57.658 Y53.514
X57.602 Y53.151
X57.59 Y53.114
X57.552 Y52.969
X57.476 Y52.526
X57.429 Y51.995
X57.407 Y51.463
X57.398 Y50.93
X57.394 Y50.398
X57.392 Y49.865
X57.39 Y48.267
Y6.186
X57.359 Y5.922
X57.267 Y5.672
X57.116 Y5.453
X56.731 Y5.085
X56.245 Y4.867
X55.726 Y4.746
X55.197 Y4.681
X54.665 Y4.647
X54.133 Y4.629
X53.601 Y4.62
X53.068 Y4.615
X52.535 Y4.613
X51.47 Y4.611
X41.882 Y4.61
X9.555
X9.49 Y4.605
X9.427 Y4.592
X9.366 Y4.57
X9.212 Y4.504
X9.091 Y4.465
X8.97 Y4.435
X8.486 Y4.333
X8.365 Y4.324
X8.123 Y4.313
X8.002 Y4.311
X7.76
X7.639 Y4.318
X7.518 Y4.331
X7.034 Y4.434
X6.912 Y4.463
X6.791 Y4.504
X6.67 Y4.554
X6.428 Y4.662
X6.186 Y4.773
X6.065 Y4.855
X5.823 Y5.022
X5.702 Y5.109
X5.581 Y5.199
X5.559 Y5.218
X5.46 Y5.311
X5.432 Y5.339
X5.323 Y5.46
X5.036 Y5.782
X5.025 Y5.796
X4.787 Y6.186
X4.649 Y6.428
X4.62 Y6.492
X4.618 Y6.495
G2 X4.409 Y6.853 I1.946 J1.375
X4.391 Y6.921 I0.181 J0.085
G1 X4.365 Y7.216
X4.285 Y8.128
X4.259 Y8.424
G2 X4.265 Y8.494 I0.199 J0.017
X4.409 Y8.884 I2.299 J-0.625
G1 X4.41 Y8.886
X4.515 Y9.212
X4.613 Y9.473
X4.651 Y9.575
X4.734 Y9.721
X4.859 Y9.939
X4.933 Y10.06
X5.008 Y10.19
X5.077 Y10.338
X5.149 Y10.534
X5.224 Y10.801
X5.3 Y11.197
X5.36 Y11.726
X5.387 Y12.258
X5.399 Y12.791
X5.405 Y13.323
X5.408 Y13.856
X5.41 Y14.921
Y54.871
X5.413 Y55.138
X5.469 Y55.398
X5.588 Y55.636
X5.761 Y55.839
X6.178 Y56.171
X6.674 Y56.364
X7.196 Y56.47
X7.726 Y56.527
X8.258 Y56.557
X8.79 Y56.573
X9.323 Y56.581
X9.855 Y56.585
X10.388 Y56.588
X11.986 Y56.59
X51.171
X51.286 Y56.604
X51.394 Y56.647
X51.488 Y56.714
X51.561 Y56.782
X51.577 Y56.795
X51.698 Y56.888
X51.94 Y57.064
X52.061 Y57.147
X52.182 Y57.224
X52.269 Y57.266
X52.425 Y57.337
X52.634 Y57.43
G3 X52.46 Y57.79 I-0.087 J0.18
X52.358 Y57.675 I0.087 J-0.18
G1 X52.341 Y57.626 Z11.007
X52.325 Y57.581 Z11.027
X52.312 Y57.542 Z11.059
X52.301 Y57.512 Z11.1
X52.295 Y57.493 Z11.148
X52.293 Y57.486 Z11.2
G0 Z22.
X58.182 Y53.896
Z11.4
G1 Z11.2 F1500.
X58.177 Y53.891 Z11.148
X58.162 Y53.878 Z11.1
X58.138 Y53.857 Z11.059
X58.107 Y53.83 Z11.027
X58.071 Y53.798 Z11.007
X58.032 Y53.764 Z11.
G3 X57.59 Y53.114 I1.047 J-1.187
G1 X57.485 Y52.788
X57.387 Y52.527
X57.349 Y52.425
X57.266 Y52.279
X57.141 Y52.061
X57.067 Y51.94
X56.992 Y51.81
X56.923 Y51.662
X56.851 Y51.467
X56.777 Y51.199
X56.7 Y50.804
X56.64 Y50.275
X56.613 Y49.743
X56.601 Y49.21
X56.595 Y48.677
X56.592 Y48.145
X56.59 Y47.079
Y7.129
X56.587 Y6.863
X56.531 Y6.603
X56.411 Y6.365
X56.239 Y6.162
X55.822 Y5.83
X55.326 Y5.636
X54.804 Y5.53
X54.274 Y5.473
X53.743 Y5.443
X53.21 Y5.427
X52.678 Y5.419
X52.145 Y5.415
X51.612 Y5.412
X50.014 Y5.41
X10.829
X10.714 Y5.396
X10.606 Y5.353
X10.512 Y5.286
X10.439 Y5.218
X10.423 Y5.205
X10.302 Y5.112
X10.06 Y4.936
X9.939 Y4.853
X9.818 Y4.776
X9.731 Y4.734
X9.575 Y4.663
X9.366 Y4.57
G3 X9.54 Y4.21 I0.087 J-0.18
X9.642 Y4.325 I-0.087 J0.18
G1 X9.659 Y4.374 Z11.007
X9.675 Y4.419 Z11.027
X9.688 Y4.458 Z11.059
X9.699 Y4.488 Z11.1
X9.705 Y4.507 Z11.148
X9.707 Y4.514 Z11.2
G0 Z22.
X4.161 Y9.456
Z11.4
G1 Z11.2 F1500.
X4.167 Y9.459 Z11.148
X4.185 Y9.468 Z11.1
X4.213 Y9.482 Z11.059
X4.25 Y9.501 Z11.027
X4.293 Y9.522 Z11.007
X4.34 Y9.546 Z11.
G3 X4.933 Y10.06 I-0.707 J1.416
G1 X5.011 Y10.181
X5.097 Y10.287
X5.218 Y10.424
X5.339 Y10.558
X5.436 Y10.665
X5.46 Y10.689
X5.492 Y10.718
X5.598 Y10.824
X5.687 Y10.945
X5.764 Y11.074
X5.84 Y11.233
X5.919 Y11.438
X5.999 Y11.707
X6.08 Y12.095
X6.147 Y12.623
X6.18 Y13.155
X6.195 Y13.687
X6.203 Y14.22
X6.207 Y14.752
X6.209 Y15.818
X6.21 Y21.677
Y54.17
X6.229 Y54.435
X6.31 Y54.689
X6.453 Y54.914
X6.828 Y55.292
X7.31 Y55.519
X7.827 Y55.646
X8.355 Y55.715
X8.887 Y55.751
X9.419 Y55.77
X9.952 Y55.779
X10.484 Y55.785
X11.017 Y55.787
X12.082 Y55.789
X19.54 Y55.79
X50.434
X50.52 Y55.792
X50.671 Y55.821
X50.804 Y55.897
X50.905 Y56.013
X51.008 Y56.177
X51.093 Y56.281
X51.214 Y56.419
X51.335 Y56.554
X51.456 Y56.685
X51.488 Y56.714
G3 X51.206 Y56.998 I-0.141 J0.142
X51.147 Y56.857 I0.141 J-0.142
G1 Y56.805 Z11.007
X51.146 Y56.757 Z11.027
Y56.715 Z11.059
Y56.684 Z11.1
Y56.664 Z11.148
Y56.657 Z11.2
G0 Z22.
X57.839 Y52.544
Z11.4
G1 Z11.2 F1500.
X57.833 Y52.541 Z11.148
X57.815 Y52.532 Z11.1
X57.787 Y52.518 Z11.059
X57.75 Y52.499 Z11.027
X57.707 Y52.478 Z11.007
X57.66 Y52.454 Z11.
G3 X57.067 Y51.94 I0.707 J-1.416
G1 X56.989 Y51.819
X56.903 Y51.713
X56.782 Y51.576
X56.661 Y51.442
X56.564 Y51.335
X56.54 Y51.311
X56.508 Y51.282
X56.402 Y51.176
X56.313 Y51.055
X56.236 Y50.926
X56.16 Y50.767
X56.081 Y50.562
X56.001 Y50.293
X55.92 Y49.905
X55.853 Y49.377
X55.82 Y48.845
X55.805 Y48.313
X55.797 Y47.78
X55.793 Y47.248
X55.791 Y46.182
X55.79 Y40.323
Y7.83
X55.771 Y7.565
X55.69 Y7.311
X55.547 Y7.086
X55.172 Y6.708
X54.69 Y6.481
X54.173 Y6.354
X53.644 Y6.286
X53.113 Y6.249
X52.581 Y6.23
X52.048 Y6.221
X51.515 Y6.216
X50.983 Y6.213
X49.917 Y6.211
X42.46 Y6.21
X11.566
X11.48 Y6.208
X11.329 Y6.179
X11.196 Y6.103
X11.095 Y5.987
X10.992 Y5.823
X10.907 Y5.719
X10.786 Y5.581
X10.665 Y5.446
X10.544 Y5.315
X10.512 Y5.286
G3 X10.794 Y5.002 I0.141 J-0.142
X10.853 Y5.143 I-0.141 J0.142
G1 Y5.195 Z11.007
X10.854 Y5.243 Z11.027
Y5.285 Z11.059
Y5.316 Z11.1
Y5.336 Z11.148
Y5.343 Z11.2
G0 Z22.
X4.589 Y10.337
Z11.4
G1 Z11.2 F1500.
X4.596 Y10.338 Z11.148
X4.615 Y10.342 Z11.1
X4.647 Y10.348 Z11.059
X4.687 Y10.357 Z11.027
X4.735 Y10.366 Z11.007
X4.785 Y10.376 Z11.
G3 X5.492 Y10.718 I-0.314 J1.551
G1 X5.567 Y10.786
X5.823 Y10.979
X5.944 Y11.067
X6.065 Y11.152
X6.189 Y11.237
X6.297 Y11.341
X6.392 Y11.457
X6.474 Y11.583
X6.563 Y11.744
X6.644 Y11.925
X6.732 Y12.174
X6.817 Y12.494
X6.903 Y12.972
X6.956 Y13.502
X6.982 Y14.034
X6.996 Y14.567
X7.003 Y15.1
X7.006 Y15.632
X7.009 Y16.698
X7.01 Y21.492
Y53.452
X7.047 Y53.715
X7.147 Y53.962
X7.305 Y54.177
X7.701 Y54.532
X8.191 Y54.742
X8.711 Y54.858
X9.24 Y54.921
X9.771 Y54.954
X10.304 Y54.971
X10.836 Y54.98
X11.369 Y54.985
X11.902 Y54.987
X12.967 Y54.989
X14.032 Y54.99
X49.721
X50.054 Y54.997
X50.156 Y55.007
X50.326 Y55.058
X50.465 Y55.17
X50.552 Y55.325
X50.596 Y55.451
X50.788 Y55.814
X50.857 Y55.935
X50.905 Y56.013
G3 X50.558 Y56.211 I-0.174 J0.099
X50.539 Y56.06 I0.174 J-0.099
G1 X50.552 Y56.01 Z11.007
X50.565 Y55.963 Z11.027
X50.576 Y55.923 Z11.059
X50.584 Y55.892 Z11.1
X50.59 Y55.873 Z11.148
X50.591 Y55.867 Z11.2
G0 Z22.
X5.107 Y10.943
Z11.4
G1 Z11.2 F1500.
X5.114 Z11.148
X5.134 Y10.944 Z11.1
X5.166 Z11.059
X5.207 Y10.945 Z11.027
X5.256 Z11.007
X5.307 Y10.946 Z11.
G3 X6.065 Y11.152 I-0.024 J1.582
G1 X6.186 Y11.227
X6.549 Y11.392
X6.67 Y11.444
X6.805 Y11.51
X6.925 Y11.601
X7.031 Y11.707
X7.126 Y11.823
X7.219 Y11.963
X7.313 Y12.129
X7.404 Y12.326
X7.501 Y12.593
X7.592 Y12.922
X7.685 Y13.4
X7.743 Y13.929
X7.774 Y14.461
X7.791 Y14.993
X7.8 Y15.526
X7.805 Y16.058
X7.807 Y16.591
X7.809 Y17.656
X7.81 Y26.712
Y52.812
X7.886 Y53.067
X8.025 Y53.295
X8.209 Y53.487
X8.64 Y53.8
X9.142 Y53.98
X9.665 Y54.079
X10.195 Y54.132
X10.727 Y54.16
X11.259 Y54.174
X11.792 Y54.182
X12.325 Y54.186
X13.39 Y54.189
X16.053 Y54.19
X49.079
X49.549 Y54.193
X49.808 Y54.216
X49.966 Y54.242
X50.011 Y54.254
X50.178 Y54.334
X50.301 Y54.472
X50.36 Y54.647
X50.367 Y54.702
X50.398 Y54.845
X50.435 Y54.966
X50.552 Y55.325
G3 X50.168 Y55.437 I-0.192 J0.056
X50.185 Y55.285 I0.192 J-0.056
G1 X50.21 Y55.239 Z11.007
X50.233 Y55.197 Z11.027
X50.253 Y55.161 Z11.059
X50.268 Y55.133 Z11.1
X50.278 Y55.115 Z11.148
X50.281 Y55.109 Z11.2
G0 Z22.
X5.692 Y11.379
Z11.4
G1 Z11.2 F1500.
X5.699 Y11.378 Z11.148
X5.719 Y11.376 Z11.1
X5.75 Y11.372 Z11.059
X5.791 Y11.366 Z11.027
X5.839 Y11.36 Z11.007
X5.89 Y11.353 Z11.
G3 X6.67 Y11.444 I0.211 J1.568
G1 X6.83 Y11.512
X6.912 Y11.538
X7.034 Y11.566
X7.191 Y11.6
X7.336 Y11.638
X7.471 Y11.704
X7.593 Y11.791
X7.705 Y11.891
X7.805 Y12.002
X7.898 Y12.124
X7.998 Y12.28
X8.106 Y12.483
X8.203 Y12.707
X8.309 Y13.016
X8.407 Y13.403
X8.497 Y13.928
X8.547 Y14.458
X8.575 Y14.99
X8.591 Y15.523
X8.6 Y16.055
X8.604 Y16.588
X8.607 Y17.121
X8.609 Y18.186
X8.61 Y24.045
Y51.744
X8.622 Y52.01
X8.698 Y52.265
X8.835 Y52.493
X9.02 Y52.685
X9.45 Y52.999
X9.951 Y53.18
X10.475 Y53.279
X11.005 Y53.332
X11.537 Y53.36
X12.069 Y53.374
X12.602 Y53.382
X13.135 Y53.386
X14.2 Y53.389
X17.396 Y53.39
X48.29
X48.823 Y53.391
X49.323 Y53.401
X49.557 Y53.425
X49.769 Y53.464
X49.914 Y53.503
X49.995 Y53.532
X50.12 Y53.6
X50.219 Y53.702
X50.282 Y53.829
X50.305 Y53.969
Y53.998
X50.318 Y54.24
X50.328 Y54.361
X50.354 Y54.603
X50.36 Y54.647
G3 X49.962 Y54.684 I-0.199 J0.018
X50.007 Y54.538 I0.199 J-0.018
G1 X50.04 Y54.498 Z11.007
X50.071 Y54.461 Z11.027
X50.097 Y54.429 Z11.059
X50.118 Y54.404 Z11.1
X50.13 Y54.389 Z11.148
X50.135 Y54.384 Z11.2
G0 Z22.
X6.218 Y11.722
Z11.4
G1 Z11.2 F1500.
X6.225 Y11.72 Z11.148
X6.244 Y11.713 Z11.1
X6.274 Y11.703 Z11.059
X6.313 Y11.69 Z11.027
X6.359 Y11.674 Z11.007
X6.408 Y11.658 Z11.
G3 X7.191 Y11.6 I0.506 J1.5
G1 X7.518 Y11.669
X7.639 Y11.682
X7.76 Y11.689
X7.91 Y11.697
X8.051 Y11.748
X8.182 Y11.82
X8.303 Y11.909
X8.414 Y12.01
X8.521 Y12.127
X8.624 Y12.26
X8.742 Y12.439
X8.847 Y12.631
X8.967 Y12.901
X9.073 Y13.199
X9.182 Y13.61
X9.276 Y14.135
X9.332 Y14.664
X9.365 Y15.196
X9.385 Y15.728
X9.396 Y16.261
X9.402 Y16.793
X9.406 Y17.326
X9.409 Y18.391
X9.41 Y21.055
Y50.884
X9.413 Y51.15
X9.479 Y51.409
X9.605 Y51.643
X9.781 Y51.843
X10.199 Y52.173
X10.695 Y52.365
X11.217 Y52.471
X11.747 Y52.527
X12.279 Y52.557
X12.811 Y52.573
X13.344 Y52.581
X13.877 Y52.585
X14.409 Y52.588
X16.007 Y52.59
X19.203
X47.967
X48.5 Y52.592
X49.032 Y52.603
X49.388 Y52.637
X49.623 Y52.679
X49.805 Y52.727
X49.946 Y52.777
X50.083 Y52.838
X50.13 Y52.863
X50.243 Y52.949
X50.325 Y53.065
X50.368 Y53.201
Y53.343
X50.342 Y53.514
X50.317 Y53.756
X50.304 Y53.877
X50.305 Y53.969
G3 X49.905 Y53.958 I-0.2 J-0.006
X49.967 Y53.818 I0.2 J0.006
G1 X50.005 Y53.782 Z11.007
X50.04 Y53.749 Z11.027
X50.07 Y53.721 Z11.059
X50.094 Y53.699 Z11.1
X50.108 Y53.685 Z11.148
X50.113 Y53.681 Z11.2
G0 Z22.
X6.834 Y12.011
Z11.4
G1 Z11.2 F1500.
X6.84 Y12.007 Z11.148
X6.857 Y11.997 Z11.1
X6.884 Y11.981 Z11.059
X6.92 Y11.96 Z11.027
X6.961 Y11.935 Z11.007
X7.006 Y11.909 Z11.
G3 X7.76 Y11.689 I0.807 J1.362
G1 X8.002
X8.123 Y11.687
X8.311 Y11.679
X8.461
X8.606 Y11.714
X8.745 Y11.772
X8.875 Y11.847
X8.995 Y11.937
X9.107 Y12.037
X9.22 Y12.157
X9.338 Y12.304
X9.458 Y12.48
X9.583 Y12.699
X9.705 Y12.96
X9.827 Y13.29
X9.946 Y13.709
X10.049 Y14.232
X10.113 Y14.761
X10.152 Y15.292
X10.176 Y15.824
X10.19 Y16.357
X10.199 Y16.889
X10.204 Y17.422
X10.206 Y17.954
X10.209 Y19.02
X10.21 Y22.748
Y50.447
X10.299 Y50.698
X10.445 Y50.921
X10.825 Y51.294
X11.308 Y51.519
X11.825 Y51.646
X12.354 Y51.714
X12.885 Y51.75
X13.417 Y51.769
X13.95 Y51.779
X14.482 Y51.784
X15.015 Y51.787
X16.08 Y51.789
X20.342 Y51.79
X47.508
X48.04 Y51.791
X48.573 Y51.797
X49.062 Y51.825
X49.41 Y51.873
X49.687 Y51.934
X49.885 Y51.995
X50.047 Y52.059
X50.181 Y52.125
X50.31 Y52.203
X50.356 Y52.236
X50.459 Y52.34
X50.525 Y52.47
X50.547 Y52.614
X50.524 Y52.758
X50.398 Y53.151
X50.368 Y53.343
G3 X49.975 Y53.269 I-0.197 J-0.037
X50.059 Y53.141 I0.197 J0.037
G1 X50.102 Y53.112 Z11.007
X50.141 Y53.084 Z11.027
X50.175 Y53.061 Z11.059
X50.202 Y53.043 Z11.1
X50.218 Y53.032 Z11.148
X50.224 Y53.028 Z11.2
G0 Z22.
X7.401 Y12.045
Z11.4
G1 Z11.2 F1500.
X7.407 Y12.041 Z11.148
X7.423 Y12.03 Z11.1
X7.45 Y12.012 Z11.059
X7.484 Y11.99 Z11.027
X7.525 Y11.963 Z11.007
X7.568 Y11.935 Z11.
G3 X8.311 Y11.679 I0.87 J1.322
G1 X8.365 Y11.676
X8.486 Y11.667
X8.795 Y11.603
X8.943 Y11.579
X9.092 Y11.591
X9.238 Y11.629
X9.376 Y11.686
X9.507 Y11.759
X9.63 Y11.845
X9.75 Y11.946
X9.874 Y12.068
X10.005 Y12.219
X10.136 Y12.397
X10.275 Y12.624
X10.406 Y12.88
X10.55 Y13.227
X10.671 Y13.605
X10.793 Y14.122
X10.873 Y14.649
X10.925 Y15.179
X10.958 Y15.711
X10.978 Y16.243
X10.991 Y16.776
X10.999 Y17.308
X11.003 Y17.841
X11.006 Y18.374
X11.009 Y19.439
X11.01 Y23.168
Y49.534
X11.062 Y49.796
X11.182 Y50.034
X11.354 Y50.237
X11.771 Y50.569
X12.267 Y50.763
X12.789 Y50.869
X13.318 Y50.927
X13.85 Y50.957
X14.383 Y50.973
X14.915 Y50.981
X15.448 Y50.985
X15.98 Y50.988
X17.578 Y50.99
X21.84
X47.408
X47.94 Y50.993
X48.473 Y51.005
X49.004 Y51.041
X49.4 Y51.099
X49.714 Y51.171
X49.973 Y51.252
X50.159 Y51.328
X50.327 Y51.413
X50.455 Y51.491
X50.576 Y51.58
X50.688 Y51.679
X50.695 Y51.686
X50.778 Y51.809
X50.817 Y51.951
X50.811 Y52.099
X50.758 Y52.237
X50.72 Y52.304
X50.653 Y52.425
X50.598 Y52.546
X50.554 Y52.667
X50.524 Y52.758
G3 X50.149 Y52.621 I-0.188 J-0.069
X50.252 Y52.508 I0.188 J0.069
G1 X50.299 Y52.486 Z11.007
X50.343 Y52.466 Z11.027
X50.381 Y52.449 Z11.059
X50.409 Y52.435 Z11.1
X50.428 Y52.427 Z11.148
X50.434 Y52.424 Z11.2
G0 Z22.
X7.955 Y12.109
Z11.4
G1 Z11.2 F1500.
X7.96 Y12.105 Z11.148
X7.975 Y12.091 Z11.1
X7.999 Y12.07 Z11.059
X8.029 Y12.042 Z11.027
X8.065 Y12.009 Z11.007
X8.103 Y11.974 Z11.
G3 X8.795 Y11.603 I1.071 J1.165
G1 X8.849 Y11.591
X9.091 Y11.533
X9.173 Y11.512
X9.212 Y11.497
X9.249 Y11.481
X9.389 Y11.428
X9.538 Y11.415
X9.688 Y11.43
X9.833 Y11.467
X9.973 Y11.521
X10.106 Y11.591
X10.235 Y11.674
X10.361 Y11.77
X10.502 Y11.898
X10.637 Y12.041
X10.79 Y12.232
X10.935 Y12.446
X11.083 Y12.707
X11.239 Y13.044
X11.373 Y13.407
X11.509 Y13.89
X11.612 Y14.412
X11.681 Y14.94
X11.728 Y15.471
X11.758 Y16.003
X11.778 Y16.535
X11.79 Y17.068
X11.798 Y17.6
X11.803 Y18.133
X11.806 Y18.666
X11.809 Y19.731
X11.81 Y22.394
Y48.495
X11.813 Y48.761
X11.876 Y49.02
X12.003 Y49.254
X12.18 Y49.453
X12.601 Y49.779
X13.099 Y49.968
X13.621 Y50.073
X14.151 Y50.128
X14.683 Y50.158
X15.216 Y50.173
X15.748 Y50.181
X16.281 Y50.185
X16.813 Y50.188
X18.411 Y50.19
X22.673
X46.643
X47.175 Y50.191
X47.708 Y50.194
X48.241 Y50.207
X48.772 Y50.237
X49.273 Y50.298
X49.656 Y50.376
X49.976 Y50.469
X50.242 Y50.57
X50.468 Y50.677
X50.626 Y50.768
X50.77 Y50.868
X50.887 Y50.963
X50.994 Y51.067
X51.093 Y51.184
X51.158 Y51.322
X51.176 Y51.473
X51.143 Y51.622
X51.064 Y51.753
X51.007 Y51.819
X50.932 Y51.94
X50.851 Y52.076
X50.758 Y52.237
G3 X50.419 Y52.025 I-0.17 J-0.106
X50.543 Y51.936 I0.17 J0.106
G1 X50.594 Y51.925 Z11.007
X50.641 Y51.914 Z11.027
X50.681 Y51.904 Z11.059
X50.712 Y51.897 Z11.1
X50.731 Y51.893 Z11.148
X50.738 Y51.891 Z11.2
G0 Z22.
X8.532 Y12.15
Z11.4
G1 Z11.2 F1500.
X8.536 Y12.144 Z11.148
X8.547 Y12.128 Z11.1
X8.566 Y12.102 Z11.059
X8.59 Y12.069 Z11.027
X8.618 Y12.029 Z11.007
X8.648 Y11.987 Z11.
G3 X9.249 Y11.481 I1.288 J0.92
G1 X9.575 Y11.337
X9.724 Y11.27
X9.861 Y11.21
X10.009 Y11.184
X10.159 Y11.185
X10.307 Y11.209
X10.451 Y11.251
X10.59 Y11.308
X10.723 Y11.377
X10.865 Y11.467
X11.005 Y11.571
X11.162 Y11.71
X11.312 Y11.867
X11.478 Y12.068
X11.646 Y12.311
X11.801 Y12.579
X11.969 Y12.93
X12.128 Y13.346
X12.27 Y13.834
X12.379 Y14.355
X12.454 Y14.882
X12.507 Y15.413
X12.543 Y15.944
X12.567 Y16.476
X12.583 Y17.009
X12.593 Y17.541
X12.599 Y18.074
X12.604 Y18.606
X12.608 Y19.672
X12.61 Y21.802
Y47.903
X12.663 Y48.164
X12.778 Y48.404
X12.946 Y48.611
X13.353 Y48.954
X13.847 Y49.154
X14.368 Y49.265
X14.897 Y49.324
X15.429 Y49.356
X15.961 Y49.372
X16.494 Y49.381
X17.027 Y49.385
X17.559 Y49.387
X19.157 Y49.39
X23.951
X46.323
X46.856 Y49.391
X47.389 Y49.394
X47.921 Y49.404
X48.453 Y49.427
X48.984 Y49.474
X49.475 Y49.552
X49.9 Y49.655
X50.24 Y49.767
X50.526 Y49.888
X50.77 Y50.015
X50.976 Y50.144
X51.126 Y50.256
X51.253 Y50.367
X51.357 Y50.474
X51.453 Y50.59
X51.536 Y50.715
X51.555 Y50.751
X51.604 Y50.893
X51.605 Y51.043
X51.559 Y51.185
X51.471 Y51.306
X51.442 Y51.335
X51.214 Y51.58
X51.093 Y51.719
X51.064 Y51.753
G3 X50.769 Y51.482 I-0.147 J-0.135
X50.908 Y51.418 I0.147 J0.135
G1 X50.96 Y51.416 Z11.007
X51.008 Y51.414 Z11.027
X51.05 Y51.412 Z11.059
X51.081 Y51.411 Z11.1
X51.101 Y51.41 Z11.148
X51.108 Z11.2
G0 Z22.
X57.411 Y51.663
Z11.4
G1 Z11.2 F1500.
X57.404 Y51.662 Z11.148
X57.385 Y51.658 Z11.1
X57.353 Y51.652 Z11.059
X57.313 Y51.643 Z11.027
X57.265 Y51.634 Z11.007
X57.215 Y51.624 Z11.
G3 X56.508 Y51.282 I0.314 J-1.551
G1 X56.433 Y51.214
X56.177 Y51.021
X56.056 Y50.933
X55.935 Y50.848
X55.811 Y50.763
X55.703 Y50.659
X55.608 Y50.543
X55.526 Y50.417
X55.437 Y50.256
X55.356 Y50.075
X55.268 Y49.826
X55.183 Y49.506
X55.097 Y49.028
X55.044 Y48.498
X55.018 Y47.966
X55.004 Y47.433
X54.997 Y46.901
X54.994 Y46.368
X54.991 Y45.303
X54.99 Y40.509
Y8.549
X54.953 Y8.285
X54.853 Y8.038
X54.695 Y7.824
X54.299 Y7.468
X53.809 Y7.258
X53.289 Y7.142
X52.76 Y7.079
X52.229 Y7.046
X51.696 Y7.029
X51.164 Y7.02
X50.631 Y7.015
X50.098 Y7.013
X49.033 Y7.011
X47.968 Y7.01
X12.279
X11.946 Y7.003
X11.844 Y6.993
X11.674 Y6.942
X11.535 Y6.83
X11.448 Y6.675
X11.404 Y6.549
X11.212 Y6.186
X11.143 Y6.065
X11.095 Y5.987
G3 X11.442 Y5.789 I0.174 J-0.099
X11.461 Y5.94 I-0.174 J0.099
G1 X11.448 Y5.99 Z11.007
X11.435 Y6.037 Z11.027
X11.424 Y6.077 Z11.059
X11.416 Y6.108 Z11.1
X11.41 Y6.127 Z11.148
X11.409 Y6.133 Z11.2
G0 Z22.
X9.041 Y11.973
Z11.4
G1 Z11.2 F1500.
X9.045 Y11.968 Z11.148
X9.056 Y11.951 Z11.1
X9.073 Y11.924 Z11.059
X9.095 Y11.889 Z11.027
X9.121 Y11.849 Z11.007
X9.149 Y11.805 Z11.
G3 X9.724 Y11.27 I1.332 J0.855
G1 X9.818 Y11.223
X9.939 Y11.149
X10.06 Y11.064
X10.109 Y11.028
X10.235 Y10.946
X10.377 Y10.898
X10.526 Y10.879
X10.676 Y10.882
X10.824 Y10.904
X10.969 Y10.942
X11.11 Y10.994
X11.248 Y11.059
X11.4 Y11.146
X11.56 Y11.255
X11.724 Y11.386
X11.901 Y11.554
X12.072 Y11.745
X12.253 Y11.982
X12.445 Y12.281
X12.618 Y12.604
X12.791 Y13.003
X12.958 Y13.488
X13.089 Y14.004
X13.186 Y14.528
X13.256 Y15.056
X13.306 Y15.586
X13.341 Y16.118
X13.365 Y16.65
X13.381 Y17.182
X13.391 Y17.715
X13.398 Y18.247
X13.403 Y18.78
X13.405 Y19.313
X13.408 Y20.378
X13.41 Y23.041
Y47.011
X13.442 Y47.276
X13.534 Y47.526
X13.686 Y47.745
X14.071 Y48.113
X14.557 Y48.331
X15.075 Y48.452
X15.604 Y48.517
X16.136 Y48.552
X16.668 Y48.57
X17.201 Y48.58
X17.733 Y48.585
X18.266 Y48.587
X19.331 Y48.589
X25.191 Y48.59
X45.964
X46.497 Y48.591
X47.03 Y48.594
X47.562 Y48.601
X48.095 Y48.618
X48.626 Y48.651
X49.156 Y48.711
X49.665 Y48.803
X50.106 Y48.92
X50.494 Y49.057
X50.823 Y49.204
X51.088 Y49.348
X51.319 Y49.5
X51.512 Y49.65
X51.667 Y49.791
X51.782 Y49.916
X51.883 Y50.042
X51.966 Y50.167
X52.037 Y50.3
X52.095 Y50.439
X52.115 Y50.58
X52.09 Y50.721
X52.024 Y50.848
X51.922 Y50.949
X51.698 Y51.112
X51.564 Y51.214
X51.471 Y51.306
G3 X51.201 Y51.01 I-0.135 J-0.148
X51.345 Y50.958 I0.135 J0.148
G1 X51.397 Y50.96 Z11.007
X51.445 Y50.963 Z11.027
X51.486 Y50.965 Z11.059
X51.518 Y50.966 Z11.1
X51.538 Y50.967 Z11.148
X51.545 Z11.2
G0 Z22.
X56.893 Y51.057
Z11.4
G1 Z11.2 F1500.
X56.886 Z11.148
X56.866 Y51.056 Z11.1
X56.834 Z11.059
X56.793 Y51.055 Z11.027
X56.744 Z11.007
X56.693 Y51.054 Z11.
G3 X55.935 Y50.848 I0.024 J-1.582
G1 X55.814 Y50.773
X55.451 Y50.608
X55.33 Y50.556
X55.195 Y50.49
X55.075 Y50.399
X54.969 Y50.293
X54.874 Y50.177
X54.781 Y50.037
X54.687 Y49.871
X54.596 Y49.674
X54.499 Y49.407
X54.408 Y49.079
X54.315 Y48.601
X54.257 Y48.071
X54.226 Y47.539
X54.209 Y47.007
X54.2 Y46.474
X54.195 Y45.942
X54.193 Y45.409
X54.191 Y44.344
X54.19 Y35.288
Y9.188
X54.114 Y8.933
X53.975 Y8.705
X53.791 Y8.513
X53.36 Y8.2
X52.858 Y8.02
X52.335 Y7.921
X51.805 Y7.868
X51.273 Y7.84
X50.74 Y7.826
X50.208 Y7.818
X49.675 Y7.814
X48.61 Y7.811
X45.947 Y7.81
X12.921
X12.451 Y7.807
X12.192 Y7.784
X12.034 Y7.758
X11.989 Y7.746
X11.822 Y7.666
X11.699 Y7.528
X11.64 Y7.353
X11.633 Y7.298
X11.602 Y7.155
X11.565 Y7.034
X11.448 Y6.675
G3 X11.832 Y6.563 I0.192 J-0.056
X11.815 Y6.715 I-0.192 J0.056
G1 X11.79 Y6.761 Z11.007
X11.767 Y6.803 Z11.027
X11.747 Y6.839 Z11.059
X11.732 Y6.867 Z11.1
X11.722 Y6.885 Z11.148
X11.719 Y6.891 Z11.2
G0 Z22.
X9.55 Y11.834
Z11.4
G1 Z11.2 F1500.
X9.553 Y11.827 Z11.148
X9.561 Y11.809 Z11.1
X9.574 Y11.78 Z11.059
X9.59 Y11.742 Z11.027
X9.609 Y11.697 Z11.007
X9.629 Y11.65 Z11.
G3 X10.109 Y11.028 I1.454 J0.625
G1 X10.302 Y10.888
X10.436 Y10.786
X10.491 Y10.732
X10.604 Y10.632
X10.74 Y10.569
X10.885 Y10.533
X11.035 Y10.52
X11.185 Y10.526
X11.333 Y10.548
X11.479 Y10.584
X11.631 Y10.637
X11.782 Y10.704
X11.951 Y10.795
X12.126 Y10.907
X12.305 Y11.045
X12.505 Y11.226
X12.697 Y11.429
X12.893 Y11.674
X13.1 Y11.98
X13.303 Y12.338
X13.487 Y12.737
X13.671 Y13.232
X13.815 Y13.745
X13.925 Y14.266
X14.007 Y14.793
X14.069 Y15.322
X14.113 Y15.853
X14.144 Y16.384
X14.166 Y16.916
X14.181 Y17.449
X14.191 Y17.982
X14.198 Y18.514
X14.202 Y19.047
X14.205 Y19.579
X14.208 Y20.645
X14.21 Y23.308
Y46.213
X14.241 Y46.477
X14.333 Y46.727
X14.484 Y46.947
X14.87 Y47.313
X15.357 Y47.531
X15.875 Y47.652
X16.404 Y47.717
X16.935 Y47.752
X17.468 Y47.77
X18. Y47.78
X18.533 Y47.785
X19.066 Y47.787
X20.131 Y47.789
X25.99 Y47.79
X45.699
X46.232 Y47.791
X46.764 Y47.794
X47.297 Y47.801
X47.829 Y47.815
X48.361 Y47.843
X48.892 Y47.89
X49.419 Y47.964
X49.941 Y48.074
X50.411 Y48.213
X50.824 Y48.372
X51.186 Y48.545
X51.486 Y48.72
X51.737 Y48.895
X51.954 Y49.074
X52.133 Y49.247
X52.284 Y49.419
X52.394 Y49.565
X52.479 Y49.702
X52.549 Y49.835
X52.607 Y49.973
X52.65 Y50.116
X52.659 Y50.16
X52.663 Y50.316
X52.616 Y50.465
X52.522 Y50.59
X52.393 Y50.677
X52.276 Y50.73
X52.182 Y50.777
X52.061 Y50.851
X51.922 Y50.949
G3 X51.699 Y50.618 I-0.112 J-0.166
X51.849 Y50.587 I0.112 J0.166
G1 X51.9 Y50.597 Z11.007
X51.947 Y50.606 Z11.027
X51.988 Y50.614 Z11.059
X52.019 Y50.62 Z11.1
X52.038 Y50.624 Z11.148
X52.045 Y50.625 Z11.2
G0 Z22.
X56.308 Y50.621
Z11.4
G1 Z11.2 F1500.
X56.301 Y50.622 Z11.148
X56.281 Y50.624 Z11.1
X56.25 Y50.628 Z11.059
X56.209 Y50.634 Z11.027
X56.161 Y50.64 Z11.007
X56.11 Y50.647 Z11.
G3 X55.33 Y50.556 I-0.211 J-1.568
G1 X55.17 Y50.488
X55.088 Y50.462
X54.966 Y50.434
X54.809 Y50.4
X54.482 Y50.331
X54.361 Y50.318
X54.24 Y50.311
X53.998
X53.877 Y50.313
X53.635 Y50.324
X53.514 Y50.333
X53.151 Y50.409
X52.909 Y50.467
X52.827 Y50.488
X52.788 Y50.503
X52.393 Y50.677
G3 X52.241 Y50.307 I-0.076 J-0.185
X52.394 Y50.308 I0.076 J0.185
G1 X52.442 Y50.328 Z11.007
X52.487 Y50.347 Z11.027
X52.525 Y50.363 Z11.059
X52.554 Y50.375 Z11.1
X52.573 Y50.383 Z11.148
X52.579 Y50.385 Z11.2
G0 Z22.
X10.056 Y11.61
Z11.4
G1 Z11.2 F1500.
X10.058 Y11.604 Z11.148
X10.063 Y11.584 Z11.1
X10.071 Y11.554 Z11.059
X10.082 Y11.514 Z11.027
X10.094 Y11.467 Z11.007
X10.108 Y11.417 Z11.
G3 X10.491 Y10.732 I1.529 J0.407
G1 X10.544 Y10.68
X10.786 Y10.42
X10.817 Y10.384
X10.921 Y10.276
X11.05 Y10.199
X11.191 Y10.147
X11.338 Y10.117
X11.487 Y10.106
X11.637 Y10.111
X11.786 Y10.132
X11.94 Y10.167
X12.095 Y10.215
X12.273 Y10.287
X12.455 Y10.378
X12.645 Y10.493
X12.853 Y10.643
X13.061 Y10.819
X13.274 Y11.033
X13.503 Y11.301
X13.733 Y11.62
X13.941 Y11.964
X14.154 Y12.389
X14.354 Y12.883
X14.514 Y13.391
X14.641 Y13.908
X14.74 Y14.432
X14.815 Y14.959
X14.872 Y15.489
X14.913 Y16.02
X14.943 Y16.552
X14.965 Y17.084
X14.98 Y17.616
X14.99 Y18.149
X14.997 Y18.682
X15.002 Y19.214
X15.005 Y19.747
X15.008 Y20.812
X15.01 Y22.943
Y45.315
X15.019 Y45.581
X15.086 Y45.839
X15.216 Y46.071
X15.396 Y46.268
X15.822 Y46.588
X16.321 Y46.773
X16.844 Y46.875
X17.374 Y46.93
X17.905 Y46.959
X18.438 Y46.974
X18.971 Y46.981
X19.503 Y46.986
X20.036 Y46.988
X21.634 Y46.99
X26.96
X45.604
X46.136 Y46.992
X46.669 Y46.995
X47.202 Y47.003
X47.734 Y47.019
X48.266 Y47.047
X48.797 Y47.093
X49.325 Y47.162
X49.849 Y47.259
X50.365 Y47.392
X50.849 Y47.557
X51.281 Y47.743
X51.659 Y47.944
X51.978 Y48.148
X52.251 Y48.356
X52.309 Y48.408
X52.534 Y48.616
X52.625 Y48.714
X52.711 Y48.815
G3 X52.398 Y49.064 I-0.157 J0.124
X52.356 Y48.917 I0.157 J-0.124
G1 X52.362 Y48.865 Z11.007
X52.367 Y48.817 Z11.027
X52.372 Y48.776 Z11.059
X52.375 Y48.745 Z11.1
X52.378 Y48.725 Z11.148
Y48.718 Z11.2
G0 Z22.
X10.451 Y11.293
Z11.4
G1 Z11.2 F1500.
X10.452 Y11.287 Z11.148
X10.456 Y11.267 Z11.1
X10.461 Y11.236 Z11.059
X10.469 Y11.195 Z11.027
X10.478 Y11.147 Z11.007
X10.487 Y11.097 Z11.
G3 X10.817 Y10.384 I1.556 J0.288
G1 X10.907 Y10.281
X10.993 Y10.181
X11.068 Y10.06
X11.09 Y10.023
X11.174 Y9.898
X11.283 Y9.796
X11.411 Y9.717
X11.55 Y9.661
X11.695 Y9.624
X11.844 Y9.604
X11.994 Y9.6
X12.144 Y9.609
X12.292 Y9.631
X12.438 Y9.664
X12.582 Y9.706
X12.723 Y9.758
X12.86 Y9.818
X12.994 Y9.885
X13.125 Y9.959
X13.252 Y10.039
X13.375 Y10.126
X13.494 Y10.216
X13.609 Y10.312
X13.721 Y10.413
X13.829 Y10.517
X13.933 Y10.624
X14.034 Y10.736
X14.131 Y10.85
X14.225 Y10.967
X14.314 Y11.087
X14.401 Y11.21
X14.484 Y11.335
X14.564 Y11.462
X14.64 Y11.591
X14.713 Y11.722
X14.783 Y11.854
X14.85 Y11.989
X14.914 Y12.125
X14.975 Y12.262
X15.033 Y12.4
X15.088 Y12.539
X15.14 Y12.68
X15.189 Y12.822
X15.237 Y12.964
X15.281 Y13.107
X15.323 Y13.251
X15.362 Y13.396
X15.4 Y13.541
X15.435 Y13.687
X15.468 Y13.834
X15.499 Y13.98
X15.528 Y14.127
X15.555 Y14.275
X15.581 Y14.423
X15.605 Y14.571
X15.627 Y14.719
X15.648 Y14.868
X15.667 Y15.017
X15.685 Y15.165
X15.701 Y15.315
X15.718 Y15.472
X15.732 Y15.621
X15.745 Y15.773
X15.76 Y15.953
X15.774 Y16.145
X15.786 Y16.337
X15.8 Y16.577
X15.812 Y16.814
X15.825 Y17.112
X15.837 Y17.433
X15.849 Y17.844
X15.86 Y18.371
X15.868 Y18.903
X15.873 Y19.436
X15.876 Y19.968
X15.88 Y21.034
X15.882 Y23.164
Y44.471
X15.885 Y44.737
X15.952 Y44.995
X16.084 Y45.226
X16.267 Y45.42
X16.697 Y45.734
X17.199 Y45.912
X17.723 Y46.009
X18.253 Y46.061
X18.785 Y46.088
X19.318 Y46.102
X19.85 Y46.11
X20.383 Y46.114
X21.448 Y46.117
X24.644 Y46.118
X27.84
X28.373
X28.904 Y46.157
X29.436 Y46.175
X29.969 Y46.183
X30.502 Y46.187
X31.567 Y46.189
X41.688 Y46.19
X45.416 Y46.191
X45.949 Y46.192
X46.482 Y46.196
X47.014 Y46.204
X47.547 Y46.219
X48.079 Y46.245
X48.61 Y46.285
X49.139 Y46.345
X49.665 Y46.429
X50.186 Y46.54
X50.699 Y46.685
X51.2 Y46.866
X51.652 Y47.071
X52.056 Y47.294
X52.167 Y47.368
X52.276 Y47.444
X52.384 Y47.522
X52.51 Y47.566
X52.643 Y47.574
X52.772 Y47.543
X52.888 Y47.477
X52.98 Y47.381
X53.226 Y46.909
X53.317 Y46.384
X53.358 Y45.853
X53.376 Y45.321
X53.384 Y44.788
X53.387 Y44.255
X53.39 Y43.19
Y22.416
Y10.165
X53.355 Y9.901
X53.256 Y9.653
X53.101 Y9.437
X52.709 Y9.077
X52.221 Y8.863
X51.702 Y8.744
X51.173 Y8.68
X50.641 Y8.647
X50.109 Y8.629
X49.576 Y8.62
X49.044 Y8.615
X48.511 Y8.613
X47.446 Y8.611
X38.39 Y8.61
X16.018
X14.021
G3 X14.035 Y8.21 I0.007 J-0.2
X14.133 Y8.58 I-0.007 J0.2
G1 X13.012 Y9.274
X11.591 Y10.154
X11.37 Y10.29
G3 X11.09 Y10.023 I-0.105 J-0.17
G1 X11.149 Y9.924
X11.28 Y9.696
X11.347 Y9.575
X11.402 Y9.454
X11.446 Y9.333
X11.563 Y8.97
X11.602 Y8.849
X11.658 Y8.486
X11.683 Y8.244
X11.696 Y8.123
X11.695 Y8.002
X11.682 Y7.76
X11.672 Y7.639
X11.646 Y7.397
X11.64 Y7.353
G3 X12.038 Y7.316 I0.199 J-0.018
X11.993 Y7.462 I-0.199 J0.018
G1 X11.96 Y7.502 Z11.007
X11.929 Y7.539 Z11.027
X11.903 Y7.571 Z11.059
X11.882 Y7.596 Z11.1
X11.87 Y7.611 Z11.148
X11.865 Y7.616 Z11.2
G0 Z22.
X51.765 Y48.266
Z11.4
G1 Z11.2 F1500.
X51.767 Y48.26 Z11.148
X51.774 Y48.241 Z11.1
X51.784 Y48.211 Z11.059
X51.798 Y48.172 Z11.027
X51.814 Y48.126 Z11.007
X51.831 Y48.077 Z11.
G3 X52.167 Y47.368 I3.443 J1.198
G1 X52.241 Y47.257
X52.398 Y46.748
X52.485 Y46.222
X52.535 Y45.692
X52.562 Y45.16
X52.576 Y44.627
X52.583 Y44.095
X52.587 Y43.562
X52.589 Y42.497
X52.59 Y36.637
Y11.069
X52.578 Y10.803
X52.507 Y10.547
X52.372 Y10.317
X52.191 Y10.122
X51.762 Y9.806
X51.262 Y9.623
X50.739 Y9.522
X50.209 Y9.469
X49.677 Y9.441
X49.144 Y9.426
X48.612 Y9.418
X48.079 Y9.414
X47.014 Y9.411
X43.818 Y9.41
X39.556
X15.187
X15.059 Y9.448
X14.947 Y9.52
X14.86 Y9.621
X14.805 Y9.742
X14.787 Y9.874
X14.826 Y10.137
X15.049 Y10.621
X15.293 Y11.095
X15.526 Y11.573
X15.738 Y12.062
X15.923 Y12.562
X16.08 Y13.071
X16.212 Y13.587
X16.32 Y14.108
X16.407 Y14.634
X16.476 Y15.162
X16.53 Y15.692
X16.571 Y16.223
X16.603 Y16.755
X16.626 Y17.287
X16.644 Y17.819
X16.656 Y18.352
X16.665 Y18.884
X16.671 Y19.417
X16.675 Y19.95
X16.679 Y21.015
X16.681 Y22.613
X16.682 Y32.201
Y34.864
Y43.92
X16.752 Y44.177
X16.884 Y44.408
X17.066 Y44.602
X17.493 Y44.921
X17.993 Y45.105
X18.516 Y45.205
X19.046 Y45.259
X19.578 Y45.287
X20.11 Y45.302
X20.643 Y45.31
X21.176 Y45.314
X21.708 Y45.316
X23.306 Y45.318
X27.568
X28.1 Y45.324
X28.633 Y45.345
X29.165 Y45.362
X29.697 Y45.374
X30.23 Y45.381
X30.763 Y45.385
X31.295 Y45.388
X32.893 Y45.39
X44.612
X45.677 Y45.392
X46.21 Y45.396
X46.743 Y45.403
X47.275 Y45.416
X47.807 Y45.437
X48.339 Y45.471
X48.869 Y45.521
X49.397 Y45.59
X49.922 Y45.682
X50.441 Y45.802
X50.569 Y45.84
X50.702
X50.83 Y45.803
X51.057 Y45.664
X51.237 Y45.468
X51.514 Y45.013
X51.657 Y44.5
X51.726 Y43.972
X51.76 Y43.44
X51.776 Y42.908
X51.783 Y42.375
X51.787 Y41.843
X51.789 Y40.777
X51.79 Y39.712
Y12.013
X51.789 Y11.747
X51.748 Y11.484
X51.644 Y11.238
X51.486 Y11.025
X51.089 Y10.669
X50.6 Y10.458
X50.08 Y10.342
X49.551 Y10.279
X49.02 Y10.246
X48.487 Y10.229
X47.955 Y10.22
X47.422 Y10.215
X46.889 Y10.213
X45.824 Y10.211
X36.236 Y10.21
X30.377
X16.927
X16.799 Y10.248
X16.687 Y10.32
X16.6 Y10.421
X16.545 Y10.542
X16.468 Y11.069
X16.534 Y11.598
X16.655 Y12.116
X16.791 Y12.631
X16.92 Y13.148
X17.034 Y13.668
X17.132 Y14.192
X17.212 Y14.719
X17.278 Y15.247
X17.329 Y15.777
X17.37 Y16.309
X17.401 Y16.84
X17.424 Y17.372
X17.442 Y17.905
X17.454 Y18.437
X17.463 Y18.97
X17.469 Y19.503
X17.474 Y20.035
X17.478 Y21.101
X17.481 Y22.699
X17.482 Y29.09
Y42.94
X17.511 Y43.205
X17.603 Y43.455
X17.753 Y43.674
X18.14 Y44.041
X18.625 Y44.259
X19.144 Y44.381
X19.673 Y44.446
X20.204 Y44.48
X20.737 Y44.498
X21.269 Y44.508
X21.802 Y44.513
X22.335 Y44.515
X23.4 Y44.517
X27.129 Y44.518
X27.661 Y44.521
X28.194 Y44.534
X28.726 Y44.549
X29.259 Y44.563
X29.791 Y44.573
X30.324 Y44.58
X30.857 Y44.584
X31.389 Y44.587
X32.455 Y44.589
X36.716 Y44.59
X44.706
X45.238 Y44.591
X45.771 Y44.594
X46.304 Y44.599
X46.836 Y44.608
X47.369 Y44.624
X47.901 Y44.649
X48.432 Y44.687
X48.962 Y44.74
X49.49 Y44.811
X49.621 Y44.833
X49.755 Y44.828
X50.012 Y44.76
X50.232 Y44.61
X50.41 Y44.412
X50.691 Y43.959
X50.84 Y43.448
X50.916 Y42.92
X50.954 Y42.389
X50.973 Y41.857
X50.982 Y41.324
X50.986 Y40.792
X50.988 Y40.259
X50.99 Y38.661
Y24.279
Y12.56
X50.952 Y12.297
X50.853 Y12.049
X50.696 Y11.834
X50.303 Y11.474
X49.815 Y11.262
X49.295 Y11.144
X48.767 Y11.08
X48.235 Y11.047
X47.703 Y11.029
X47.17 Y11.02
X46.637 Y11.015
X46.105 Y11.013
X45.039 Y11.011
X36.517 Y11.01
X18.406
X18.28 Y11.052
X18.171 Y11.129
X17.99 Y11.325
X17.872 Y11.563
X17.73 Y12.077
X17.727 Y12.609
X17.784 Y13.139
X17.942 Y14.193
X18.013 Y14.72
X18.074 Y15.25
X18.124 Y15.78
X18.164 Y16.311
X18.195 Y16.843
X18.219 Y17.375
X18.237 Y17.907
X18.251 Y18.44
X18.26 Y18.972
X18.267 Y19.505
X18.272 Y20.038
X18.275 Y20.57
X18.279 Y21.636
X18.282 Y23.766
Y42.143
X18.313 Y42.408
X18.405 Y42.658
X18.556 Y42.877
X18.943 Y43.243
X19.429 Y43.46
X19.948 Y43.581
X20.477 Y43.646
X21.008 Y43.68
X21.541 Y43.698
X22.073 Y43.708
X22.606 Y43.713
X23.139 Y43.715
X24.204 Y43.717
X26.867 Y43.719
X27.4 Y43.722
X27.933 Y43.731
X28.998 Y43.756
X29.53 Y43.766
X30.063 Y43.774
X30.595 Y43.78
X31.128 Y43.784
X32.193 Y43.788
X34.324 Y43.79
X41.249
X44.445 Y43.791
X44.977
X45.51 Y43.794
X46.043 Y43.798
X46.575 Y43.806
X47.108 Y43.82
X47.64 Y43.842
X48.172 Y43.874
X48.702 Y43.919
X48.969 Y43.913
X49.218 Y43.82
X49.432 Y43.661
X49.781 Y43.258
X49.978 Y42.764
X50.082 Y42.241
X50.136 Y41.711
X50.163 Y41.179
X50.177 Y40.647
X50.183 Y40.114
X50.187 Y39.582
X50.189 Y38.516
X50.19 Y32.124
Y13.481
X50.179 Y13.215
X50.112 Y12.957
X49.98 Y12.726
X49.799 Y12.53
X49.373 Y12.211
X48.873 Y12.026
X48.35 Y11.924
X47.82 Y11.87
X47.289 Y11.841
X46.756 Y11.826
X46.223 Y11.818
X45.691 Y11.814
X45.158 Y11.812
X43.56 Y11.81
X39.299
X19.59
X19.464 Y11.853
X19.236 Y11.99
X19.065 Y12.195
X18.823 Y12.669
X18.743 Y13.196
X18.746 Y13.729
X18.785 Y14.26
X18.884 Y15.321
X18.928 Y15.851
X18.964 Y16.383
X18.994 Y16.915
X19.018 Y17.447
X19.036 Y17.979
X19.049 Y18.512
X19.059 Y19.044
X19.066 Y19.577
X19.071 Y20.11
X19.075 Y20.642
X19.079 Y21.708
X19.081 Y23.306
X19.082 Y30.23
Y41.416
X19.128 Y41.678
X19.237 Y41.921
X19.402 Y42.131
X19.808 Y42.476
X20.3 Y42.679
X20.821 Y42.791
X21.35 Y42.851
X21.882 Y42.883
X22.414 Y42.9
X22.947 Y42.909
X23.48 Y42.913
X24.012 Y42.915
X25.61 Y42.918
X26.676 Y42.919
X27.208 Y42.923
X27.741 Y42.931
X29.339 Y42.962
X29.871 Y42.97
X30.404 Y42.977
X30.936 Y42.981
X31.469 Y42.984
X32.534 Y42.988
X34.665 Y42.99
X44.253 Y42.991
X44.786 Y42.992
X45.318 Y42.994
X45.851 Y42.998
X46.384 Y43.006
X46.916 Y43.019
X47.448 Y43.039
X47.98 Y43.068
X48.243 Y43.028
X48.481 Y42.908
X48.682 Y42.733
X49.006 Y42.31
X49.189 Y41.81
X49.287 Y41.286
X49.338 Y40.756
X49.364 Y40.224
X49.377 Y39.691
X49.383 Y39.159
X49.387 Y38.626
X49.389 Y37.561
X49.39 Y31.701
Y22.646
Y14.123
X49.343 Y13.861
X49.233 Y13.618
X49.07 Y13.408
X48.669 Y13.058
X48.177 Y12.852
X47.657 Y12.739
X47.128 Y12.678
X46.596 Y12.645
X46.064 Y12.628
X45.531 Y12.62
X44.998 Y12.615
X44.466 Y12.613
X43.4 Y12.611
X33.28 Y12.61
X20.762
X20.63 Y12.626
X20.504 Y12.669
X20.271 Y12.798
X20.089 Y12.992
X19.818 Y13.451
X19.706 Y13.972
X19.678 Y14.504
X19.69 Y15.036
X19.718 Y15.568
X19.749 Y16.1
X19.778 Y16.632
X19.803 Y17.164
X19.823 Y17.696
X19.839 Y18.229
X19.851 Y18.761
X19.86 Y19.294
X19.867 Y19.826
X19.871 Y20.359
X19.875 Y20.892
X19.879 Y21.957
X19.881 Y23.555
X19.882 Y24.62
Y40.6
X19.926 Y40.863
X20.033 Y41.107
X20.196 Y41.318
X20.597 Y41.669
X21.088 Y41.875
X21.608 Y41.989
X22.137 Y42.05
X22.669 Y42.082
X23.201 Y42.099
X23.734 Y42.108
X24.266 Y42.113
X24.799 Y42.115
X26.397 Y42.119
X26.93 Y42.123
X27.462 Y42.129
X27.995 Y42.137
X29.06 Y42.156
X29.593 Y42.165
X30.125 Y42.172
X30.658 Y42.178
X31.191 Y42.182
X32.256 Y42.187
X33.854 Y42.189
X41.311 Y42.19
X43.975 Y42.191
X44.507 Y42.192
X45.04 Y42.193
X45.573 Y42.197
X46.105 Y42.204
X46.638 Y42.215
X47.17 Y42.232
X47.432 Y42.183
X47.669 Y42.062
X47.869 Y41.887
X48.195 Y41.465
X48.381 Y40.966
X48.482 Y40.443
X48.534 Y39.913
X48.562 Y39.381
X48.576 Y38.848
X48.583 Y38.316
X48.586 Y37.783
X48.589 Y36.718
X48.59 Y32.457
Y14.879
X48.533 Y14.618
X48.415 Y14.38
X48.244 Y14.175
X47.832 Y13.839
X47.337 Y13.642
X46.815 Y13.533
X46.286 Y13.475
X45.754 Y13.444
X45.222 Y13.428
X44.689 Y13.419
X44.156 Y13.415
X43.624 Y13.412
X42.026 Y13.41
X21.784
X21.519 Y13.436
X21.278 Y13.549
X21.081 Y13.728
X20.775 Y14.164
X20.628 Y14.676
X20.573 Y15.206
X20.563 Y15.738
X20.574 Y16.271
X20.61 Y17.336
X20.627 Y17.868
X20.641 Y18.401
X20.652 Y18.933
X20.66 Y19.466
X20.667 Y19.998
X20.671 Y20.531
X20.677 Y21.596
X20.68 Y23.194
X20.682 Y26.923
Y39.707
X20.706 Y39.972
X20.79 Y40.225
X20.934 Y40.449
X21.123 Y40.637
X21.56 Y40.941
X22.063 Y41.116
X22.587 Y41.211
X23.117 Y41.262
X23.649 Y41.289
X24.182 Y41.303
X24.714 Y41.31
X25.247 Y41.314
X26.312 Y41.319
X26.845 Y41.323
X27.378 Y41.329
X27.91 Y41.337
X29.508 Y41.363
X30.041 Y41.37
X30.573 Y41.375
X31.106 Y41.38
X32.171 Y41.385
X33.769 Y41.389
X38.031 Y41.39
X43.357
X43.89 Y41.391
X44.423 Y41.392
X44.955 Y41.394
X45.488 Y41.398
X46.021 Y41.405
X46.287 Y41.411
X46.551 Y41.375
X46.796 Y41.27
X47.007 Y41.108
X47.356 Y40.705
X47.558 Y40.213
X47.669 Y39.691
X47.727 Y39.162
X47.758 Y38.63
X47.773 Y38.098
X47.782 Y37.565
X47.786 Y37.033
X47.788 Y36.5
X47.79 Y34.902
Y15.726
X47.744 Y15.464
X47.636 Y15.22
X47.473 Y15.01
X47.072 Y14.659
X46.58 Y14.453
X46.06 Y14.339
X45.531 Y14.278
X44.999 Y14.246
X44.467 Y14.229
X43.934 Y14.22
X43.402 Y14.215
X42.869 Y14.213
X41.804 Y14.211
X32.216 Y14.21
X26.889
X22.628
X22.366 Y14.259
X22.133 Y14.389
X21.944 Y14.576
X21.649 Y15.02
X21.501 Y15.531
X21.438 Y16.06
X21.418 Y16.593
Y17.125
X21.426 Y17.658
X21.447 Y18.723
X21.456 Y19.255
X21.463 Y19.788
X21.468 Y20.321
X21.472 Y20.853
X21.477 Y21.919
X21.481 Y23.517
X21.482 Y27.245
Y38.964
X21.52 Y39.228
X21.62 Y39.474
X21.776 Y39.691
X22.169 Y40.05
X22.657 Y40.264
X23.176 Y40.383
X23.705 Y40.447
X24.237 Y40.481
X24.769 Y40.499
X25.302 Y40.508
X25.834 Y40.514
X26.9 Y40.524
X27.432 Y40.531
X29.563 Y40.563
X30.095 Y40.57
X30.628 Y40.575
X31.161 Y40.579
X32.226 Y40.585
X33.824 Y40.589
X37.553 Y40.59
X41.281
X43.412 Y40.591
X44.477 Y40.593
X45.01 Y40.596
X45.542 Y40.601
X45.803 Y40.547
X46.042 Y40.429
X46.244 Y40.256
X46.576 Y39.839
X46.769 Y39.343
X46.874 Y38.82
X46.929 Y38.291
X46.959 Y37.759
X46.974 Y37.226
X46.982 Y36.694
X46.986 Y36.161
X46.988 Y35.628
X46.99 Y34.03
Y16.452
X46.928 Y16.193
X46.804 Y15.958
X46.629 Y15.757
X46.21 Y15.428
X45.713 Y15.236
X45.191 Y15.13
X44.662 Y15.073
X44.13 Y15.043
X43.598 Y15.027
X43.065 Y15.019
X42.532 Y15.015
X42. Y15.012
X40.402 Y15.01
X26.552
X23.623
X23.357 Y15.034
X23.111 Y15.135
X22.901 Y15.299
X22.563 Y15.711
X22.382 Y16.212
X22.295 Y16.737
X22.259 Y17.269
X22.248 Y17.801
Y18.334
X22.253 Y18.866
X22.264 Y19.932
X22.272 Y20.997
X22.277 Y22.062
X22.28 Y23.66
X22.282 Y27.389
Y38.042
X22.293 Y38.308
X22.36 Y38.566
X22.491 Y38.798
X22.671 Y38.994
X23.097 Y39.315
X23.596 Y39.501
X24.119 Y39.603
X24.648 Y39.658
X25.18 Y39.687
X25.713 Y39.703
X26.245 Y39.714
X29.441 Y39.761
X29.974 Y39.767
X30.506 Y39.773
X31.039 Y39.777
X32.104 Y39.784
X33.169 Y39.787
X35.3 Y39.789
X43.29 Y39.791
X44.355 Y39.793
X44.622 Y39.795
X44.887 Y39.766
X45.136 Y39.674
X45.355 Y39.522
X45.721 Y39.135
X45.937 Y38.648
X46.056 Y38.129
X46.12 Y37.6
X46.154 Y37.069
X46.171 Y36.536
X46.18 Y36.004
X46.185 Y35.471
X46.187 Y34.938
X46.189 Y33.873
X46.19 Y22.687
Y17.36
X46.152 Y17.097
X46.052 Y16.85
X45.896 Y16.635
X45.503 Y16.274
X45.015 Y16.062
X44.495 Y15.944
X43.966 Y15.88
X43.435 Y15.847
X42.902 Y15.829
X42.37 Y15.82
X41.837 Y15.815
X41.305 Y15.813
X40.239 Y15.811
X31.717 Y15.81
X24.259
X24.008 Y15.899
X23.791 Y16.054
X23.613 Y16.252
X23.332 Y16.704
X23.183 Y17.216
X23.111 Y17.744
X23.079 Y18.275
X23.067 Y18.808
X23.065 Y19.34
X23.066 Y19.873
X23.074 Y21.471
X23.079 Y23.069
X23.081 Y25.2
X23.082 Y37.451
X23.141 Y37.711
X23.261 Y37.948
X23.433 Y38.152
X23.845 Y38.49
X24.34 Y38.687
X24.861 Y38.796
X25.39 Y38.855
X25.922 Y38.888
X26.454 Y38.907
X26.987 Y38.92
X27.52 Y38.93
X28.585 Y38.948
X29.65 Y38.963
X30.715 Y38.974
X31.781 Y38.981
X32.846 Y38.986
X34.444 Y38.989
X38.705 Y38.99
X42.966 Y38.991
X44.032 Y38.993
X44.286 Y38.912
X44.511 Y38.771
X44.702 Y38.584
X45.009 Y38.15
X45.186 Y37.647
X45.283 Y37.123
X45.334 Y36.593
X45.361 Y36.061
X45.375 Y35.529
X45.382 Y34.996
X45.386 Y34.463
X45.389 Y33.398
X45.39 Y29.669
Y28.604
Y17.951
X45.302 Y17.699
X45.155 Y17.477
X44.777 Y17.102
X44.293 Y16.879
X43.776 Y16.753
X43.247 Y16.686
X42.716 Y16.65
X42.183 Y16.631
X41.651 Y16.621
X41.118 Y16.616
X40.586 Y16.613
X39.52 Y16.611
X33.128 Y16.61
X25.138
X24.884 Y16.691
X24.661 Y16.836
X24.477 Y17.029
X24.182 Y17.472
X24.02 Y17.979
X23.938 Y18.506
X23.899 Y19.037
X23.881 Y19.569
X23.875 Y20.102
X23.874 Y20.635
X23.88 Y23.831
X23.882 Y27.559
Y35.017
Y36.615
X23.932 Y36.876
X24.043 Y37.118
X24.208 Y37.327
X24.612 Y37.674
X25.104 Y37.879
X25.624 Y37.993
X26.153 Y38.056
X26.685 Y38.092
X27.217 Y38.114
X27.749 Y38.129
X28.282 Y38.14
X28.815 Y38.15
X29.347 Y38.157
X29.88 Y38.164
X30.412 Y38.17
X31.478 Y38.179
X32.543 Y38.184
X34.141 Y38.188
X37.337 Y38.19
X42.664
X43.196 Y38.191
X43.452 Y38.117
X43.682 Y37.983
X43.876 Y37.8
X44.194 Y37.373
X44.377 Y36.873
X44.478 Y36.349
X44.531 Y35.819
X44.559 Y35.288
X44.574 Y34.755
X44.582 Y34.222
X44.586 Y33.69
X44.589 Y32.625
X44.59 Y29.429
Y18.775
X44.512 Y18.521
X44.371 Y18.294
X44.186 Y18.104
X43.752 Y17.794
X43.25 Y17.616
X42.726 Y17.519
X42.196 Y17.467
X41.664 Y17.44
X41.132 Y17.425
X40.599 Y17.418
X40.066 Y17.414
X39.001 Y17.411
X36.338 Y17.41
X26.217
X25.951 Y17.426
X25.699 Y17.511
X25.477 Y17.659
X25.111 Y18.046
X24.898 Y18.534
X24.784 Y19.054
X24.726 Y19.584
X24.698 Y20.116
X24.685 Y20.648
X24.68 Y21.181
X24.678 Y21.713
X24.682 Y26.507
Y35.563
X24.683 Y35.829
X24.735 Y36.09
X24.849 Y36.331
X25.016 Y36.538
X25.423 Y36.882
X25.915 Y37.085
X26.436 Y37.2
X26.964 Y37.264
X27.496 Y37.301
X28.028 Y37.324
X28.56 Y37.339
X29.093 Y37.351
X29.626 Y37.359
X30.158 Y37.366
X30.691 Y37.372
X31.756 Y37.38
X32.821 Y37.385
X34.419 Y37.388
X37.615 Y37.39
X42.409
X42.664 Y37.313
X42.892 Y37.175
X43.084 Y36.99
X43.398 Y36.56
X43.579 Y36.059
X43.678 Y35.536
X43.732 Y35.006
X43.76 Y34.474
X43.774 Y33.941
X43.782 Y33.409
X43.786 Y32.876
X43.789 Y31.811
X43.79 Y28.615
Y19.56
X43.706 Y19.307
X43.562 Y19.083
X43.183 Y18.708
X42.701 Y18.482
X42.184 Y18.355
X41.655 Y18.287
X41.124 Y18.25
X40.592 Y18.231
X40.059 Y18.221
X39.526 Y18.216
X38.994 Y18.213
X37.928 Y18.211
X31.536 Y18.21
X27.009
X26.744 Y18.236
X26.493 Y18.327
X26.276 Y18.48
X25.915 Y18.872
X25.705 Y19.362
X25.592 Y19.882
X25.533 Y20.412
X25.504 Y20.944
X25.49 Y21.476
X25.484 Y22.009
X25.481 Y22.541
X25.48 Y23.607
X25.482 Y29.466
Y34.26
Y34.793
X25.485 Y35.059
X25.543 Y35.319
X25.662 Y35.557
X25.834 Y35.761
X26.246 Y36.098
X26.74 Y36.298
X27.26 Y36.411
X27.789 Y36.475
X28.32 Y36.512
X28.852 Y36.535
X29.385 Y36.549
X29.917 Y36.56
X30.45 Y36.567
X30.983 Y36.573
X32.048 Y36.58
X33.113 Y36.585
X34.711 Y36.588
X38.44 Y36.59
X41.636
X41.889 Y36.506
X42.113 Y36.362
X42.489 Y35.985
X42.716 Y35.503
X42.844 Y34.986
X42.913 Y34.458
X42.95 Y33.926
X42.969 Y33.394
X42.979 Y32.861
X42.984 Y32.329
X42.987 Y31.796
X42.989 Y30.731
X42.99 Y24.339
Y20.61
X42.969 Y20.345
X42.885 Y20.092
X42.738 Y19.87
X42.358 Y19.497
X41.874 Y19.275
X41.356 Y19.151
X40.827 Y19.084
X40.296 Y19.049
X39.763 Y19.03
X39.231 Y19.021
X38.698 Y19.016
X38.165 Y19.013
X37.1 Y19.011
X30.175 Y19.01
X27.778
X27.515 Y19.048
X27.269 Y19.15
X27.057 Y19.312
X26.707 Y19.713
X26.505 Y20.206
X26.394 Y20.727
X26.337 Y21.257
X26.308 Y21.788
X26.293 Y22.321
X26.286 Y22.854
X26.283 Y23.386
X26.281 Y24.452
X26.282 Y34.04
X26.29 Y34.306
X26.357 Y34.563
X26.485 Y34.797
X26.663 Y34.995
X27.083 Y35.323
X27.579 Y35.516
X28.101 Y35.626
X28.63 Y35.688
X29.161 Y35.723
X29.693 Y35.745
X30.226 Y35.758
X30.758 Y35.767
X31.291 Y35.773
X31.824 Y35.778
X32.889 Y35.784
X34.487 Y35.788
X37.15 Y35.79
X40.613
X40.878 Y35.763
X41.128 Y35.673
X41.348 Y35.522
X41.714 Y35.135
X41.931 Y34.649
X42.052 Y34.13
X42.117 Y33.602
X42.152 Y33.07
X42.17 Y32.538
X42.18 Y32.005
X42.185 Y31.473
X42.187 Y30.94
X42.189 Y29.875
X42.19 Y21.885
Y21.352
X42.154 Y21.088
X42.055 Y20.841
X41.898 Y20.626
X41.502 Y20.269
X41.013 Y20.059
X40.493 Y19.942
X39.964 Y19.88
X39.432 Y19.846
X38.9 Y19.829
X38.367 Y19.82
X37.835 Y19.815
X37.302 Y19.813
X36.237 Y19.811
X28.779 Y19.81
X28.513 Y19.812
X28.253 Y19.868
X28.015 Y19.988
X27.814 Y20.163
X27.484 Y20.581
X27.294 Y21.079
X27.191 Y21.601
X27.136 Y22.131
X27.108 Y22.663
X27.094 Y23.196
X27.087 Y23.728
X27.084 Y24.261
X27.082 Y25.326
Y33.316
X27.105 Y33.581
X27.188 Y33.835
X27.329 Y34.06
X27.704 Y34.439
X28.183 Y34.671
X28.699 Y34.804
X29.226 Y34.879
X29.757 Y34.922
X30.289 Y34.946
X30.822 Y34.961
X31.354 Y34.97
X31.887 Y34.976
X32.42 Y34.98
X33.485 Y34.985
X35.083 Y34.988
X38.812 Y34.99
X39.877
X40.14 Y34.947
X40.384 Y34.841
X40.595 Y34.678
X40.943 Y34.275
X41.148 Y33.783
X41.261 Y33.263
X41.322 Y32.734
X41.355 Y32.202
X41.372 Y31.67
X41.38 Y31.137
X41.385 Y30.604
X41.387 Y30.072
X41.389 Y29.006
X41.39 Y23.68
Y22.082
X41.337 Y21.821
X41.221 Y21.581
X41.05 Y21.376
X40.638 Y21.039
X40.143 Y20.842
X39.622 Y20.733
X39.092 Y20.675
X38.561 Y20.644
X38.028 Y20.628
X37.496 Y20.619
X36.963 Y20.615
X36.43 Y20.612
X34.832 Y20.61
X29.506
X29.24 Y20.624
X28.985 Y20.7
X28.757 Y20.839
X28.567 Y21.025
X28.258 Y21.459
X28.081 Y21.961
X27.985 Y22.485
X27.934 Y23.016
X27.908 Y23.548
X27.895 Y24.08
X27.888 Y24.613
X27.885 Y25.145
X27.882 Y26.211
Y32.603
X27.921 Y32.866
X28.021 Y33.113
X28.177 Y33.328
X28.57 Y33.688
X29.058 Y33.904
X29.576 Y34.026
X30.104 Y34.094
X30.635 Y34.133
X31.168 Y34.154
X31.7 Y34.167
X32.233 Y34.175
X32.765 Y34.18
X33.298 Y34.183
X34.363 Y34.187
X36.494 Y34.189
X39.157 Y34.19
X39.416 Y34.127
X39.651 Y34.002
X39.851 Y33.825
X40.177 Y33.404
X40.367 Y32.907
X40.472 Y32.384
X40.528 Y31.855
X40.558 Y31.323
X40.573 Y30.79
X40.581 Y30.258
X40.585 Y29.725
X40.588 Y29.192
X40.59 Y27.594
Y23.333
Y22.8
X40.517 Y22.544
X40.382 Y22.315
X40.198 Y22.122
X39.769 Y21.806
X39.269 Y21.624
X38.746 Y21.523
X38.216 Y21.47
X37.684 Y21.441
X37.151 Y21.426
X36.619 Y21.418
X36.086 Y21.414
X35.553 Y21.412
X33.955 Y21.41
X30.227
X29.963 Y21.447
X29.716 Y21.546
X29.5 Y21.702
X29.141 Y22.096
X28.928 Y22.584
X28.811 Y23.104
X28.748 Y23.633
X28.716 Y24.164
X28.699 Y24.697
X28.69 Y25.229
X28.686 Y25.762
X28.684 Y26.294
X28.682 Y27.892
Y31.621
X28.685 Y31.887
X28.741 Y32.148
X28.858 Y32.387
X29.028 Y32.592
X29.439 Y32.931
X29.932 Y33.132
X30.453 Y33.245
X30.982 Y33.307
X31.513 Y33.342
X32.046 Y33.361
X32.578 Y33.372
X33.111 Y33.378
X33.643 Y33.382
X34.709 Y33.387
X36.839 Y33.389
X38.437 Y33.39
X38.69 Y33.305
X38.914 Y33.162
X39.29 Y32.784
X39.517 Y32.302
X39.644 Y31.785
X39.713 Y31.257
X39.75 Y30.725
X39.769 Y30.193
X39.779 Y29.66
X39.784 Y29.128
X39.787 Y28.595
X39.789 Y27.53
X39.79 Y23.801
X39.764 Y23.536
X39.674 Y23.285
X39.526 Y23.064
X39.142 Y22.695
X38.658 Y22.474
X38.139 Y22.35
X37.611 Y22.284
X37.079 Y22.249
X36.547 Y22.23
X36.014 Y22.22
X35.482 Y22.215
X34.949 Y22.213
X33.884 Y22.211
X33.351 Y22.21
X31.221
X30.954 Y22.212
X30.693 Y22.265
X30.453 Y22.379
X30.247 Y22.549
X29.909 Y22.96
X29.711 Y23.455
X29.602 Y23.976
X29.544 Y24.506
X29.514 Y25.038
X29.498 Y25.57
X29.49 Y26.103
X29.486 Y26.635
X29.484 Y27.168
X29.482 Y28.766
Y30.897
X29.494 Y31.163
X29.565 Y31.419
X29.697 Y31.651
X29.878 Y31.846
X30.303 Y32.167
X30.802 Y32.354
X31.324 Y32.459
X31.853 Y32.517
X32.385 Y32.548
X32.917 Y32.566
X33.45 Y32.575
X33.983 Y32.581
X34.515 Y32.584
X35.581 Y32.588
X37.445 Y32.589
X37.709 Y32.556
X37.957 Y32.459
X38.172 Y32.302
X38.529 Y31.907
X38.74 Y31.417
X38.857 Y30.898
X38.92 Y30.369
X38.953 Y29.837
X38.971 Y29.305
X38.98 Y28.772
X38.985 Y28.24
X38.987 Y27.707
X38.989 Y26.642
X38.99 Y24.511
X38.943 Y24.249
X38.834 Y24.006
X38.669 Y23.797
X38.263 Y23.452
X37.771 Y23.249
X37.25 Y23.137
X36.721 Y23.077
X36.189 Y23.045
X35.656 Y23.028
X35.124 Y23.019
X34.591 Y23.015
X34.059 Y23.013
X32.461 Y23.01
X31.928
X31.662 Y23.023
X31.406 Y23.097
X31.177 Y23.233
X30.985 Y23.417
X30.671 Y23.848
X30.491 Y24.349
X30.392 Y24.873
X30.339 Y25.403
X30.311 Y25.935
X30.297 Y26.467
X30.29 Y27.
X30.286 Y27.532
X30.283 Y28.598
X30.282 Y30.196
X30.316 Y30.46
X30.411 Y30.709
X30.562 Y30.928
X30.949 Y31.294
X31.433 Y31.515
X31.951 Y31.64
X32.48 Y31.707
X33.011 Y31.744
X33.543 Y31.764
X34.076 Y31.775
X34.608 Y31.781
X35.141 Y31.785
X36.206 Y31.788
X36.739 Y31.789
X36.999 Y31.732
X37.237 Y31.612
X37.439 Y31.438
X37.77 Y31.021
X37.963 Y30.524
X38.07 Y30.003
X38.127 Y29.473
X38.157 Y28.941
X38.173 Y28.409
X38.181 Y27.876
X38.185 Y27.343
X38.188 Y26.811
X38.19 Y25.213
X38.12 Y24.956
X37.987 Y24.725
X37.806 Y24.53
X37.379 Y24.211
X36.88 Y24.026
X36.357 Y23.925
X35.827 Y23.87
X35.295 Y23.842
X34.762 Y23.826
X34.23 Y23.819
X33.697 Y23.814
X33.165 Y23.812
X32.632 Y23.811
X32.368 Y23.849
X32.121 Y23.949
X31.906 Y24.105
X31.546 Y24.498
X31.333 Y24.986
X31.215 Y25.505
X31.151 Y26.034
X31.118 Y26.566
X31.101 Y27.098
X31.091 Y27.631
X31.087 Y28.164
X31.084 Y28.696
X31.083 Y29.229
X31.086 Y29.495
X31.138 Y29.756
X31.252 Y29.997
X31.421 Y30.203
X31.83 Y30.544
X32.324 Y30.745
X32.844 Y30.857
X33.374 Y30.918
X33.905 Y30.95
X34.438 Y30.968
X34.97 Y30.978
X35.503 Y30.983
X36.035 Y30.986
X36.289 Y30.903
X36.513 Y30.76
X36.89 Y30.383
X37.117 Y29.902
X37.245 Y29.384
X37.314 Y28.856
X37.35 Y28.325
X37.369 Y27.792
X37.379 Y27.26
X37.384 Y26.727
X37.387 Y26.194
X37.36 Y25.93
X37.269 Y25.679
X37.119 Y25.459
X36.734 Y25.091
X36.249 Y24.871
X35.73 Y24.749
X35.202 Y24.683
X34.67 Y24.648
X34.138 Y24.63
X33.605 Y24.62
X33.339 Y24.621
X33.078 Y24.677
X32.84 Y24.795
X32.637 Y24.968
X32.303 Y25.383
X32.109 Y25.879
X32.002 Y26.401
X31.945 Y26.931
X31.915 Y27.462
X31.899 Y27.995
X31.891 Y28.528
X31.903 Y28.794
X31.976 Y29.05
X32.111 Y29.279
X32.295 Y29.472
X32.724 Y29.788
X33.224 Y29.971
X33.747 Y30.072
X34.277 Y30.127
X34.809 Y30.156
X35.075 Y30.164
X35.339 Y30.129
X35.585 Y30.027
X35.797 Y29.866
X36.146 Y29.463
X36.35 Y28.971
X36.463 Y28.451
X36.523 Y27.921
X36.555 Y27.39
X36.572 Y26.857
X36.517 Y26.597
X36.379 Y26.369
X36.194 Y26.177
X35.761 Y25.867
X35.258 Y25.69
X34.735 Y25.593
X34.205 Y25.54
X33.941 Y25.579
X33.699 Y25.69
X33.494 Y25.861
X33.161 Y26.276
X32.972 Y26.774
X32.869 Y27.297
X32.814 Y27.827
X32.847 Y28.091
X32.951 Y28.336
X33.116 Y28.546
X33.522 Y28.89
X34.017 Y29.086
X34.278 Y29.14
X34.411 Y29.133
X34.67 Y29.071
X34.896 Y28.93
X35.081 Y28.738
X35.377 Y28.295
X35.458 Y28.042
X35.52 Y27.783
X35.514 Y27.65
X35.452 Y27.391
X35.308 Y27.166
X35.116 Y26.983
X35.002 Y26.913
X34.873 Y26.879
X34.74 Y26.883
X34.613 Y26.924
X34.501 Y26.996
X34.4 Y27.082
X34.327 Y27.193
G3 X33.979 Y27. I-0.163 J-0.115
G1 X33.997 Y26.968 Z11.004
X34.034 Y26.938 Z11.019
X34.066 Y26.912 Z11.046
X34.093 Y26.891 Z11.083
X34.113 Y26.886 Z11.119
X34.125 Y26.882 Z11.159
X34.129 Y26.881 Z11.2
G0 Z22.
X4.273 Y3.869
Z11.7
G1 Z11.5 F1500.
X4.277 Y3.874 Z11.448
X4.291 Y3.888 Z11.4
X4.313 Y3.911 Z11.359
X4.342 Y3.941 Z11.327
X4.375 Y3.976 Z11.307
X4.411 Y4.013 Z11.3
G3 X5.368 Y5.259 I-5.27 J5.039
G1 X5.402 Y5.32
Y5.389
X5.369 Y5.45
X5.218 Y5.617
X5.051 Y5.806
X5.038 Y5.823
X4.819 Y6.186
X4.683 Y6.428
X4.623 Y6.549
X4.464 Y7.034
X4.426 Y7.155
X4.4 Y7.276
X4.382 Y7.397
X4.356 Y7.639
X4.346 Y7.76
X4.332 Y8.002
Y8.123
X4.356 Y8.365
X4.371 Y8.49
X4.426 Y8.849
X4.544 Y9.212
X4.63 Y9.454
X4.682 Y9.575
X4.751 Y9.696
X4.891 Y9.939
X4.976 Y10.078
X5.043 Y10.181
X5.218 Y10.383
X5.363 Y10.544
X5.46 Y10.648
X5.581 Y10.765
X5.823 Y10.945
X6.065 Y11.12
X6.108 Y11.149
X6.186 Y11.196
X6.549 Y11.362
X6.923 Y11.512
X7.034 Y11.538
X7.518 Y11.641
X7.639 Y11.655
X7.76 Y11.661
X8.002 Y11.662
X8.123 Y11.66
X8.365 Y11.649
X8.486 Y11.64
X8.849 Y11.563
X9.08 Y11.512
X9.212 Y11.467
X9.454 Y11.361
X9.696 Y11.253
X9.818 Y11.192
X9.891 Y11.149
X9.939 Y11.118
X10.302 Y10.854
X10.394 Y10.786
X10.423 Y10.763
X10.544 Y10.637
X10.746 Y10.423
X10.786 Y10.379
X10.958 Y10.181
X11.036 Y10.06
X11.109 Y9.939
X11.27 Y9.66
X11.316 Y9.575
X11.372 Y9.454
X11.391 Y9.411
X11.512 Y9.041
X11.574 Y8.849
X11.633 Y8.466
X11.668 Y8.123
Y8.002
X11.654 Y7.76
X11.644 Y7.639
X11.618 Y7.397
X11.601 Y7.276
X11.575 Y7.155
X11.497 Y6.912
X11.391 Y6.592
X11.375 Y6.549
X11.181 Y6.186
X11.149 Y6.13
X11.11 Y6.065
X10.957 Y5.823
X10.907 Y5.759
X10.75 Y5.581
X10.641 Y5.46
X10.529 Y5.339
X10.423 Y5.239
X10.397 Y5.218
X10.302 Y5.146
X10.06 Y4.97
X9.939 Y4.886
X9.818 Y4.807
X9.696 Y4.748
X9.575 Y4.693
X9.333 Y4.585
X9.212 Y4.533
X9.084 Y4.492
X8.97 Y4.463
X8.486 Y4.36
X8.365 Y4.351
X8.123 Y4.34
X8.002 Y4.338
X7.76 Y4.339
X7.639 Y4.345
X7.518 Y4.359
X7.034 Y4.462
X6.917 Y4.492
X6.549 Y4.637
X6.186 Y4.804
X6.111 Y4.855
X5.823 Y5.055
X5.602 Y5.218
X5.46 Y5.354
X5.369 Y5.45
G3 X5.089 Y5.165 I-0.14 J-0.143
X5.231 Y5.108 I0.14 J0.143
G1 X5.282 Z11.307
X5.331 Y5.109 Z11.327
X5.372 Z11.359
X5.404 Z11.4
X5.424 Y5.11 Z11.448
X5.431 Z11.5
G0 Z22.
X57.727 Y58.131
Z11.7
G1 Z11.5 F1500.
X57.723 Y58.126 Z11.448
X57.709 Y58.112 Z11.4
X57.687 Y58.089 Z11.359
X57.658 Y58.059 Z11.327
X57.625 Y58.024 Z11.307
X57.589 Y57.987 Z11.3
G3 X56.632 Y56.741 I5.27 J-5.039
G1 X56.598 Y56.68
Y56.611
X56.631 Y56.55
X56.782 Y56.383
X56.949 Y56.194
X56.962 Y56.177
X57.181 Y55.814
X57.317 Y55.572
X57.377 Y55.451
X57.536 Y54.966
X57.574 Y54.845
X57.6 Y54.724
X57.618 Y54.603
X57.644 Y54.361
X57.654 Y54.24
X57.668 Y53.998
Y53.877
X57.644 Y53.635
X57.629 Y53.51
X57.574 Y53.151
X57.456 Y52.788
X57.37 Y52.546
X57.318 Y52.425
X57.249 Y52.304
X57.109 Y52.061
X57.024 Y51.922
X56.957 Y51.819
X56.782 Y51.617
X56.637 Y51.456
X56.54 Y51.352
X56.419 Y51.235
X56.177 Y51.055
X55.935 Y50.88
X55.892 Y50.851
X55.814 Y50.804
X55.451 Y50.638
X55.077 Y50.488
X54.966 Y50.462
X54.482 Y50.359
X54.361 Y50.345
X54.24 Y50.339
X53.998 Y50.338
X53.877 Y50.34
X53.635 Y50.351
X53.514 Y50.36
X53.151 Y50.437
X52.92 Y50.488
X52.788 Y50.533
X52.546 Y50.639
X52.304 Y50.747
X52.182 Y50.808
X52.109 Y50.851
X52.061 Y50.882
X51.698 Y51.146
X51.606 Y51.214
X51.577 Y51.237
X51.456 Y51.363
X51.254 Y51.577
X51.214 Y51.621
X51.042 Y51.819
X50.964 Y51.94
X50.891 Y52.061
X50.73 Y52.34
X50.684 Y52.425
X50.628 Y52.546
X50.609 Y52.589
X50.488 Y52.959
X50.426 Y53.151
X50.367 Y53.534
X50.332 Y53.877
Y53.998
X50.346 Y54.24
X50.356 Y54.361
X50.382 Y54.603
X50.399 Y54.724
X50.425 Y54.845
X50.503 Y55.088
X50.609 Y55.408
X50.625 Y55.451
X50.819 Y55.814
X50.851 Y55.87
X50.89 Y55.935
X51.043 Y56.177
X51.093 Y56.241
X51.25 Y56.419
X51.359 Y56.54
X51.471 Y56.661
X51.577 Y56.761
X51.603 Y56.782
X51.698 Y56.854
X51.94 Y57.03
X52.061 Y57.114
X52.182 Y57.193
X52.304 Y57.252
X52.425 Y57.307
X52.667 Y57.415
X52.788 Y57.467
X52.916 Y57.508
X53.03 Y57.537
X53.514 Y57.64
X53.635 Y57.649
X53.877 Y57.66
X53.998 Y57.662
X54.24 Y57.661
X54.361 Y57.655
X54.482 Y57.641
X54.966 Y57.538
X55.083 Y57.508
X55.451 Y57.363
X55.814 Y57.196
X55.889 Y57.145
X56.177 Y56.945
X56.398 Y56.782
X56.54 Y56.646
X56.631 Y56.55
G3 X56.939 Y56.802 I0.14 J0.143
G1 X56.915 Y56.831 Z11.304
X56.874 Y56.854 Z11.319
X56.837 Y56.873 Z11.346
X56.807 Y56.889 Z11.383
X56.784 Y56.891 Z11.425
X56.771 Y56.892 Z11.471
X56.769 Z11.5
G0 Z22.
X4.26 Y3.916
Z12.
G1 Z11.8 F1500.
X4.265 Y3.921 Z11.748
X4.279 Y3.936 Z11.7
X4.301 Y3.958 Z11.659
X4.33 Y3.988 Z11.627
X4.364 Y4.023 Z11.607
X4.4 Y4.06 Z11.6
G3 X5.368 Y5.297 I-5.226 J5.084
G1 X5.402 Y5.357
X5.403 Y5.426
X5.371 Y5.488
X5.097 Y5.794
X5.074 Y5.823
X4.994 Y5.944
X4.851 Y6.186
X4.653 Y6.549
X4.532 Y6.912
X4.492 Y7.053
X4.43 Y7.276
X4.409 Y7.397
X4.383 Y7.639
X4.373 Y7.76
X4.36 Y8.002
X4.359 Y8.123
X4.409 Y8.607
X4.429 Y8.728
X4.455 Y8.849
X4.572 Y9.212
X4.655 Y9.454
X4.715 Y9.575
X4.734 Y9.612
X4.922 Y9.939
X4.995 Y10.06
X5.082 Y10.181
X5.218 Y10.34
X5.339 Y10.477
X5.399 Y10.544
X5.46 Y10.606
X5.581 Y10.727
X5.653 Y10.786
X5.823 Y10.911
X6.065 Y11.085
X6.158 Y11.149
X6.186 Y11.164
X6.549 Y11.333
X6.912 Y11.478
X7.041 Y11.512
X7.276 Y11.562
X7.397 Y11.584
X7.699 Y11.633
X7.881 Y11.634
X8.002
X8.123 Y11.633
X8.365 Y11.621
X8.486 Y11.612
X8.97 Y11.509
X9.091 Y11.481
X9.212 Y11.438
X9.592 Y11.27
X9.696 Y11.219
X9.835 Y11.149
X9.939 Y11.083
X10.06 Y10.996
X10.348 Y10.786
X10.423 Y10.723
X10.544 Y10.603
X10.601 Y10.544
X10.786 Y10.337
X10.924 Y10.181
X11.028 Y10.021
X11.078 Y9.939
X11.27 Y9.605
X11.343 Y9.454
X11.391 Y9.323
X11.512 Y8.953
X11.545 Y8.849
X11.571 Y8.728
X11.591 Y8.607
X11.641 Y8.123
X11.64 Y8.002
X11.627 Y7.76
X11.617 Y7.639
X11.591 Y7.397
X11.571 Y7.276
X11.512 Y7.047
X11.388 Y6.67
X11.345 Y6.549
X11.149 Y6.185
X11.075 Y6.065
X10.907 Y5.799
X10.665 Y5.528
X10.544 Y5.394
X10.492 Y5.339
X10.423 Y5.274
X10.354 Y5.218
X10.021 Y4.976
X9.939 Y4.919
X9.818 Y4.839
X9.696 Y4.779
X9.575 Y4.723
X9.328 Y4.613
X9.212 Y4.562
X9.091 Y4.523
X8.97 Y4.491
X8.486 Y4.388
X8.365 Y4.379
X8.123 Y4.367
X8.002 Y4.366
X7.76
X7.676 Y4.371
X7.397 Y4.416
X7.276 Y4.438
X7.029 Y4.492
X6.912 Y4.522
X6.67 Y4.618
X6.549 Y4.667
X6.186 Y4.836
X6.157 Y4.855
X5.944 Y5.002
X5.812 Y5.097
