(1001)
(T1  D=2. CR=0. - ZMIN=0. - FLAT END MILL)
G0 G90 G94 G17
G21
G53 Z0.

(ROUGHING - 2MM)
M5
M9
T1
S16400 M3
G4 P4.
G55
M9
G0 X-0.263 Y-2.797
Z32.
Z22.
Z14.4
G1 Z14.2 F1500.
X-0.262 Y-2.791 Z14.148
X-0.257 Y-2.771 Z14.1
X-0.249 Y-2.741 Z14.059
X-0.238 Y-2.7 Z14.027
X-0.226 Y-2.654 Z14.007
X-0.214 Y-2.604 Z14.
G3 X0.01 Y-1.049 I-7.063 J1.809
G1 Y-0.899
X-0.097 Y-0.377
X-0.147 Y0.153
X-0.17 Y0.686
X-0.181 Y1.218
X-0.186 Y1.751
X-0.188 Y2.283
X-0.19 Y3.881
Y49.158
Y61.143
X-0.152 Y61.271
X-0.009 Y61.495
X0.191 Y61.671
X0.652 Y61.938
X1.167 Y62.072
X1.696 Y62.135
X2.228 Y62.165
X2.761 Y62.178
X3.293 Y62.185
X3.826 Y62.188
X4.891 Y62.189
X37.916 Y62.19
X61.087
X61.217 Y62.158
X61.452 Y62.034
X61.637 Y61.842
X61.921 Y61.391
X62.063 Y60.878
X62.131 Y60.35
X62.163 Y59.818
X62.178 Y59.286
X62.184 Y58.753
X62.187 Y58.22
X62.189 Y57.155
X62.19 Y35.316
Y0.959
X62.174 Y0.827
X62.121 Y0.704
X61.971 Y0.485
X61.766 Y0.314
X61.301 Y0.054
X60.785 Y-0.075
X60.255 Y-0.137
X59.724 Y-0.166
X59.191 Y-0.179
X58.658 Y-0.185
X58.126 Y-0.188
X57.06 Y-0.19
X46.94
X1.796
X1.665 Y-0.17
X1.42 Y-0.065
X1.223 Y0.114
X0.916 Y0.55
X0.758 Y1.058
X0.68 Y1.585
X0.643 Y2.117
X0.625 Y2.649
X0.617 Y3.182
X0.613 Y3.714
X0.612 Y4.247
X0.61 Y6.378
Y54.318
Y60.177
X0.701 Y60.427
X0.859 Y60.642
X1.261 Y60.99
X1.757 Y61.186
X2.28 Y61.288
X2.81 Y61.34
X3.342 Y61.366
X3.874 Y61.378
X4.407 Y61.384
X4.94 Y61.387
X6.005 Y61.389
X20.387 Y61.39
X44.357
X60.07
X60.331 Y61.336
X60.562 Y61.203
X60.752 Y61.016
X61.055 Y60.578
X61.22 Y60.072
X61.306 Y59.546
X61.349 Y59.015
X61.37 Y58.483
X61.38 Y57.95
X61.385 Y57.418
X61.388 Y56.885
X61.389 Y55.82
X61.39 Y27.588
Y2.021
X61.358 Y1.756
X61.246 Y1.514
X61.075 Y1.311
X60.656 Y0.981
X60.156 Y0.798
X59.632 Y0.704
X59.101 Y0.656
X58.569 Y0.632
X58.036 Y0.621
X57.504 Y0.615
X56.971 Y0.612
X55.906 Y0.611
X37.263 Y0.61
X2.639
X2.388 Y0.7
X2.173 Y0.856
X1.82 Y1.255
X1.621 Y1.749
X1.516 Y2.271
X1.463 Y2.801
X1.436 Y3.333
X1.423 Y3.866
X1.416 Y4.398
X1.413 Y4.931
X1.411 Y5.996
X1.41 Y15.052
Y15.584
Y59.263
X1.481 Y59.52
X1.621 Y59.746
X1.809 Y59.935
X2.247 Y60.238
X2.752 Y60.407
X3.277 Y60.497
X3.808 Y60.543
X4.34 Y60.567
X4.873 Y60.578
X5.405 Y60.584
X5.938 Y60.587
X7.003 Y60.589
X7.536 Y60.59
X57.606
X59.204
X59.464 Y60.531
X59.698 Y60.404
X59.894 Y60.224
X60.213 Y59.797
X60.393 Y59.296
X60.489 Y58.772
X60.539 Y58.241
X60.565 Y57.709
X60.577 Y57.177
X60.584 Y56.644
X60.587 Y56.112
X60.589 Y55.046
X60.59 Y48.122
Y12.433
Y2.845
X60.544 Y2.583
X60.429 Y2.342
X60.258 Y2.139
X59.841 Y1.806
X59.343 Y1.618
X58.82 Y1.516
X58.29 Y1.464
X57.758 Y1.437
X57.226 Y1.423
X56.693 Y1.417
X56.161 Y1.413
X55.095 Y1.411
X49.236 Y1.41
X20.472
X3.693
X3.428 Y1.441
X3.182 Y1.542
X2.972 Y1.705
X2.627 Y2.111
X2.429 Y2.606
X2.323 Y3.128
X2.267 Y3.657
X2.239 Y4.189
X2.224 Y4.722
X2.217 Y5.254
X2.214 Y5.787
X2.211 Y6.852
X2.21 Y11.646
Y34.018
Y58.255
X2.239 Y58.519
X2.335 Y58.768
X2.49 Y58.984
X2.884 Y59.342
X3.374 Y59.552
X3.894 Y59.666
X4.424 Y59.727
X4.955 Y59.758
X5.488 Y59.774
X6.02 Y59.782
X6.553 Y59.786
X7.086 Y59.788
X8.684 Y59.79
X27.327
X58.222
X58.487 Y59.767
X58.738 Y59.679
X58.959 Y59.53
X59.326 Y59.144
X59.543 Y58.657
X59.661 Y58.138
X59.724 Y57.609
X59.756 Y57.078
X59.773 Y56.545
X59.781 Y56.013
X59.786 Y55.48
X59.788 Y54.947
X59.79 Y53.349
Y41.098
Y3.811
X59.776 Y3.545
X59.697 Y3.291
X59.554 Y3.066
X59.366 Y2.878
X58.928 Y2.574
X58.424 Y2.402
X57.899 Y2.31
X57.369 Y2.261
X56.837 Y2.236
X56.304 Y2.223
X55.772 Y2.217
X55.239 Y2.213
X54.174 Y2.211
X48.847 Y2.21
X47.782
X4.636
X4.37 Y2.217
X4.113 Y2.289
X3.885 Y2.426
X3.693 Y2.611
X3.384 Y3.044
X3.208 Y3.547
X3.113 Y4.071
X3.063 Y4.602
X3.037 Y5.134
X3.024 Y5.666
X3.017 Y6.199
X3.013 Y6.731
X3.011 Y7.797
X3.01 Y8.329
Y57.335
X3.017 Y57.601
X3.084 Y57.859
X3.216 Y58.09
X3.397 Y58.285
X3.826 Y58.602
X4.326 Y58.783
X4.85 Y58.882
X5.38 Y58.934
X5.912 Y58.961
X6.444 Y58.975
X6.977 Y58.983
X7.51 Y58.986
X8.575 Y58.989
X12.836 Y58.99
X53.319
X57.58
X57.839 Y58.928
X58.073 Y58.8
X58.271 Y58.622
X58.593 Y58.198
X58.778 Y57.698
X58.879 Y57.175
X58.933 Y56.645
X58.961 Y56.114
X58.975 Y55.581
X58.982 Y55.048
X58.986 Y54.516
X58.989 Y53.45
X58.99 Y49.722
Y13.501
Y4.445
X58.927 Y4.186
X58.803 Y3.951
X58.628 Y3.75
X58.21 Y3.42
X57.713 Y3.229
X57.19 Y3.125
X56.661 Y3.069
X56.129 Y3.041
X55.596 Y3.026
X55.064 Y3.018
X54.531 Y3.014
X53.466 Y3.011
X49.737 Y3.01
X18.31
X5.526
X5.259 Y3.011
X4.999 Y3.068
X4.762 Y3.189
X4.559 Y3.362
X4.225 Y3.776
X4.032 Y4.273
X3.926 Y4.795
X3.87 Y5.325
X3.841 Y5.857
X3.826 Y6.389
X3.818 Y6.922
X3.814 Y7.454
X3.811 Y8.52
X3.81 Y12.248
Y39.414
Y56.459
X3.811 Y56.726
X3.866 Y56.986
X3.985 Y57.225
X4.155 Y57.429
X4.567 Y57.767
X5.062 Y57.963
X5.584 Y58.071
X6.114 Y58.128
X6.646 Y58.158
X7.178 Y58.173
X7.711 Y58.182
X8.243 Y58.186
X8.776 Y58.188
X10.374 Y58.19
X35.942
X56.716
X56.977 Y58.138
X57.217 Y58.022
X57.423 Y57.853
X57.763 Y57.443
X57.961 Y56.949
X58.069 Y56.427
X58.127 Y55.898
X58.157 Y55.366
X58.173 Y54.834
X58.181 Y54.301
X58.186 Y53.768
X58.188 Y53.236
X58.19 Y51.638
Y29.266
Y5.296
X58.138 Y5.035
X58.025 Y4.794
X57.857 Y4.586
X57.45 Y4.243
X56.957 Y4.043
X56.435 Y3.933
X55.906 Y3.874
X55.374 Y3.843
X54.842 Y3.827
X54.309 Y3.819
X53.777 Y3.815
X53.244 Y3.812
X51.646 Y3.81
X32.47
X6.103
X5.841 Y3.86
X5.599 Y3.971
X5.391 Y4.137
X5.046 Y4.543
X4.845 Y5.036
X4.734 Y5.557
X4.675 Y6.086
X4.643 Y6.618
X4.627 Y7.151
X4.619 Y7.683
X4.615 Y8.216
X4.612 Y8.748
X4.61 Y10.346
Y26.859
Y55.889
X4.659 Y56.151
X4.769 Y56.394
X4.934 Y56.603
X5.338 Y56.95
X5.831 Y57.153
X6.351 Y57.264
X6.881 Y57.324
X7.412 Y57.356
X7.945 Y57.372
X8.477 Y57.381
X9.01 Y57.385
X9.543 Y57.388
X11.141 Y57.39
X24.99
X55.885
X56.147 Y57.343
X56.39 Y57.234
X56.6 Y57.07
X56.948 Y56.667
X57.151 Y56.175
X57.264 Y55.654
X57.324 Y55.125
X57.356 Y54.593
X57.372 Y54.061
X57.381 Y53.528
X57.385 Y52.996
X57.388 Y52.463
X57.39 Y50.865
Y38.614
Y6.121
X57.344 Y5.859
X57.236 Y5.615
X57.073 Y5.405
X56.67 Y5.055
X56.179 Y4.851
X55.658 Y4.737
X55.129 Y4.677
X54.597 Y4.645
X54.065 Y4.628
X53.532 Y4.619
X53. Y4.615
X52.467 Y4.612
X50.869 Y4.61
X40.216
X6.924
X6.662 Y4.655
X6.418 Y4.762
X6.207 Y4.925
X5.857 Y5.326
X5.651 Y5.818
X5.538 Y6.338
X5.477 Y6.867
X5.445 Y7.399
X5.428 Y7.931
X5.419 Y8.464
X5.415 Y8.997
X5.412 Y9.529
X5.41 Y11.127
Y20.715
Y55.072
X5.455 Y55.335
X5.561 Y55.579
X5.724 Y55.79
X6.124 Y56.141
X6.615 Y56.347
X7.136 Y56.461
X7.665 Y56.523
X8.197 Y56.555
X8.729 Y56.572
X9.261 Y56.581
X9.794 Y56.585
X10.327 Y56.587
X11.925 Y56.59
X20.447
X55.071
X55.333 Y56.546
X55.578 Y56.44
X55.789 Y56.278
X56.141 Y55.878
X56.347 Y55.387
X56.461 Y54.866
X56.522 Y54.337
X56.555 Y53.805
X56.572 Y53.273
X56.581 Y52.74
X56.585 Y52.208
X56.587 Y51.675
X56.59 Y50.077
Y41.555
Y6.931
X56.546 Y6.669
X56.44 Y6.424
X56.279 Y6.212
X55.879 Y5.861
X55.388 Y5.654
X54.868 Y5.539
X54.338 Y5.478
X53.807 Y5.445
X53.274 Y5.428
X52.742 Y5.42
X52.209 Y5.415
X51.677 Y5.413
X50.611 Y5.411
X41.556 Y5.41
X7.732
X7.469 Y5.454
X7.224 Y5.559
X7.013 Y5.721
X6.661 Y6.121
X6.454 Y6.612
X6.339 Y7.132
X6.278 Y7.661
X6.245 Y8.193
X6.228 Y8.725
X6.22 Y9.258
X6.215 Y9.79
X6.213 Y10.323
X6.211 Y11.388
X6.21 Y20.976
Y54.268
X6.254 Y54.531
X6.359 Y54.775
X6.521 Y54.987
X6.921 Y55.339
X7.412 Y55.546
X7.932 Y55.66
X8.461 Y55.722
X8.993 Y55.754
X9.525 Y55.771
X10.058 Y55.78
X10.59 Y55.785
X11.123 Y55.787
X12.188 Y55.789
X22.309 Y55.79
X54.269
X54.532 Y55.746
X54.776 Y55.64
X54.988 Y55.479
X55.339 Y55.078
X55.546 Y54.588
X55.66 Y54.067
X55.722 Y53.538
X55.754 Y53.007
X55.772 Y52.474
X55.78 Y51.942
X55.785 Y51.409
X55.787 Y50.876
X55.789 Y49.811
X55.79 Y39.69
Y38.092
Y7.73
X55.746 Y7.468
X55.64 Y7.223
X55.478 Y7.012
X55.077 Y6.661
X54.586 Y6.454
X54.066 Y6.34
X53.537 Y6.278
X53.005 Y6.246
X52.473 Y6.229
X51.94 Y6.22
X51.408 Y6.215
X50.875 Y6.213
X49.81 Y6.211
X39.689 Y6.21
X36.493
X8.528
X8.266 Y6.255
X8.022 Y6.361
X7.81 Y6.523
X7.46 Y6.924
X7.253 Y7.416
X7.139 Y7.936
X7.078 Y8.465
X7.045 Y8.997
X7.028 Y9.529
X7.02 Y10.062
X7.015 Y10.594
X7.013 Y11.127
X7.011 Y12.192
X7.01 Y22.313
Y27.64
Y53.474
X7.055 Y53.736
X7.162 Y53.98
X7.325 Y54.191
X7.727 Y54.541
X8.218 Y54.747
X8.738 Y54.861
X9.267 Y54.922
X9.799 Y54.955
X10.331 Y54.972
X10.864 Y54.98
X11.397 Y54.985
X11.929 Y54.987
X12.995 Y54.989
X23.115 Y54.99
X30.573
X53.477
X53.74 Y54.944
X53.983 Y54.836
X54.194 Y54.673
X54.543 Y54.271
X54.748 Y53.779
X54.861 Y53.258
X54.922 Y52.729
X54.955 Y52.198
X54.972 Y51.665
X54.98 Y51.133
X54.985 Y50.6
X54.987 Y50.067
X54.989 Y49.002
X54.99 Y38.881
Y28.228
Y8.519
X54.943 Y8.257
X54.835 Y8.014
X54.671 Y7.804
X54.267 Y7.456
X53.776 Y7.252
X53.255 Y7.138
X52.726 Y7.077
X52.194 Y7.045
X51.662 Y7.028
X51.129 Y7.02
X50.597 Y7.015
X50.064 Y7.013
X48.999 Y7.011
X38.878 Y7.01
X25.029
X9.315 Y7.011
X9.053 Y7.058
X8.81 Y7.168
X8.601 Y7.333
X8.254 Y7.737
X8.05 Y8.229
X7.938 Y8.75
X7.877 Y9.279
X7.845 Y9.811
X7.828 Y10.343
X7.82 Y10.876
X7.815 Y11.408
X7.813 Y11.941
X7.81 Y13.539
Y40.705
Y52.424
X7.811 Y52.69
X7.86 Y52.952
X7.97 Y53.194
X8.136 Y53.402
X8.541 Y53.748
X9.034 Y53.951
X9.555 Y54.063
X10.084 Y54.123
X10.616 Y54.155
X11.148 Y54.172
X11.681 Y54.181
X12.213 Y54.185
X12.746 Y54.187
X14.344 Y54.19
X45.239
X52.696
X52.957 Y54.139
X53.199 Y54.027
X53.407 Y53.861
X53.751 Y53.454
X53.952 Y52.961
X54.064 Y52.44
X54.124 Y51.911
X54.155 Y51.379
X54.172 Y50.846
X54.181 Y50.314
X54.185 Y49.781
X54.187 Y49.248
X54.19 Y47.65
Y11.962
Y9.299
X54.138 Y9.037
X54.025 Y8.796
X53.857 Y8.589
X53.449 Y8.247
X52.955 Y8.047
X52.434 Y7.936
X51.905 Y7.876
X51.373 Y7.845
X50.841 Y7.828
X50.308 Y7.819
X49.776 Y7.815
X49.243 Y7.813
X47.645 Y7.81
X10.358
X10.092 Y7.811
X9.831 Y7.865
X9.591 Y7.98
X9.385 Y8.148
X9.044 Y8.558
X8.845 Y9.052
X8.735 Y9.573
X8.676 Y10.102
X8.644 Y10.634
X8.628 Y11.167
X8.619 Y11.699
X8.615 Y12.232
X8.613 Y12.765
X8.61 Y14.362
Y51.649
X8.612 Y51.915
X8.667 Y52.176
X8.783 Y52.415
X8.954 Y52.62
X9.365 Y52.959
X9.859 Y53.157
X10.381 Y53.266
X10.91 Y53.325
X11.442 Y53.356
X11.974 Y53.372
X12.507 Y53.381
X13.04 Y53.385
X13.572 Y53.387
X15.17 Y53.39
X16.236
X51.924
X52.184 Y53.333
X52.423 Y53.214
X52.626 Y53.042
X52.962 Y52.629
X53.159 Y52.134
X53.267 Y51.612
X53.325 Y51.083
X53.356 Y50.551
X53.372 Y50.019
X53.381 Y49.486
X53.385 Y48.953
X53.388 Y48.421
X53.39 Y46.823
Y39.366
Y10.069
X53.331 Y9.809
X53.211 Y9.572
X53.038 Y9.369
X52.623 Y9.035
X52.127 Y8.84
X51.606 Y8.732
X51.076 Y8.674
X50.544 Y8.644
X50.012 Y8.627
X49.479 Y8.619
X48.947 Y8.615
X48.414 Y8.612
X46.816 Y8.61
X32.967
X11.127
X10.861 Y8.613
X10.602 Y8.673
X10.365 Y8.796
X10.163 Y8.97
X9.831 Y9.386
X9.638 Y9.882
X9.531 Y10.404
X9.474 Y10.934
X9.443 Y11.465
X9.427 Y11.998
X9.419 Y12.53
X9.415 Y13.063
X9.412 Y13.596
X9.41 Y15.194
Y35.968
Y50.882
X9.414 Y51.149
X9.477 Y51.408
X9.601 Y51.643
X9.777 Y51.843
X10.195 Y52.173
X10.692 Y52.365
X11.214 Y52.47
X11.744 Y52.527
X12.276 Y52.557
X12.808 Y52.573
X13.341 Y52.581
X13.873 Y52.585
X14.406 Y52.588
X16.004 Y52.59
X43.703
X51.16
X51.418 Y52.524
X51.652 Y52.397
X51.851 Y52.22
X52.177 Y51.799
X52.367 Y51.301
X52.472 Y50.779
X52.528 Y50.249
X52.557 Y49.717
X52.573 Y49.185
X52.581 Y48.652
X52.585 Y48.119
X52.588 Y47.587
X52.59 Y45.989
Y10.833
X52.522 Y10.575
X52.394 Y10.342
X52.215 Y10.145
X51.792 Y9.82
X51.294 Y9.631
X50.772 Y9.528
X50.242 Y9.472
X49.71 Y9.442
X49.178 Y9.427
X48.645 Y9.419
X48.113 Y9.415
X47.58 Y9.412
X45.982 Y9.41
X11.891
X11.625 Y9.418
X11.368 Y9.486
X11.135 Y9.617
X10.939 Y9.796
X10.616 Y10.22
X10.429 Y10.719
X10.326 Y11.242
X10.271 Y11.771
X10.242 Y12.303
X10.227 Y12.836
X10.219 Y13.368
X10.215 Y13.901
X10.212 Y14.434
X10.21 Y16.032
Y17.63
Y50.122
X10.221 Y50.388
X10.292 Y50.645
X10.425 Y50.876
X10.607 Y51.07
X11.034 Y51.389
X11.533 Y51.574
X12.056 Y51.675
X12.586 Y51.73
X13.118 Y51.759
X13.65 Y51.774
X14.183 Y51.781
X14.716 Y51.786
X15.248 Y51.788
X16.846 Y51.79
X26.967
X50.404
X50.659 Y51.713
X50.888 Y51.576
X51.08 Y51.392
X51.395 Y50.962
X51.577 Y50.462
X51.677 Y49.939
X51.731 Y49.409
X51.759 Y48.877
X51.774 Y48.344
X51.782 Y47.812
X51.786 Y47.279
X51.788 Y46.746
X51.79 Y45.148
Y25.44
Y11.59
X51.712 Y11.336
X51.574 Y11.108
X51.389 Y10.917
X50.958 Y10.603
X50.457 Y10.422
X49.934 Y10.323
X49.404 Y10.269
X48.872 Y10.241
X48.339 Y10.226
X47.807 Y10.218
X47.274 Y10.214
X46.741 Y10.212
X45.143 Y10.21
X15.847
X12.651
X12.385 Y10.226
X12.13 Y10.304
X11.903 Y10.442
X11.712 Y10.628
X11.4 Y11.06
X11.22 Y11.561
X11.121 Y12.085
X11.069 Y12.615
X11.041 Y13.147
X11.026 Y13.679
X11.018 Y14.212
X11.014 Y14.744
X11.011 Y15.81
X11.01 Y19.006
Y49.368
X11.031 Y49.633
X11.113 Y49.887
X11.255 Y50.112
X11.632 Y50.488
X12.113 Y50.716
X12.63 Y50.844
X13.159 Y50.913
X13.69 Y50.95
X14.222 Y50.969
X14.755 Y50.979
X15.288 Y50.984
X15.82 Y50.987
X16.886 Y50.989
X17.418 Y50.99
X49.378
X49.644 Y50.969
X49.896 Y50.884
X50.12 Y50.74
X50.494 Y50.361
X50.719 Y49.878
X50.846 Y49.361
X50.914 Y48.832
X50.95 Y48.301
X50.969 Y47.769
X50.979 Y47.236
X50.984 Y46.703
X50.987 Y46.171
X50.989 Y45.105
X50.99 Y38.713
Y33.387
Y12.613
X50.966 Y12.348
X50.88 Y12.096
X50.734 Y11.873
X50.352 Y11.501
X49.868 Y11.278
X49.351 Y11.153
X48.822 Y11.085
X48.291 Y11.049
X47.759 Y11.031
X47.226 Y11.021
X46.693 Y11.016
X46.161 Y11.013
X45.095 Y11.011
X38.171 Y11.01
X22.191
X13.402
X13.137 Y11.039
X12.886 Y11.129
X12.665 Y11.278
X12.297 Y11.662
X12.075 Y12.147
X11.951 Y12.665
X11.885 Y13.193
X11.849 Y13.725
X11.83 Y14.257
X11.821 Y14.79
X11.816 Y15.322
X11.813 Y15.855
X11.811 Y16.92
X11.81 Y23.845
Y48.614
X11.841 Y48.879
X11.933 Y49.129
X12.084 Y49.347
X12.471 Y49.713
X12.958 Y49.931
X13.476 Y50.052
X14.005 Y50.117
X14.537 Y50.152
X15.069 Y50.17
X15.602 Y50.18
X16.134 Y50.185
X16.667 Y50.187
X17.732 Y50.189
X25.19 Y50.19
X48.627
X48.891 Y50.157
X49.14 Y50.062
X49.357 Y49.908
X49.72 Y49.518
X49.934 Y49.03
X50.054 Y48.511
X50.118 Y47.982
X50.152 Y47.451
X50.17 Y46.918
X50.18 Y46.386
X50.185 Y45.853
X50.187 Y45.32
X50.189 Y44.255
X50.19 Y36.265
Y35.2
Y13.36
X50.154 Y13.097
X50.056 Y12.849
X49.899 Y12.633
X49.506 Y12.275
X49.017 Y12.062
X48.498 Y11.944
X47.969 Y11.881
X47.437 Y11.847
X46.905 Y11.829
X46.372 Y11.82
X45.84 Y11.815
X45.307 Y11.813
X44.242 Y11.811
X36.252 Y11.81
X22.402
X14.412
X14.146 Y11.811
X13.883 Y11.851
X13.637 Y11.953
X13.423 Y12.112
X13.069 Y12.51
X12.859 Y12.999
X12.743 Y13.519
X12.68 Y14.048
X12.647 Y14.58
X12.629 Y15.112
X12.62 Y15.645
X12.615 Y16.177
X12.613 Y16.71
X12.611 Y17.775
X12.61 Y26.298
Y47.605
X12.611 Y47.871
X12.654 Y48.134
X12.759 Y48.378
X12.922 Y48.59
X13.323 Y48.94
X13.814 Y49.146
X14.334 Y49.26
X14.864 Y49.322
X15.395 Y49.354
X15.928 Y49.371
X16.46 Y49.38
X16.993 Y49.385
X17.525 Y49.387
X18.591 Y49.389
X27.646 Y49.39
X47.887
X48.15 Y49.343
X48.392 Y49.234
X48.601 Y49.069
X48.947 Y48.663
X49.15 Y48.171
X49.262 Y47.65
X49.323 Y47.121
X49.355 Y46.589
X49.372 Y46.057
X49.38 Y45.524
X49.385 Y44.992
X49.387 Y44.459
X49.389 Y43.394
X49.39 Y33.806
Y30.61
Y14.097
X49.339 Y13.836
X49.226 Y13.594
X49.058 Y13.388
X48.65 Y13.046
X48.156 Y12.846
X47.635 Y12.736
X47.105 Y12.676
X46.574 Y12.645
X46.041 Y12.628
X45.509 Y12.619
X44.976 Y12.615
X44.443 Y12.613
X42.845 Y12.61
X16.212
X15.147
X14.881 Y12.612
X14.62 Y12.667
X14.381 Y12.784
X14.176 Y12.955
X13.839 Y13.368
X13.642 Y13.863
X13.533 Y14.384
X13.475 Y14.913
X13.444 Y15.445
X13.428 Y15.978
X13.419 Y16.51
X13.415 Y17.043
X13.413 Y17.575
X13.41 Y19.173
Y46.872
X13.413 Y47.138
X13.472 Y47.398
X13.593 Y47.635
X13.767 Y47.837
X14.183 Y48.169
X14.68 Y48.362
X15.202 Y48.469
X15.731 Y48.526
X16.263 Y48.557
X16.795 Y48.573
X17.328 Y48.581
X17.861 Y48.585
X18.393 Y48.588
X19.991 Y48.59
X26.383
X47.157
X47.416 Y48.526
X47.651 Y48.401
X47.85 Y48.224
X48.176 Y47.803
X48.367 Y47.305
X48.471 Y46.783
X48.528 Y46.254
X48.557 Y45.722
X48.573 Y45.189
X48.581 Y44.657
X48.585 Y44.124
X48.588 Y43.591
X48.59 Y41.993
Y19.621
Y14.827
X48.522 Y14.57
X48.393 Y14.337
X48.214 Y14.14
X47.79 Y13.817
X47.291 Y13.63
X46.769 Y13.527
X46.239 Y13.471
X45.707 Y13.442
X45.175 Y13.427
X44.642 Y13.419
X44.109 Y13.415
X43.577 Y13.412
X41.979 Y13.41
X15.878
X15.612 Y13.42
X15.355 Y13.49
X15.124 Y13.623
X14.929 Y13.804
X14.611 Y14.231
X14.426 Y14.731
X14.325 Y15.254
X14.27 Y15.784
X14.242 Y16.316
X14.226 Y16.848
X14.219 Y17.381
X14.214 Y17.913
X14.212 Y18.446
X14.21 Y20.044
Y24.838
Y46.145
X14.224 Y46.411
X14.299 Y46.666
X14.437 Y46.894
X14.622 Y47.086
X15.053 Y47.399
X15.554 Y47.579
X16.077 Y47.678
X16.607 Y47.731
X17.139 Y47.759
X17.672 Y47.774
X18.204 Y47.782
X18.737 Y47.786
X19.802 Y47.789
X22.998 Y47.79
X42.174
X46.436
X46.688 Y47.706
X46.913 Y47.562
X47.289 Y47.185
X47.516 Y46.703
X47.644 Y46.186
X47.713 Y45.658
X47.75 Y45.127
X47.769 Y44.594
X47.779 Y44.062
X47.784 Y43.529
X47.787 Y42.996
X47.789 Y41.931
X47.79 Y35.539
Y15.83
X47.771 Y15.565
X47.689 Y15.311
X47.546 Y15.086
X47.17 Y14.71
X46.688 Y14.482
X46.171 Y14.355
X45.642 Y14.286
X45.111 Y14.25
X44.579 Y14.231
X44.046 Y14.221
X43.513 Y14.216
X42.981 Y14.213
X41.915 Y14.211
X35.523 Y14.21
X34.991
X16.348
X16.097 Y14.3
X15.875 Y14.447
X15.504 Y14.83
X15.28 Y15.313
X15.154 Y15.83
X15.086 Y16.359
X15.05 Y16.89
X15.031 Y17.423
X15.021 Y17.955
X15.016 Y18.488
X15.013 Y19.02
X15.011 Y20.086
X15.01 Y26.478
Y45.121
Y45.654
X15.1 Y45.904
X15.248 Y46.126
X15.631 Y46.496
X16.114 Y46.72
X16.632 Y46.845
X17.16 Y46.914
X17.692 Y46.95
X18.224 Y46.969
X18.757 Y46.979
X19.289 Y46.984
X19.822 Y46.987
X20.887 Y46.989
X27.279 Y46.99
X45.39
X45.655 Y46.968
X45.908 Y46.884
X46.13 Y46.737
X46.503 Y46.357
X46.725 Y45.872
X46.849 Y45.354
X46.916 Y44.826
X46.951 Y44.294
X46.97 Y43.762
X46.979 Y43.23
X46.984 Y42.697
X46.987 Y42.164
X46.989 Y41.099
X46.99 Y34.174
Y28.848
Y16.596
X46.962 Y16.331
X46.873 Y16.08
X46.724 Y15.86
X46.34 Y15.491
X45.854 Y15.272
X45.336 Y15.149
X44.807 Y15.083
X44.276 Y15.048
X43.743 Y15.03
X43.211 Y15.02
X42.678 Y15.015
X42.145 Y15.013
X41.08 Y15.011
X33.623 Y15.01
X17.376
X17.112 Y15.039
X16.862 Y15.132
X16.644 Y15.286
X16.281 Y15.675
X16.066 Y16.163
X15.946 Y16.682
X15.882 Y17.211
X15.848 Y17.742
X15.83 Y18.274
X15.82 Y18.807
X15.815 Y19.34
X15.813 Y19.872
X15.811 Y20.938
X15.81 Y22.003
Y44.641
X15.843 Y44.906
X15.941 Y45.153
X16.097 Y45.369
X16.492 Y45.727
X16.981 Y45.938
X17.5 Y46.056
X18.029 Y46.119
X18.561 Y46.153
X19.093 Y46.171
X19.626 Y46.18
X20.158 Y46.185
X20.691 Y46.187
X21.756 Y46.189
X29.746 Y46.19
X42.53
X44.661
X44.924 Y46.151
X45.171 Y46.049
X45.383 Y45.889
X45.736 Y45.49
X45.944 Y45.
X46.059 Y44.48
X46.121 Y43.951
X46.154 Y43.419
X46.171 Y42.887
X46.18 Y42.354
X46.185 Y41.821
X46.187 Y41.289
X46.189 Y40.223
X46.19 Y31.168
Y17.319
X46.145 Y17.056
X46.038 Y16.812
X45.874 Y16.602
X45.47 Y16.255
X44.978 Y16.051
X44.458 Y15.938
X43.929 Y15.877
X43.397 Y15.845
X42.864 Y15.828
X42.332 Y15.82
X41.799 Y15.815
X41.267 Y15.813
X40.201 Y15.811
X30.613 Y15.81
X28.483
X18.362
X18.096 Y15.811
X17.834 Y15.861
X17.592 Y15.973
X17.386 Y16.141
X17.045 Y16.55
X16.845 Y17.044
X16.735 Y17.565
X16.676 Y18.095
X16.644 Y18.626
X16.628 Y19.159
X16.619 Y19.691
X16.615 Y20.224
X16.613 Y20.757
X16.61 Y22.355
Y43.661
X16.612 Y43.928
X16.667 Y44.188
X16.785 Y44.427
X16.957 Y44.631
X17.371 Y44.965
X17.867 Y45.16
X18.388 Y45.268
X18.918 Y45.326
X19.45 Y45.356
X19.982 Y45.372
X20.515 Y45.381
X21.047 Y45.385
X21.58 Y45.388
X23.178 Y45.39
X26.907
X43.952
X44.211 Y45.329
X44.447 Y45.205
X44.647 Y45.03
X44.975 Y44.61
X45.166 Y44.113
X45.271 Y43.59
X45.328 Y43.061
X45.357 Y42.529
X45.373 Y41.996
X45.381 Y41.464
X45.385 Y40.931
X45.388 Y40.398
X45.39 Y38.8
Y18.027
X45.323 Y17.769
X45.194 Y17.536
X45.015 Y17.339
X44.591 Y17.017
X44.092 Y16.829
X43.57 Y16.726
X43.04 Y16.671
X42.508 Y16.642
X41.975 Y16.627
X41.443 Y16.619
X40.91 Y16.615
X40.378 Y16.612
X38.78 Y16.61
X19.071
X18.805 Y16.621
X18.548 Y16.691
X18.318 Y16.825
X18.124 Y17.007
X17.807 Y17.436
X17.624 Y17.936
X17.523 Y18.459
X17.47 Y18.989
X17.441 Y19.521
X17.426 Y20.053
X17.418 Y20.586
X17.414 Y21.119
X17.412 Y21.651
X17.41 Y23.249
Y42.958
X17.427 Y43.224
X17.505 Y43.478
X17.646 Y43.705
X17.832 Y43.895
X18.266 Y44.204
X18.768 Y44.382
X19.291 Y44.48
X19.821 Y44.532
X20.353 Y44.56
X20.886 Y44.574
X21.418 Y44.582
X21.951 Y44.586
X23.016 Y44.589
X26.212 Y44.59
X43.258
X43.508 Y44.5
X43.729 Y44.352
X44.1 Y43.969
X44.323 Y43.485
X44.448 Y42.967
X44.515 Y42.439
X44.551 Y41.908
X44.57 Y41.375
X44.579 Y40.843
X44.584 Y40.31
X44.587 Y39.777
X44.589 Y38.712
X44.59 Y31.787
Y20.601
Y19.003
X44.564 Y18.738
X44.475 Y18.487
X44.327 Y18.266
X43.944 Y17.896
X43.46 Y17.674
X42.942 Y17.55
X42.413 Y17.484
X41.882 Y17.449
X41.349 Y17.43
X40.817 Y17.42
X40.284 Y17.415
X39.752 Y17.413
X38.686 Y17.411
X31.229 Y17.41
X19.777
X19.512 Y17.444
X19.264 Y17.54
X19.046 Y17.694
X18.683 Y18.084
X18.467 Y18.57
X18.346 Y19.089
X18.282 Y19.618
X18.247 Y20.149
X18.23 Y20.682
X18.22 Y21.214
X18.215 Y21.747
X18.213 Y22.28
X18.211 Y23.345
X18.21 Y31.335
Y39.858
Y41.988
X18.211 Y42.255
X18.253 Y42.518
X18.358 Y42.763
X18.517 Y42.976
X18.914 Y43.331
X19.404 Y43.542
X19.923 Y43.658
X20.452 Y43.721
X20.984 Y43.754
X21.516 Y43.771
X22.049 Y43.78
X22.582 Y43.785
X23.114 Y43.787
X24.18 Y43.789
X33.235 Y43.79
X42.29
X42.553 Y43.747
X42.797 Y43.639
X43.006 Y43.474
X43.35 Y43.068
X43.552 Y42.575
X43.664 Y42.054
X43.724 Y41.525
X43.755 Y40.993
X43.772 Y40.461
X43.781 Y39.928
X43.785 Y39.396
X43.787 Y38.863
X43.79 Y37.265
Y21.285
Y19.687
X43.738 Y19.426
X43.624 Y19.185
X43.455 Y18.979
X43.044 Y18.641
X42.549 Y18.443
X42.028 Y18.334
X41.498 Y18.275
X40.967 Y18.244
X40.434 Y18.228
X39.902 Y18.219
X39.369 Y18.215
X38.836 Y18.212
X37.238 Y18.21
X20.726
X20.459 Y18.214
X20.2 Y18.272
X19.962 Y18.393
X19.761 Y18.567
X19.43 Y18.985
X19.237 Y19.481
X19.13 Y20.003
X19.073 Y20.533
X19.043 Y21.064
X19.027 Y21.597
X19.019 Y22.129
X19.015 Y22.662
X19.012 Y23.195
X19.01 Y24.793
Y41.305
X19.019 Y41.572
X19.085 Y41.83
X19.213 Y42.063
X19.392 Y42.26
X19.816 Y42.583
X20.315 Y42.77
X20.837 Y42.874
X21.367 Y42.929
X21.899 Y42.958
X22.431 Y42.973
X22.964 Y42.981
X23.497 Y42.986
X24.029 Y42.988
X25.627 Y42.99
X41.607
X41.863 Y42.916
X42.091 Y42.779
X42.284 Y42.595
X42.598 Y42.164
X42.779 Y41.664
X42.878 Y41.14
X42.931 Y40.61
X42.959 Y40.078
X42.974 Y39.546
X42.982 Y39.013
X42.986 Y38.481
X42.989 Y37.415
X42.99 Y34.219
Y20.37
X42.908 Y20.117
X42.766 Y19.891
X42.391 Y19.513
X41.91 Y19.284
X41.393 Y19.156
X40.865 Y19.087
X40.333 Y19.05
X39.801 Y19.031
X39.268 Y19.021
X38.736 Y19.016
X38.203 Y19.013
X37.138 Y19.011
X30.746 Y19.01
X21.158
X20.906 Y19.096
X20.682 Y19.241
X20.308 Y19.62
X20.081 Y20.102
X19.955 Y20.62
X19.886 Y21.148
X19.85 Y21.679
X19.831 Y22.212
X19.821 Y22.744
X19.816 Y23.277
X19.813 Y23.809
X19.811 Y24.875
X19.81 Y31.799
Y40.855
X19.901 Y41.105
X20.048 Y41.327
X20.431 Y41.698
X20.914 Y41.921
X21.432 Y42.047
X21.96 Y42.114
X22.492 Y42.15
X23.024 Y42.169
X23.557 Y42.179
X24.089 Y42.184
X24.622 Y42.187
X25.687 Y42.189
X28.883 Y42.19
X40.602
X40.867 Y42.164
X41.118 Y42.074
X41.339 Y41.925
X41.707 Y41.54
X41.928 Y41.055
X42.051 Y40.537
X42.117 Y40.009
X42.152 Y39.477
X42.17 Y38.945
X42.18 Y38.412
X42.185 Y37.88
X42.187 Y37.347
X42.189 Y36.282
X42.19 Y28.292
Y21.367
X42.159 Y21.102
X42.065 Y20.853
X41.911 Y20.636
X41.519 Y20.276
X41.03 Y20.063
X40.511 Y19.944
X39.982 Y19.881
X39.451 Y19.847
X38.918 Y19.829
X38.386 Y19.82
X37.853 Y19.815
X37.32 Y19.813
X36.255 Y19.811
X27.732 Y19.81
X26.134
X22.139
X21.876 Y19.847
X21.629 Y19.948
X21.416 Y20.108
X21.063 Y20.507
X20.856 Y20.997
X20.74 Y21.517
X20.679 Y22.046
X20.646 Y22.578
X20.629 Y23.11
X20.62 Y23.643
X20.615 Y24.176
X20.613 Y24.708
X20.611 Y25.774
X20.61 Y34.829
Y39.889
X20.653 Y40.152
X20.761 Y40.396
X20.926 Y40.605
X21.332 Y40.949
X21.825 Y41.151
X22.346 Y41.263
X22.875 Y41.323
X23.407 Y41.355
X23.939 Y41.372
X24.472 Y41.381
X25.005 Y41.385
X25.537 Y41.387
X27.135 Y41.39
X39.919
X40.18 Y41.337
X40.42 Y41.222
X40.625 Y41.051
X40.962 Y40.639
X41.159 Y40.144
X41.267 Y39.622
X41.325 Y39.093
X41.356 Y38.561
X41.372 Y38.028
X41.381 Y37.496
X41.385 Y36.963
X41.388 Y36.431
X41.39 Y34.833
Y22.049
X41.331 Y21.789
X41.208 Y21.553
X41.032 Y21.352
X40.613 Y21.024
X40.115 Y20.834
X39.593 Y20.728
X39.063 Y20.672
X38.532 Y20.642
X37.999 Y20.627
X37.467 Y20.619
X36.934 Y20.615
X36.401 Y20.612
X34.803 Y20.61
X23.085
X22.818 Y20.617
X22.56 Y20.683
X22.328 Y20.814
X22.132 Y20.994
X21.812 Y21.419
X21.626 Y21.919
X21.525 Y22.442
X21.47 Y22.971
X21.441 Y23.503
X21.426 Y24.036
X21.419 Y24.568
X21.414 Y25.101
X21.412 Y25.634
X21.41 Y27.232
Y36.82
Y38.95
X21.424 Y39.216
X21.5 Y39.472
X21.638 Y39.699
X21.823 Y39.891
X22.256 Y40.202
X22.757 Y40.381
X23.281 Y40.48
X23.811 Y40.532
X24.343 Y40.56
X24.875 Y40.574
X25.408 Y40.582
X25.94 Y40.586
X27.006 Y40.589
X30.202 Y40.59
X39.257
X39.508 Y40.5
X39.729 Y40.352
X40.101 Y39.97
X40.324 Y39.486
X40.448 Y38.968
X40.515 Y38.44
X40.551 Y37.909
X40.57 Y37.376
X40.579 Y36.844
X40.584 Y36.311
X40.587 Y35.778
X40.589 Y34.713
X40.59 Y27.788
Y22.994
X40.562 Y22.729
X40.472 Y22.479
X40.322 Y22.259
X39.938 Y21.89
X39.452 Y21.67
X38.934 Y21.548
X38.405 Y21.483
X37.874 Y21.448
X37.341 Y21.43
X36.809 Y21.42
X36.276 Y21.415
X35.743 Y21.413
X34.678 Y21.411
X29.884 Y21.41
X23.758
X23.495 Y21.448
X23.248 Y21.548
X23.033 Y21.705
X22.673 Y22.098
X22.461 Y22.587
X22.343 Y23.106
X22.28 Y23.635
X22.247 Y24.167
X22.229 Y24.699
X22.22 Y25.232
X22.215 Y25.764
X22.213 Y26.297
X22.211 Y27.362
X22.21 Y36.418
Y38.016
X22.211 Y38.282
X22.26 Y38.544
X22.37 Y38.786
X22.535 Y38.996
X22.937 Y39.344
X23.429 Y39.549
X23.95 Y39.662
X24.479 Y39.723
X25.01 Y39.755
X25.543 Y39.772
X26.075 Y39.781
X26.608 Y39.785
X27.141 Y39.787
X28.739 Y39.79
X38.327
X38.588 Y39.74
X38.828 Y39.623
X39.032 Y39.452
X39.366 Y39.037
X39.561 Y38.542
X39.669 Y38.02
X39.726 Y37.49
X39.757 Y36.959
X39.773 Y36.426
X39.781 Y35.894
X39.785 Y35.361
X39.788 Y34.828
X39.79 Y33.23
Y30.567
Y23.642
X39.729 Y23.383
X39.604 Y23.148
X39.428 Y22.948
X39.007 Y22.622
X38.509 Y22.432
X37.987 Y22.328
X37.457 Y22.272
X36.925 Y22.242
X36.393 Y22.227
X35.86 Y22.219
X35.328 Y22.215
X34.795 Y22.212
X33.197 Y22.21
X24.674
X24.408 Y22.222
X24.151 Y22.291
X23.92 Y22.425
X23.725 Y22.606
X23.408 Y23.034
X23.224 Y23.534
X23.123 Y24.057
X23.069 Y24.587
X23.041 Y25.118
X23.026 Y25.651
X23.018 Y26.184
X23.014 Y26.716
X23.012 Y27.249
X23.01 Y28.847
Y37.369
X23.033 Y37.635
X23.114 Y37.888
X23.257 Y38.113
X23.444 Y38.302
X23.88 Y38.609
X24.383 Y38.785
X24.907 Y38.882
X25.437 Y38.933
X25.969 Y38.96
X26.501 Y38.975
X27.034 Y38.982
X27.566 Y38.986
X28.632 Y38.989
X31.828 Y38.99
X33.958
X37.421
X37.685 Y38.959
X37.935 Y38.865
X38.153 Y38.713
X38.519 Y38.326
X38.734 Y37.839
X38.854 Y37.32
X38.919 Y36.791
X38.953 Y36.259
X38.971 Y35.727
X38.98 Y35.194
X38.985 Y34.662
X38.987 Y34.129
X38.989 Y33.064
X38.99 Y24.541
X38.949 Y24.278
X38.845 Y24.033
X38.685 Y23.82
X38.288 Y23.465
X37.798 Y23.256
X37.278 Y23.141
X36.749 Y23.079
X36.217 Y23.046
X35.685 Y23.029
X35.152 Y23.02
X34.619 Y23.015
X34.087 Y23.013
X33.021 Y23.011
X25.564 Y23.01
X25.298 Y23.011
X25.037 Y23.065
X24.797 Y23.18
X24.59 Y23.348
X24.247 Y23.755
X24.046 Y24.248
X23.935 Y24.769
X23.876 Y25.299
X23.844 Y25.831
X23.828 Y26.363
X23.819 Y26.896
X23.815 Y27.428
X23.813 Y27.961
X23.81 Y29.559
Y36.484
X23.815 Y36.75
X23.881 Y37.008
X24.008 Y37.242
X24.183 Y37.442
X24.601 Y37.773
X25.098 Y37.965
X25.62 Y38.071
X26.149 Y38.127
X26.681 Y38.157
X27.214 Y38.173
X27.746 Y38.181
X28.279 Y38.185
X28.812 Y38.188
X30.41 Y38.19
X36.802
X37.058 Y38.117
X37.287 Y37.981
X37.481 Y37.799
X37.796 Y37.369
X37.978 Y36.869
X38.078 Y36.345
X38.131 Y35.815
X38.159 Y35.284
X38.174 Y34.751
X38.182 Y34.218
X38.186 Y33.686
X38.189 Y32.621
X38.19 Y29.425
Y25.163
X38.106 Y24.911
X37.962 Y24.686
X37.774 Y24.497
X37.338 Y24.191
X36.836 Y24.015
X36.312 Y23.918
X35.782 Y23.867
X35.25 Y23.84
X34.717 Y23.825
X34.185 Y23.818
X33.652 Y23.814
X32.587 Y23.811
X29.391 Y23.81
X26.195
X25.93 Y23.841
X25.68 Y23.932
X25.46 Y24.082
X25.09 Y24.466
X24.871 Y24.951
X24.749 Y25.47
X24.683 Y25.998
X24.648 Y26.53
X24.63 Y27.062
X24.62 Y27.595
X24.615 Y28.128
X24.613 Y28.66
X24.611 Y29.725
X24.61 Y35.585
Y35.851
X24.653 Y36.114
X24.757 Y36.359
X24.916 Y36.573
X25.311 Y36.93
X25.8 Y37.141
X26.32 Y37.258
X26.849 Y37.32
X27.38 Y37.354
X27.913 Y37.371
X28.445 Y37.38
X28.978 Y37.385
X29.511 Y37.387
X30.576 Y37.389
X35.903 Y37.39
X36.164 Y37.338
X36.404 Y37.223
X36.611 Y37.056
X36.954 Y36.648
X37.155 Y36.155
X37.265 Y35.634
X37.325 Y35.105
X37.356 Y34.573
X37.372 Y34.04
X37.381 Y33.508
X37.385 Y32.975
X37.388 Y32.442
X37.39 Y30.844
Y26.05
X37.326 Y25.792
X37.2 Y25.557
X37.025 Y25.357
X36.607 Y25.026
X36.11 Y24.834
X35.588 Y24.729
X35.058 Y24.672
X34.526 Y24.643
X33.994 Y24.627
X33.461 Y24.619
X32.929 Y24.615
X32.396 Y24.612
X30.798 Y24.61
X27.069
X26.803 Y24.623
X26.547 Y24.694
X26.317 Y24.828
X26.122 Y25.01
X25.805 Y25.438
X25.623 Y25.939
X25.522 Y26.462
X25.469 Y26.992
X25.441 Y27.524
X25.426 Y28.056
X25.418 Y28.589
X25.414 Y29.122
X25.411 Y30.187
X25.41 Y33.383
Y34.981
X25.436 Y35.246
X25.52 Y35.498
X25.666 Y35.722
X25.854 Y35.91
X26.292 Y36.214
X26.795 Y36.388
X27.319 Y36.483
X27.849 Y36.534
X28.381 Y36.561
X28.914 Y36.575
X29.446 Y36.582
X29.979 Y36.586
X31.044 Y36.589
X34.773 Y36.59
X35.039
X35.303 Y36.552
X35.55 Y36.453
X35.766 Y36.297
X36.126 Y35.904
X36.338 Y35.416
X36.456 Y34.896
X36.52 Y34.367
X36.553 Y33.836
X36.571 Y33.303
X36.58 Y32.771
X36.585 Y32.238
X36.587 Y31.705
X36.589 Y30.64
X36.59 Y26.911
X36.54 Y26.65
X36.428 Y26.408
X36.263 Y26.199
X35.859 Y25.853
X35.366 Y25.649
X34.845 Y25.537
X34.316 Y25.477
X33.784 Y25.445
X33.252 Y25.428
X32.72 Y25.419
X32.187 Y25.415
X31.654 Y25.413
X30.056 Y25.41
X27.926
X27.659 Y25.413
X27.4 Y25.475
X27.164 Y25.599
X26.963 Y25.773
X26.63 Y26.189
X26.437 Y26.686
X26.33 Y27.207
X26.273 Y27.737
X26.243 Y28.269
X26.227 Y28.801
X26.219 Y29.334
X26.215 Y29.867
X26.212 Y30.399
X26.21 Y31.997
Y34.128
X26.222 Y34.394
X26.299 Y34.649
X26.434 Y34.878
X26.617 Y35.072
X27.044 Y35.391
X27.543 Y35.575
X28.066 Y35.676
X28.596 Y35.73
X29.128 Y35.759
X29.661 Y35.774
X30.193 Y35.782
X30.726 Y35.786
X31.259 Y35.788
X32.857 Y35.79
X34.455
X34.705 Y35.7
X34.927 Y35.553
X35.3 Y35.173
X35.523 Y34.689
X35.648 Y34.171
X35.715 Y33.642
X35.751 Y33.111
X35.769 Y32.579
X35.779 Y32.046
X35.784 Y31.513
X35.787 Y30.981
X35.789 Y29.915
X35.79 Y27.785
X35.757 Y27.521
X35.664 Y27.271
X35.512 Y27.052
X35.125 Y26.686
X34.639 Y26.468
X34.12 Y26.347
X33.592 Y26.282
X33.06 Y26.248
X32.528 Y26.23
X31.995 Y26.22
X31.462 Y26.215
X30.93 Y26.213
X29.864 Y26.211
X28.533 Y26.21
X28.27 Y26.256
X28.026 Y26.363
X27.815 Y26.525
X27.462 Y26.924
X27.255 Y27.415
X27.14 Y27.935
X27.078 Y28.464
X27.046 Y28.996
X27.029 Y29.528
X27.02 Y30.061
X27.015 Y30.593
X27.013 Y31.126
X27.011 Y32.191
X27.01 Y33.256
X27.012 Y33.523
X27.073 Y33.782
X27.194 Y34.02
X27.365 Y34.223
X27.777 Y34.561
X28.272 Y34.758
X28.793 Y34.867
X29.323 Y34.925
X29.855 Y34.956
X30.387 Y34.972
X30.92 Y34.981
X31.452 Y34.985
X31.985 Y34.988
X33.583 Y34.99
X33.841 Y34.924
X34.073 Y34.793
X34.27 Y34.614
X34.59 Y34.188
X34.775 Y33.688
X34.876 Y33.166
X34.93 Y32.636
X34.959 Y32.104
X34.974 Y31.571
X34.982 Y31.039
X34.986 Y30.506
X34.988 Y29.973
X34.99 Y28.375
X34.909 Y28.122
X34.768 Y27.896
X34.582 Y27.705
X34.148 Y27.396
X33.646 Y27.218
X33.122 Y27.12
X32.592 Y27.068
X32.06 Y27.04
X31.528 Y27.026
X30.995 Y27.018
X30.463 Y27.014
X29.397 Y27.011
X29.133 Y27.041
X28.882 Y27.131
X28.662 Y27.281
X28.292 Y27.664
X28.072 Y28.149
X27.949 Y28.668
X27.883 Y29.196
X27.848 Y29.728
X27.83 Y30.26
X27.82 Y30.793
X27.815 Y31.325
X27.813 Y31.858
X27.811 Y32.657
X27.855 Y32.92
X27.96 Y33.165
X28.12 Y33.377
X28.517 Y33.733
X29.007 Y33.942
X29.526 Y34.058
X30.055 Y34.121
X30.587 Y34.154
X31.119 Y34.171
X31.652 Y34.18
X32.185 Y34.185
X32.717 Y34.187
X32.974 Y34.114
X33.205 Y33.983
X33.401 Y33.802
X33.721 Y33.377
X33.904 Y32.876
X34.004 Y32.353
X34.058 Y31.823
X34.086 Y31.291
X34.101 Y30.759
X34.109 Y30.226
X34.113 Y29.694
X34.115 Y29.427
X34.092 Y29.162
X34.001 Y28.912
X33.848 Y28.694
X33.454 Y28.335
X32.964 Y28.126
X32.444 Y28.012
X31.915 Y27.95
X31.383 Y27.918
X30.851 Y27.901
X30.318 Y27.892
X30.052 Y27.896
X29.793 Y27.96
X29.563 Y28.094
X29.37 Y28.277
X29.06 Y28.71
X28.884 Y29.213
X28.789 Y29.737
X28.738 Y30.268
X28.711 Y30.8
X28.697 Y31.332
X28.69 Y31.865
X28.738 Y32.127
X28.851 Y32.368
X29.022 Y32.572
X29.437 Y32.905
X29.935 Y33.096
X30.457 Y33.2
X30.987 Y33.256
X31.519 Y33.285
X31.785 Y33.293
X32.048 Y33.251
X32.29 Y33.14
X32.496 Y32.971
X32.832 Y32.558
X33.024 Y32.061
X33.128 Y31.539
X33.184 Y31.009
X33.213 Y30.477
X33.221 Y30.211
X33.187 Y29.947
X33.08 Y29.703
X32.912 Y29.496
X32.497 Y29.162
X31.999 Y28.972
X31.477 Y28.869
X30.947 Y28.815
X30.685 Y28.863
X30.449 Y28.986
X30.252 Y29.166
X29.935 Y29.594
X29.757 Y30.096
X29.661 Y30.62
X29.635 Y30.885
X29.633 Y31.151
X29.709 Y31.406
X29.856 Y31.628
X30.05 Y31.811
X30.496 Y32.103
X30.75 Y32.183
X30.879 Y32.214
X31.012 Y32.222
X31.144 Y32.207
X31.399 Y32.129
X31.615 Y31.973
X31.962 Y31.569
X32.059 Y31.321
X32.135 Y31.065
X32.138 Y30.932
X32.114 Y30.801
X32.019 Y30.553
X31.853 Y30.344
X31.744 Y30.268
X31.617 Y30.226
X31.484 Y30.221
X31.355 Y30.254
X31.241 Y30.322
G3 X31.013 Y29.996 I-0.096 J-0.175
G1 X31.044 Y29.974 Z14.004
X31.081 Y29.964 Z14.015
X31.115 Y29.955 Z14.035
X31.145 Y29.947 Z14.06
X31.175 Y29.951 Z14.102
X31.194 Y29.954 Z14.149
X31.201 Y29.955 Z14.2
G0 Z22.
X-0.263 Y-2.797
Z11.4
G1 Z11.2 F1500.
X-0.262 Y-2.791 Z11.148
X-0.257 Y-2.771 Z11.1
X-0.249 Y-2.741 Z11.059
X-0.238 Y-2.7 Z11.027
X-0.226 Y-2.654 Z11.007
X-0.214 Y-2.604 Z11.
G3 X0.01 Y-1.049 I-7.063 J1.809
G1 Y-0.899
X-0.097 Y-0.377
X-0.147 Y0.153
X-0.17 Y0.686
X-0.181 Y1.218
X-0.186 Y1.751
X-0.188 Y2.283
X-0.19 Y3.881
Y49.158
Y61.143
X-0.152 Y61.271
X-0.009 Y61.495
X0.191 Y61.671
X0.652 Y61.938
X1.167 Y62.072
X1.696 Y62.135
X2.228 Y62.165
X2.761 Y62.178
X3.293 Y62.185
X3.826 Y62.188
X4.891 Y62.189
X37.916 Y62.19
X61.087
X61.217 Y62.158
X61.452 Y62.034
X61.637 Y61.842
X61.921 Y61.391
X62.063 Y60.878
X62.131 Y60.35
X62.163 Y59.818
X62.178 Y59.286
X62.184 Y58.753
X62.187 Y58.22
X62.189 Y57.155
X62.19 Y35.316
Y0.959
X62.174 Y0.827
X62.121 Y0.704
X61.971 Y0.485
X61.766 Y0.314
X61.301 Y0.054
X60.785 Y-0.075
X60.255 Y-0.137
X59.724 Y-0.166
X59.191 Y-0.179
X58.658 Y-0.185
X58.126 Y-0.188
X57.06 Y-0.19
X46.94
X1.796
X1.665 Y-0.17
X1.42 Y-0.065
X1.223 Y0.114
X0.916 Y0.55
X0.758 Y1.058
X0.68 Y1.585
X0.643 Y2.117
X0.625 Y2.649
X0.617 Y3.182
X0.613 Y3.714
X0.612 Y4.247
X0.61 Y6.378
Y54.318
Y60.177
X0.701 Y60.427
X0.859 Y60.642
X1.261 Y60.99
X1.757 Y61.186
X2.28 Y61.288
X2.81 Y61.34
X3.342 Y61.366
X3.874 Y61.378
X4.407 Y61.384
X4.94 Y61.387
X6.005 Y61.389
X20.387 Y61.39
X44.357
X60.07
X60.331 Y61.336
X60.562 Y61.203
X60.752 Y61.016
X61.055 Y60.578
X61.22 Y60.072
X61.306 Y59.546
X61.349 Y59.015
X61.37 Y58.483
X61.38 Y57.95
X61.385 Y57.418
X61.388 Y56.885
X61.389 Y55.82
X61.39 Y27.588
Y2.021
X61.358 Y1.756
X61.246 Y1.514
X61.075 Y1.311
X60.656 Y0.981
X60.156 Y0.798
X59.632 Y0.704
X59.101 Y0.656
X58.569 Y0.632
X58.036 Y0.621
X57.504 Y0.615
X56.971 Y0.612
X55.906 Y0.611
X37.263 Y0.61
X2.639
X2.388 Y0.7
X2.173 Y0.856
X1.82 Y1.255
X1.621 Y1.749
X1.516 Y2.271
X1.463 Y2.801
X1.436 Y3.333
X1.423 Y3.866
X1.416 Y4.398
X1.413 Y4.931
X1.411 Y5.996
X1.41 Y15.052
Y15.584
Y59.263
X1.481 Y59.52
X1.621 Y59.746
X1.809 Y59.935
X2.247 Y60.238
X2.752 Y60.407
X3.277 Y60.497
X3.808 Y60.543
X4.34 Y60.567
X4.873 Y60.578
X5.405 Y60.584
X5.938 Y60.587
X7.003 Y60.589
X7.536 Y60.59
X57.606
X59.204
X59.464 Y60.531
X59.698 Y60.404
X59.894 Y60.224
X60.213 Y59.797
X60.393 Y59.296
X60.489 Y58.772
X60.539 Y58.241
X60.565 Y57.709
X60.577 Y57.177
X60.584 Y56.644
X60.587 Y56.112
X60.589 Y55.046
X60.59 Y48.122
Y12.433
Y2.845
X60.544 Y2.583
X60.429 Y2.342
X60.258 Y2.139
X59.841 Y1.806
X59.343 Y1.618
X58.82 Y1.516
X58.29 Y1.464
X57.758 Y1.437
X57.226 Y1.423
X56.693 Y1.417
X56.161 Y1.413
X55.095 Y1.411
X49.236 Y1.41
X20.472
X3.693
X3.428 Y1.441
X3.182 Y1.542
X2.972 Y1.705
X2.627 Y2.111
X2.429 Y2.606
X2.323 Y3.128
X2.267 Y3.657
X2.239 Y4.189
X2.224 Y4.722
X2.217 Y5.254
X2.214 Y5.787
X2.211 Y6.852
X2.21 Y11.646
Y34.018
Y58.255
X2.239 Y58.519
X2.335 Y58.768
X2.49 Y58.984
X2.884 Y59.342
X3.374 Y59.552
X3.894 Y59.666
X4.424 Y59.727
X4.955 Y59.758
X5.488 Y59.774
X6.02 Y59.782
X6.553 Y59.786
X7.086 Y59.788
X8.684 Y59.79
X27.327
X58.222
X58.487 Y59.767
X58.738 Y59.679
X58.959 Y59.53
X59.326 Y59.144
X59.543 Y58.657
X59.661 Y58.138
X59.724 Y57.609
X59.756 Y57.078
X59.773 Y56.545
X59.781 Y56.013
X59.786 Y55.48
X59.788 Y54.947
X59.79 Y53.349
Y41.098
Y3.811
X59.776 Y3.545
X59.697 Y3.291
X59.554 Y3.066
X59.366 Y2.878
X58.928 Y2.574
X58.424 Y2.402
X57.899 Y2.31
X57.369 Y2.261
X56.837 Y2.236
X56.304 Y2.223
X55.772 Y2.217
X55.239 Y2.213
X54.174 Y2.211
X48.847 Y2.21
X47.782
X4.636
X4.37 Y2.217
X4.113 Y2.289
X3.885 Y2.426
X3.693 Y2.611
X3.384 Y3.044
X3.208 Y3.547
X3.113 Y4.071
X3.063 Y4.602
X3.037 Y5.134
X3.024 Y5.666
X3.017 Y6.199
X3.013 Y6.731
X3.011 Y7.797
X3.01 Y8.329
Y57.335
X3.017 Y57.601
X3.084 Y57.859
X3.216 Y58.09
X3.397 Y58.285
X3.826 Y58.602
X4.326 Y58.783
X4.85 Y58.882
X5.38 Y58.934
X5.912 Y58.961
X6.444 Y58.975
X6.977 Y58.983
X7.51 Y58.986
X8.575 Y58.989
X12.836 Y58.99
X53.319
X57.58
X57.839 Y58.928
X58.073 Y58.8
X58.271 Y58.622
X58.593 Y58.198
X58.778 Y57.698
X58.879 Y57.175
X58.933 Y56.645
X58.961 Y56.114
X58.975 Y55.581
X58.982 Y55.048
X58.986 Y54.516
X58.989 Y53.45
X58.99 Y49.722
Y13.501
Y4.445
X58.927 Y4.186
X58.803 Y3.951
X58.628 Y3.75
X58.21 Y3.42
X57.713 Y3.229
X57.19 Y3.125
X56.661 Y3.069
X56.129 Y3.041
X55.596 Y3.026
X55.064 Y3.018
X54.531 Y3.014
X53.466 Y3.011
X49.737 Y3.01
X18.31
X5.526
X5.259 Y3.011
X4.999 Y3.068
X4.762 Y3.189
X4.559 Y3.362
X4.225 Y3.776
X4.032 Y4.273
X3.926 Y4.795
X3.87 Y5.325
X3.841 Y5.857
X3.826 Y6.389
X3.818 Y6.922
X3.814 Y7.454
X3.811 Y8.52
X3.81 Y12.248
Y39.414
Y56.459
X3.811 Y56.726
X3.866 Y56.986
X3.985 Y57.225
X4.155 Y57.429
X4.567 Y57.767
X5.062 Y57.963
X5.584 Y58.071
X6.114 Y58.128
X6.646 Y58.158
X7.178 Y58.173
X7.711 Y58.182
X8.243 Y58.186
X8.776 Y58.188
X10.374 Y58.19
X35.942
X56.716
X56.977 Y58.138
X57.217 Y58.022
X57.423 Y57.853
X57.763 Y57.443
X57.961 Y56.949
X58.069 Y56.427
X58.127 Y55.898
X58.157 Y55.366
X58.173 Y54.834
X58.181 Y54.301
X58.186 Y53.768
X58.188 Y53.236
X58.19 Y51.638
Y29.266
Y5.296
X58.138 Y5.035
X58.025 Y4.794
X57.857 Y4.586
X57.45 Y4.243
X56.957 Y4.043
X56.435 Y3.933
X55.906 Y3.874
X55.374 Y3.843
X54.842 Y3.827
X54.309 Y3.819
X53.777 Y3.815
X53.244 Y3.812
X51.646 Y3.81
X32.47
X6.103
X5.841 Y3.86
X5.599 Y3.971
X5.391 Y4.137
X5.046 Y4.543
X4.845 Y5.036
X4.734 Y5.557
X4.675 Y6.086
X4.643 Y6.618
X4.627 Y7.151
X4.619 Y7.683
X4.615 Y8.216
X4.612 Y8.748
X4.61 Y10.346
Y26.859
Y55.889
X4.659 Y56.151
X4.769 Y56.394
X4.934 Y56.603
X5.338 Y56.95
X5.831 Y57.153
X6.351 Y57.264
X6.881 Y57.324
X7.412 Y57.356
X7.945 Y57.372
X8.477 Y57.381
X9.01 Y57.385
X9.543 Y57.388
X11.141 Y57.39
X24.99
X55.885
X56.147 Y57.343
X56.39 Y57.234
X56.6 Y57.07
X56.948 Y56.667
X57.151 Y56.175
X57.264 Y55.654
X57.324 Y55.125
X57.356 Y54.593
X57.372 Y54.061
X57.381 Y53.528
X57.385 Y52.996
X57.388 Y52.463
X57.39 Y50.865
Y38.614
Y6.121
X57.344 Y5.859
X57.236 Y5.615
X57.073 Y5.405
X56.67 Y5.055
X56.179 Y4.851
X55.658 Y4.737
X55.129 Y4.677
X54.597 Y4.645
X54.065 Y4.628
X53.532 Y4.619
X53. Y4.615
X52.467 Y4.612
X50.869 Y4.61
X40.216
X6.924
X6.662 Y4.655
X6.418 Y4.762
X6.207 Y4.925
X5.857 Y5.326
X5.651 Y5.818
X5.538 Y6.338
X5.477 Y6.867
X5.445 Y7.399
X5.428 Y7.931
X5.419 Y8.464
X5.415 Y8.997
X5.412 Y9.529
X5.41 Y11.127
Y20.715
Y55.072
X5.455 Y55.335
X5.561 Y55.579
X5.724 Y55.79
X6.124 Y56.141
X6.615 Y56.347
X7.136 Y56.461
X7.665 Y56.523
X8.197 Y56.555
X8.729 Y56.572
X9.261 Y56.581
X9.794 Y56.585
X10.327 Y56.587
X11.925 Y56.59
X20.447
X55.071
X55.333 Y56.546
X55.578 Y56.44
X55.789 Y56.278
X56.141 Y55.878
X56.347 Y55.387
X56.461 Y54.866
X56.522 Y54.337
X56.555 Y53.805
X56.572 Y53.273
X56.581 Y52.74
X56.585 Y52.208
X56.587 Y51.675
X56.59 Y50.077
Y41.555
Y6.931
X56.546 Y6.669
X56.44 Y6.424
X56.279 Y6.212
X55.879 Y5.861
X55.388 Y5.654
X54.868 Y5.539
X54.338 Y5.478
X53.807 Y5.445
X53.274 Y5.428
X52.742 Y5.42
X52.209 Y5.415
X51.677 Y5.413
X50.611 Y5.411
X41.556 Y5.41
X7.732
X7.469 Y5.454
X7.224 Y5.559
X7.013 Y5.721
X6.661 Y6.121
X6.454 Y6.612
X6.339 Y7.132
X6.278 Y7.661
X6.245 Y8.193
X6.228 Y8.725
X6.22 Y9.258
X6.215 Y9.79
X6.213 Y10.323
X6.211 Y11.388
X6.21 Y20.976
Y54.268
X6.254 Y54.531
X6.359 Y54.775
X6.521 Y54.987
X6.921 Y55.339
X7.412 Y55.546
X7.932 Y55.66
X8.461 Y55.722
X8.993 Y55.754
X9.525 Y55.771
X10.058 Y55.78
X10.59 Y55.785
X11.123 Y55.787
X12.188 Y55.789
X22.309 Y55.79
X54.269
X54.532 Y55.746
X54.776 Y55.64
X54.988 Y55.479
X55.339 Y55.078
X55.546 Y54.588
X55.66 Y54.067
X55.722 Y53.538
X55.754 Y53.007
X55.772 Y52.474
X55.78 Y51.942
X55.785 Y51.409
X55.787 Y50.876
X55.789 Y49.811
X55.79 Y39.69
Y38.092
Y7.73
X55.746 Y7.468
X55.64 Y7.223
X55.478 Y7.012
X55.077 Y6.661
X54.586 Y6.454
X54.066 Y6.34
X53.537 Y6.278
X53.005 Y6.246
X52.473 Y6.229
X51.94 Y6.22
X51.408 Y6.215
X50.875 Y6.213
X49.81 Y6.211
X39.689 Y6.21
X36.493
X8.528
X8.266 Y6.255
X8.022 Y6.361
X7.81 Y6.523
X7.46 Y6.924
X7.253 Y7.416
X7.139 Y7.936
X7.078 Y8.465
X7.045 Y8.997
X7.028 Y9.529
X7.02 Y10.062
X7.015 Y10.594
X7.013 Y11.127
X7.011 Y12.192
X7.01 Y22.313
Y27.64
Y53.474
X7.055 Y53.736
X7.162 Y53.98
X7.325 Y54.191
X7.727 Y54.541
X8.218 Y54.747
X8.738 Y54.861
X9.267 Y54.922
X9.799 Y54.955
X10.331 Y54.972
X10.864 Y54.98
X11.397 Y54.985
X11.929 Y54.987
X12.995 Y54.989
X23.115 Y54.99
X30.573
X53.477
X53.74 Y54.944
X53.983 Y54.836
X54.194 Y54.673
X54.543 Y54.271
X54.748 Y53.779
X54.861 Y53.258
X54.922 Y52.729
X54.955 Y52.198
X54.972 Y51.665
X54.98 Y51.133
X54.985 Y50.6
X54.987 Y50.067
X54.989 Y49.002
X54.99 Y38.881
Y28.228
Y8.519
X54.943 Y8.257
X54.835 Y8.014
X54.671 Y7.804
X54.267 Y7.456
X53.776 Y7.252
X53.255 Y7.138
X52.726 Y7.077
X52.194 Y7.045
X51.662 Y7.028
X51.129 Y7.02
X50.597 Y7.015
X50.064 Y7.013
X48.999 Y7.011
X38.878 Y7.01
X25.029
X9.315 Y7.011
X9.053 Y7.058
X8.81 Y7.168
X8.601 Y7.333
X8.254 Y7.737
X8.05 Y8.229
X7.938 Y8.75
X7.877 Y9.279
X7.845 Y9.811
X7.828 Y10.343
X7.82 Y10.876
X7.815 Y11.408
X7.813 Y11.941
X7.81 Y13.539
Y40.705
Y52.424
X7.811 Y52.69
X7.86 Y52.952
X7.97 Y53.194
X8.136 Y53.402
X8.541 Y53.748
X9.034 Y53.951
X9.555 Y54.063
X10.084 Y54.123
X10.616 Y54.155
X11.148 Y54.172
X11.681 Y54.181
X12.213 Y54.185
X12.746 Y54.187
X14.344 Y54.19
X45.239
X52.696
X52.957 Y54.139
X53.199 Y54.027
X53.407 Y53.861
X53.751 Y53.454
X53.952 Y52.961
X54.064 Y52.44
X54.124 Y51.911
X54.155 Y51.379
X54.172 Y50.846
X54.181 Y50.314
X54.185 Y49.781
X54.187 Y49.248
X54.19 Y47.65
Y11.962
Y9.299
X54.138 Y9.037
X54.025 Y8.796
X53.857 Y8.589
X53.449 Y8.247
X52.955 Y8.047
X52.434 Y7.936
X51.905 Y7.876
X51.373 Y7.845
X50.841 Y7.828
X50.308 Y7.819
X49.776 Y7.815
X49.243 Y7.813
X47.645 Y7.81
X10.358
X10.092 Y7.811
X9.831 Y7.865
X9.591 Y7.98
X9.385 Y8.148
X9.044 Y8.558
X8.845 Y9.052
X8.735 Y9.573
X8.676 Y10.102
X8.644 Y10.634
X8.628 Y11.167
X8.619 Y11.699
X8.615 Y12.232
X8.613 Y12.765
X8.61 Y14.362
Y51.649
X8.612 Y51.915
X8.667 Y52.176
X8.783 Y52.415
X8.954 Y52.62
X9.365 Y52.959
X9.859 Y53.157
X10.381 Y53.266
X10.91 Y53.325
X11.442 Y53.356
X11.974 Y53.372
X12.507 Y53.381
X13.04 Y53.385
X13.572 Y53.387
X15.17 Y53.39
X16.236
X51.924
X52.184 Y53.333
X52.423 Y53.214
X52.626 Y53.042
X52.962 Y52.629
X53.159 Y52.134
X53.267 Y51.612
X53.325 Y51.083
X53.356 Y50.551
X53.372 Y50.019
X53.381 Y49.486
X53.385 Y48.953
X53.388 Y48.421
X53.39 Y46.823
Y39.366
Y10.069
X53.331 Y9.809
X53.211 Y9.572
X53.038 Y9.369
X52.623 Y9.035
X52.127 Y8.84
X51.606 Y8.732
X51.076 Y8.674
X50.544 Y8.644
X50.012 Y8.627
X49.479 Y8.619
X48.947 Y8.615
X48.414 Y8.612
X46.816 Y8.61
X32.967
X11.127
X10.861 Y8.613
X10.602 Y8.673
X10.365 Y8.796
X10.163 Y8.97
X9.831 Y9.386
X9.638 Y9.882
X9.531 Y10.404
X9.474 Y10.934
X9.443 Y11.465
X9.427 Y11.998
X9.419 Y12.53
X9.415 Y13.063
X9.412 Y13.596
X9.41 Y15.194
Y35.968
Y50.882
X9.414 Y51.149
X9.477 Y51.408
X9.601 Y51.643
X9.777 Y51.843
X10.195 Y52.173
X10.692 Y52.365
X11.214 Y52.47
X11.744 Y52.527
X12.276 Y52.557
X12.808 Y52.573
X13.341 Y52.581
X13.873 Y52.585
X14.406 Y52.588
X16.004 Y52.59
X43.703
X51.16
X51.418 Y52.524
X51.652 Y52.397
X51.851 Y52.22
X52.177 Y51.799
X52.367 Y51.301
X52.472 Y50.779
X52.528 Y50.249
X52.557 Y49.717
X52.573 Y49.185
X52.581 Y48.652
X52.585 Y48.119
X52.588 Y47.587
X52.59 Y45.989
Y10.833
X52.522 Y10.575
X52.394 Y10.342
X52.215 Y10.145
X51.792 Y9.82
X51.294 Y9.631
X50.772 Y9.528
X50.242 Y9.472
X49.71 Y9.442
X49.178 Y9.427
X48.645 Y9.419
X48.113 Y9.415
X47.58 Y9.412
X45.982 Y9.41
X11.891
X11.625 Y9.418
X11.368 Y9.486
X11.135 Y9.617
X10.939 Y9.796
X10.616 Y10.22
X10.429 Y10.719
X10.326 Y11.242
X10.271 Y11.771
X10.242 Y12.303
X10.227 Y12.836
X10.219 Y13.368
X10.215 Y13.901
X10.212 Y14.434
X10.21 Y16.032
Y17.63
Y50.122
X10.221 Y50.388
X10.292 Y50.645
X10.425 Y50.876
X10.607 Y51.07
X11.034 Y51.389
X11.533 Y51.574
X12.056 Y51.675
X12.586 Y51.73
X13.118 Y51.759
X13.65 Y51.774
X14.183 Y51.781
X14.716 Y51.786
X15.248 Y51.788
X16.846 Y51.79
X26.967
X50.404
X50.659 Y51.713
X50.888 Y51.576
X51.08 Y51.392
X51.395 Y50.962
X51.577 Y50.462
X51.677 Y49.939
X51.731 Y49.409
X51.759 Y48.877
X51.774 Y48.344
X51.782 Y47.812
X51.786 Y47.279
X51.788 Y46.746
X51.79 Y45.148
Y25.44
Y11.59
X51.712 Y11.336
X51.574 Y11.108
X51.389 Y10.917
X50.958 Y10.603
X50.457 Y10.422
X49.934 Y10.323
X49.404 Y10.269
X48.872 Y10.241
X48.339 Y10.226
X47.807 Y10.218
X47.274 Y10.214
X46.741 Y10.212
X45.143 Y10.21
X15.847
X12.651
X12.385 Y10.226
X12.13 Y10.304
X11.903 Y10.442
X11.712 Y10.628
X11.4 Y11.06
X11.22 Y11.561
X11.121 Y12.085
X11.069 Y12.615
X11.041 Y13.147
X11.026 Y13.679
X11.018 Y14.212
X11.014 Y14.744
X11.011 Y15.81
X11.01 Y19.006
Y49.368
X11.031 Y49.633
X11.113 Y49.887
X11.255 Y50.112
X11.632 Y50.488
X12.113 Y50.716
X12.63 Y50.844
X13.159 Y50.913
X13.69 Y50.95
X14.222 Y50.969
X14.755 Y50.979
X15.288 Y50.984
X15.82 Y50.987
X16.886 Y50.989
X17.418 Y50.99
X49.378
X49.644 Y50.969
X49.896 Y50.884
X50.12 Y50.74
X50.494 Y50.361
X50.719 Y49.878
X50.846 Y49.361
X50.914 Y48.832
X50.95 Y48.301
X50.969 Y47.769
X50.979 Y47.236
X50.984 Y46.703
X50.987 Y46.171
X50.989 Y45.105
X50.99 Y38.713
Y33.387
Y12.613
X50.966 Y12.348
X50.88 Y12.096
X50.734 Y11.873
X50.352 Y11.501
X49.868 Y11.278
X49.351 Y11.153
X48.822 Y11.085
X48.291 Y11.049
X47.759 Y11.031
X47.226 Y11.021
X46.693 Y11.016
X46.161 Y11.013
X45.095 Y11.011
X38.171 Y11.01
X22.191
X13.402
X13.137 Y11.039
X12.886 Y11.129
X12.665 Y11.278
X12.297 Y11.662
X12.075 Y12.147
X11.951 Y12.665
X11.885 Y13.193
X11.849 Y13.725
X11.83 Y14.257
X11.821 Y14.79
X11.816 Y15.322
X11.813 Y15.855
X11.811 Y16.92
X11.81 Y23.845
Y48.614
X11.841 Y48.879
X11.933 Y49.129
X12.084 Y49.347
X12.471 Y49.713
X12.958 Y49.931
X13.476 Y50.052
X14.005 Y50.117
X14.537 Y50.152
X15.069 Y50.17
X15.602 Y50.18
X16.134 Y50.185
X16.667 Y50.187
X17.732 Y50.189
X25.19 Y50.19
X48.627
X48.891 Y50.157
X49.14 Y50.062
X49.357 Y49.908
X49.72 Y49.518
X49.934 Y49.03
X50.054 Y48.511
X50.118 Y47.982
X50.152 Y47.451
X50.17 Y46.918
X50.18 Y46.386
X50.185 Y45.853
X50.187 Y45.32
X50.189 Y44.255
X50.19 Y36.265
Y35.2
Y13.36
X50.154 Y13.097
X50.056 Y12.849
X49.899 Y12.633
X49.506 Y12.275
X49.017 Y12.062
X48.498 Y11.944
X47.969 Y11.881
X47.437 Y11.847
X46.905 Y11.829
X46.372 Y11.82
X45.84 Y11.815
X45.307 Y11.813
X44.242 Y11.811
X36.252 Y11.81
X22.402
X14.412
X14.146 Y11.811
X13.883 Y11.851
X13.637 Y11.953
X13.423 Y12.112
X13.069 Y12.51
X12.859 Y12.999
X12.743 Y13.519
X12.68 Y14.048
X12.647 Y14.58
X12.629 Y15.112
X12.62 Y15.645
X12.615 Y16.177
X12.613 Y16.71
X12.611 Y17.775
X12.61 Y26.298
Y47.605
X12.611 Y47.871
X12.654 Y48.134
X12.759 Y48.378
X12.922 Y48.59
X13.323 Y48.94
X13.814 Y49.146
X14.334 Y49.26
X14.864 Y49.322
X15.395 Y49.354
X15.928 Y49.371
X16.46 Y49.38
X16.993 Y49.385
X17.525 Y49.387
X18.591 Y49.389
X27.646 Y49.39
X47.887
X48.15 Y49.343
X48.392 Y49.234
X48.601 Y49.069
X48.947 Y48.663
X49.15 Y48.171
X49.262 Y47.65
X49.323 Y47.121
X49.355 Y46.589
X49.372 Y46.057
X49.38 Y45.524
X49.385 Y44.992
X49.387 Y44.459
X49.389 Y43.394
X49.39 Y33.806
Y30.61
Y14.097
X49.339 Y13.836
X49.226 Y13.594
X49.058 Y13.388
X48.65 Y13.046
X48.156 Y12.846
X47.635 Y12.736
X47.105 Y12.676
X46.574 Y12.645
X46.041 Y12.628
X45.509 Y12.619
X44.976 Y12.615
X44.443 Y12.613
X42.845 Y12.61
X16.212
X15.147
X14.881 Y12.612
X14.62 Y12.667
X14.381 Y12.784
X14.176 Y12.955
X13.839 Y13.368
X13.642 Y13.863
X13.533 Y14.384
X13.475 Y14.913
X13.444 Y15.445
X13.428 Y15.978
X13.419 Y16.51
X13.415 Y17.043
X13.413 Y17.575
X13.41 Y19.173
Y46.872
X13.413 Y47.138
X13.472 Y47.398
X13.593 Y47.635
X13.767 Y47.837
X14.183 Y48.169
X14.68 Y48.362
X15.202 Y48.469
X15.731 Y48.526
X16.263 Y48.557
X16.795 Y48.573
X17.328 Y48.581
X17.861 Y48.585
X18.393 Y48.588
X19.991 Y48.59
X26.383
X47.157
X47.416 Y48.526
X47.651 Y48.401
X47.85 Y48.224
X48.176 Y47.803
X48.367 Y47.305
X48.471 Y46.783
X48.528 Y46.254
X48.557 Y45.722
X48.573 Y45.189
X48.581 Y44.657
X48.585 Y44.124
X48.588 Y43.591
X48.59 Y41.993
Y19.621
Y14.827
X48.522 Y14.57
X48.393 Y14.337
X48.214 Y14.14
X47.79 Y13.817
X47.291 Y13.63
X46.769 Y13.527
X46.239 Y13.471
X45.707 Y13.442
X45.175 Y13.427
X44.642 Y13.419
X44.109 Y13.415
X43.577 Y13.412
X41.979 Y13.41
X15.878
X15.612 Y13.42
X15.355 Y13.49
X15.124 Y13.623
X14.929 Y13.804
X14.611 Y14.231
X14.426 Y14.731
X14.325 Y15.254
X14.27 Y15.784
X14.242 Y16.316
X14.226 Y16.848
X14.219 Y17.381
X14.214 Y17.913
X14.212 Y18.446
X14.21 Y20.044
Y24.838
Y46.145
X14.224 Y46.411
X14.299 Y46.666
X14.437 Y46.894
X14.622 Y47.086
X15.053 Y47.399
X15.554 Y47.579
X16.077 Y47.678
X16.607 Y47.731
X17.139 Y47.759
X17.672 Y47.774
X18.204 Y47.782
X18.737 Y47.786
X19.802 Y47.789
X22.998 Y47.79
X42.174
X46.436
X46.688 Y47.706
X46.913 Y47.562
X47.289 Y47.185
X47.516 Y46.703
X47.644 Y46.186
X47.713 Y45.658
X47.75 Y45.127
X47.769 Y44.594
X47.779 Y44.062
X47.784 Y43.529
X47.787 Y42.996
X47.789 Y41.931
X47.79 Y35.539
Y15.83
X47.771 Y15.565
X47.689 Y15.311
X47.546 Y15.086
X47.17 Y14.71
X46.688 Y14.482
X46.171 Y14.355
X45.642 Y14.286
X45.111 Y14.25
X44.579 Y14.231
X44.046 Y14.221
X43.513 Y14.216
X42.981 Y14.213
X41.915 Y14.211
X35.523 Y14.21
X34.991
X16.348
X16.097 Y14.3
X15.875 Y14.447
X15.504 Y14.83
X15.28 Y15.313
X15.154 Y15.83
X15.086 Y16.359
X15.05 Y16.89
X15.031 Y17.423
X15.021 Y17.955
X15.016 Y18.488
X15.013 Y19.02
X15.011 Y20.086
X15.01 Y26.478
Y45.121
Y45.654
X15.1 Y45.904
X15.248 Y46.126
X15.631 Y46.496
X16.114 Y46.72
X16.632 Y46.845
X17.16 Y46.914
X17.692 Y46.95
X18.224 Y46.969
X18.757 Y46.979
X19.289 Y46.984
X19.822 Y46.987
X20.887 Y46.989
X27.279 Y46.99
X45.39
X45.655 Y46.968
X45.908 Y46.884
X46.13 Y46.737
X46.503 Y46.357
X46.725 Y45.872
X46.849 Y45.354
X46.916 Y44.826
X46.951 Y44.294
X46.97 Y43.762
X46.979 Y43.23
X46.984 Y42.697
X46.987 Y42.164
X46.989 Y41.099
X46.99 Y34.174
Y28.848
Y16.596
X46.962 Y16.331
X46.873 Y16.08
X46.724 Y15.86
X46.34 Y15.491
X45.854 Y15.272
X45.336 Y15.149
X44.807 Y15.083
X44.276 Y15.048
X43.743 Y15.03
X43.211 Y15.02
X42.678 Y15.015
X42.145 Y15.013
X41.08 Y15.011
X33.623 Y15.01
X17.376
X17.112 Y15.039
X16.862 Y15.132
X16.644 Y15.286
X16.281 Y15.675
X16.066 Y16.163
X15.946 Y16.682
X15.882 Y17.211
X15.848 Y17.742
X15.83 Y18.274
X15.82 Y18.807
X15.815 Y19.34
X15.813 Y19.872
X15.811 Y20.938
X15.81 Y22.003
Y44.641
X15.843 Y44.906
X15.941 Y45.153
X16.097 Y45.369
X16.492 Y45.727
X16.981 Y45.938
X17.5 Y46.056
X18.029 Y46.119
X18.561 Y46.153
X19.093 Y46.171
X19.626 Y46.18
X20.158 Y46.185
X20.691 Y46.187
X21.756 Y46.189
X29.746 Y46.19
X42.53
X44.661
X44.924 Y46.151
X45.171 Y46.049
X45.383 Y45.889
X45.736 Y45.49
X45.944 Y45.
X46.059 Y44.48
X46.121 Y43.951
X46.154 Y43.419
X46.171 Y42.887
X46.18 Y42.354
X46.185 Y41.821
X46.187 Y41.289
X46.189 Y40.223
X46.19 Y31.168
Y17.319
X46.145 Y17.056
X46.038 Y16.812
X45.874 Y16.602
X45.47 Y16.255
X44.978 Y16.051
X44.458 Y15.938
X43.929 Y15.877
X43.397 Y15.845
X42.864 Y15.828
X42.332 Y15.82
X41.799 Y15.815
X41.267 Y15.813
X40.201 Y15.811
X30.613 Y15.81
X28.483
X18.362
X18.096 Y15.811
X17.834 Y15.861
X17.592 Y15.973
X17.386 Y16.141
X17.045 Y16.55
X16.845 Y17.044
X16.735 Y17.565
X16.676 Y18.095
X16.644 Y18.626
X16.628 Y19.159
X16.619 Y19.691
X16.615 Y20.224
X16.613 Y20.757
X16.61 Y22.355
Y43.661
X16.612 Y43.928
X16.667 Y44.188
X16.785 Y44.427
X16.957 Y44.631
X17.371 Y44.965
X17.867 Y45.16
X18.388 Y45.268
X18.918 Y45.326
X19.45 Y45.356
X19.982 Y45.372
X20.515 Y45.381
X21.047 Y45.385
X21.58 Y45.388
X23.178 Y45.39
X26.907
X43.952
X44.211 Y45.329
X44.447 Y45.205
X44.647 Y45.03
X44.975 Y44.61
X45.166 Y44.113
X45.271 Y43.59
X45.328 Y43.061
X45.357 Y42.529
X45.373 Y41.996
X45.381 Y41.464
X45.385 Y40.931
X45.388 Y40.398
X45.39 Y38.8
Y18.027
X45.323 Y17.769
X45.194 Y17.536
X45.015 Y17.339
X44.591 Y17.017
X44.092 Y16.829
X43.57 Y16.726
X43.04 Y16.671
X42.508 Y16.642
X41.975 Y16.627
X41.443 Y16.619
X40.91 Y16.615
X40.378 Y16.612
X38.78 Y16.61
X19.071
X18.805 Y16.621
X18.548 Y16.691
X18.318 Y16.825
X18.124 Y17.007
X17.807 Y17.436
X17.624 Y17.936
X17.523 Y18.459
X17.47 Y18.989
X17.441 Y19.521
X17.426 Y20.053
X17.418 Y20.586
X17.414 Y21.119
X17.412 Y21.651
X17.41 Y23.249
Y42.958
X17.427 Y43.224
X17.505 Y43.478
X17.646 Y43.705
X17.832 Y43.895
X18.266 Y44.204
X18.768 Y44.382
X19.291 Y44.48
X19.821 Y44.532
X20.353 Y44.56
X20.886 Y44.574
X21.418 Y44.582
X21.951 Y44.586
X23.016 Y44.589
X26.212 Y44.59
X43.258
X43.508 Y44.5
X43.729 Y44.352
X44.1 Y43.969
X44.323 Y43.485
X44.448 Y42.967
X44.515 Y42.439
X44.551 Y41.908
X44.57 Y41.375
X44.579 Y40.843
X44.584 Y40.31
X44.587 Y39.777
X44.589 Y38.712
X44.59 Y31.787
Y20.601
Y19.003
X44.564 Y18.738
X44.475 Y18.487
X44.327 Y18.266
X43.944 Y17.896
X43.46 Y17.674
X42.942 Y17.55
X42.413 Y17.484
X41.882 Y17.449
X41.349 Y17.43
X40.817 Y17.42
X40.284 Y17.415
X39.752 Y17.413
X38.686 Y17.411
X31.229 Y17.41
X19.777
X19.512 Y17.444
X19.264 Y17.54
X19.046 Y17.694
X18.683 Y18.084
X18.467 Y18.57
X18.346 Y19.089
X18.282 Y19.618
X18.247 Y20.149
X18.23 Y20.682
X18.22 Y21.214
X18.215 Y21.747
X18.213 Y22.28
X18.211 Y23.345
X18.21 Y31.335
Y39.858
Y41.988
X18.211 Y42.255
X18.253 Y42.518
X18.358 Y42.763
X18.517 Y42.976
X18.914 Y43.331
X19.404 Y43.542
X19.923 Y43.658
X20.452 Y43.721
X20.984 Y43.754
X21.516 Y43.771
X22.049 Y43.78
X22.582 Y43.785
X23.114 Y43.787
X24.18 Y43.789
X33.235 Y43.79
X42.29
X42.553 Y43.747
X42.797 Y43.639
X43.006 Y43.474
X43.35 Y43.068
X43.552 Y42.575
X43.664 Y42.054
X43.724 Y41.525
X43.755 Y40.993
X43.772 Y40.461
X43.781 Y39.928
X43.785 Y39.396
X43.787 Y38.863
X43.79 Y37.265
Y21.285
Y19.687
X43.738 Y19.426
X43.624 Y19.185
X43.455 Y18.979
X43.044 Y18.641
X42.549 Y18.443
X42.028 Y18.334
X41.498 Y18.275
X40.967 Y18.244
X40.434 Y18.228
X39.902 Y18.219
X39.369 Y18.215
X38.836 Y18.212
X37.238 Y18.21
X20.726
X20.459 Y18.214
X20.2 Y18.272
X19.962 Y18.393
X19.761 Y18.567
X19.43 Y18.985
X19.237 Y19.481
X19.13 Y20.003
X19.073 Y20.533
X19.043 Y21.064
X19.027 Y21.597
X19.019 Y22.129
X19.015 Y22.662
X19.012 Y23.195
X19.01 Y24.793
Y41.305
X19.019 Y41.572
X19.085 Y41.83
X19.213 Y42.063
X19.392 Y42.26
X19.816 Y42.583
X20.315 Y42.77
X20.837 Y42.874
X21.367 Y42.929
X21.899 Y42.958
X22.431 Y42.973
X22.964 Y42.981
X23.497 Y42.986
X24.029 Y42.988
X25.627 Y42.99
X41.607
X41.863 Y42.916
X42.091 Y42.779
X42.284 Y42.595
X42.598 Y42.164
X42.779 Y41.664
X42.878 Y41.14
X42.931 Y40.61
X42.959 Y40.078
X42.974 Y39.546
X42.982 Y39.013
X42.986 Y38.481
X42.989 Y37.415
X42.99 Y34.219
Y20.37
X42.908 Y20.117
X42.766 Y19.891
X42.391 Y19.513
X41.91 Y19.284
X41.393 Y19.156
X40.865 Y19.087
X40.333 Y19.05
X39.801 Y19.031
X39.268 Y19.021
X38.736 Y19.016
X38.203 Y19.013
X37.138 Y19.011
X30.746 Y19.01
X21.158
X20.906 Y19.096
X20.682 Y19.241
X20.308 Y19.62
X20.081 Y20.102
X19.955 Y20.62
X19.886 Y21.148
X19.85 Y21.679
X19.831 Y22.212
X19.821 Y22.744
X19.816 Y23.277
X19.813 Y23.809
X19.811 Y24.875
X19.81 Y31.799
Y40.855
X19.901 Y41.105
X20.048 Y41.327
X20.431 Y41.698
X20.914 Y41.921
X21.432 Y42.047
X21.96 Y42.114
X22.492 Y42.15
X23.024 Y42.169
X23.557 Y42.179
X24.089 Y42.184
X24.622 Y42.187
X25.687 Y42.189
X28.883 Y42.19
X40.602
X40.867 Y42.164
X41.118 Y42.074
X41.339 Y41.925
X41.707 Y41.54
X41.928 Y41.055
X42.051 Y40.537
X42.117 Y40.009
X42.152 Y39.477
X42.17 Y38.945
X42.18 Y38.412
X42.185 Y37.88
X42.187 Y37.347
X42.189 Y36.282
X42.19 Y28.292
Y21.367
X42.159 Y21.102
X42.065 Y20.853
X41.911 Y20.636
X41.519 Y20.276
X41.03 Y20.063
X40.511 Y19.944
X39.982 Y19.881
X39.451 Y19.847
X38.918 Y19.829
X38.386 Y19.82
X37.853 Y19.815
X37.32 Y19.813
X36.255 Y19.811
X27.732 Y19.81
X26.134
X22.139
X21.876 Y19.847
X21.629 Y19.948
X21.416 Y20.108
X21.063 Y20.507
X20.856 Y20.997
X20.74 Y21.517
X20.679 Y22.046
X20.646 Y22.578
X20.629 Y23.11
X20.62 Y23.643
X20.615 Y24.176
X20.613 Y24.708
X20.611 Y25.774
X20.61 Y34.829
Y39.889
X20.653 Y40.152
X20.761 Y40.396
X20.926 Y40.605
X21.332 Y40.949
X21.825 Y41.151
X22.346 Y41.263
X22.875 Y41.323
X23.407 Y41.355
X23.939 Y41.372
X24.472 Y41.381
X25.005 Y41.385
X25.537 Y41.387
X27.135 Y41.39
X39.919
X40.18 Y41.337
X40.42 Y41.222
X40.625 Y41.051
X40.962 Y40.639
X41.159 Y40.144
X41.267 Y39.622
X41.325 Y39.093
X41.356 Y38.561
X41.372 Y38.028
X41.381 Y37.496
X41.385 Y36.963
X41.388 Y36.431
X41.39 Y34.833
Y22.049
X41.331 Y21.789
X41.208 Y21.553
X41.032 Y21.352
X40.613 Y21.024
X40.115 Y20.834
X39.593 Y20.728
X39.063 Y20.672
X38.532 Y20.642
X37.999 Y20.627
X37.467 Y20.619
X36.934 Y20.615
X36.401 Y20.612
X34.803 Y20.61
X23.085
X22.818 Y20.617
X22.56 Y20.683
X22.328 Y20.814
X22.132 Y20.994
X21.812 Y21.419
X21.626 Y21.919
X21.525 Y22.442
X21.47 Y22.971
X21.441 Y23.503
X21.426 Y24.036
X21.419 Y24.568
X21.414 Y25.101
X21.412 Y25.634
X21.41 Y27.232
Y36.82
Y38.95
X21.424 Y39.216
X21.5 Y39.472
X21.638 Y39.699
X21.823 Y39.891
X22.256 Y40.202
X22.757 Y40.381
X23.281 Y40.48
X23.811 Y40.532
X24.343 Y40.56
X24.875 Y40.574
X25.408 Y40.582
X25.94 Y40.586
X27.006 Y40.589
X30.202 Y40.59
X39.257
X39.508 Y40.5
X39.729 Y40.352
X40.101 Y39.97
X40.324 Y39.486
X40.448 Y38.968
X40.515 Y38.44
X40.551 Y37.909
X40.57 Y37.376
X40.579 Y36.844
X40.584 Y36.311
X40.587 Y35.778
X40.589 Y34.713
X40.59 Y27.788
Y22.994
X40.562 Y22.729
X40.472 Y22.479
X40.322 Y22.259
X39.938 Y21.89
X39.452 Y21.67
X38.934 Y21.548
X38.405 Y21.483
X37.874 Y21.448
X37.341 Y21.43
X36.809 Y21.42
X36.276 Y21.415
X35.743 Y21.413
X34.678 Y21.411
X29.884 Y21.41
X23.758
X23.495 Y21.448
X23.248 Y21.548
X23.033 Y21.705
X22.673 Y22.098
X22.461 Y22.587
X22.343 Y23.106
X22.28 Y23.635
X22.247 Y24.167
X22.229 Y24.699
X22.22 Y25.232
X22.215 Y25.764
X22.213 Y26.297
X22.211 Y27.362
X22.21 Y36.418
Y38.016
X22.211 Y38.282
X22.26 Y38.544
X22.37 Y38.786
X22.535 Y38.996
X22.937 Y39.344
X23.429 Y39.549
X23.95 Y39.662
X24.479 Y39.723
X25.01 Y39.755
X25.543 Y39.772
X26.075 Y39.781
X26.608 Y39.785
X27.141 Y39.787
X28.739 Y39.79
X38.327
X38.588 Y39.74
X38.828 Y39.623
X39.032 Y39.452
X39.366 Y39.037
X39.561 Y38.542
X39.669 Y38.02
X39.726 Y37.49
X39.757 Y36.959
X39.773 Y36.426
X39.781 Y35.894
X39.785 Y35.361
X39.788 Y34.828
X39.79 Y33.23
Y30.567
Y23.642
X39.729 Y23.383
X39.604 Y23.148
X39.428 Y22.948
X39.007 Y22.622
X38.509 Y22.432
X37.987 Y22.328
X37.457 Y22.272
X36.925 Y22.242
X36.393 Y22.227
X35.86 Y22.219
X35.328 Y22.215
X34.795 Y22.212
X33.197 Y22.21
X24.674
X24.408 Y22.222
X24.151 Y22.291
X23.92 Y22.425
X23.725 Y22.606
X23.408 Y23.034
X23.224 Y23.534
X23.123 Y24.057
X23.069 Y24.587
X23.041 Y25.118
X23.026 Y25.651
X23.018 Y26.184
X23.014 Y26.716
X23.012 Y27.249
X23.01 Y28.847
Y37.369
X23.033 Y37.635
X23.114 Y37.888
X23.257 Y38.113
X23.444 Y38.302
X23.88 Y38.609
X24.383 Y38.785
X24.907 Y38.882
X25.437 Y38.933
X25.969 Y38.96
X26.501 Y38.975
X27.034 Y38.982
X27.566 Y38.986
X28.632 Y38.989
X31.828 Y38.99
X33.958
X37.421
X37.685 Y38.959
X37.935 Y38.865
X38.153 Y38.713
X38.519 Y38.326
X38.734 Y37.839
X38.854 Y37.32
X38.919 Y36.791
X38.953 Y36.259
X38.971 Y35.727
X38.98 Y35.194
X38.985 Y34.662
X38.987 Y34.129
X38.989 Y33.064
X38.99 Y24.541
X38.949 Y24.278
X38.845 Y24.033
X38.685 Y23.82
X38.288 Y23.465
X37.798 Y23.256
X37.278 Y23.141
X36.749 Y23.079
X36.217 Y23.046
X35.685 Y23.029
X35.152 Y23.02
X34.619 Y23.015
X34.087 Y23.013
X33.021 Y23.011
X25.564 Y23.01
X25.298 Y23.011
X25.037 Y23.065
X24.797 Y23.18
X24.59 Y23.348
X24.247 Y23.755
X24.046 Y24.248
X23.935 Y24.769
X23.876 Y25.299
X23.844 Y25.831
X23.828 Y26.363
X23.819 Y26.896
X23.815 Y27.428
X23.813 Y27.961
X23.81 Y29.559
Y36.484
X23.815 Y36.75
X23.881 Y37.008
X24.008 Y37.242
X24.183 Y37.442
X24.601 Y37.773
X25.098 Y37.965
X25.62 Y38.071
X26.149 Y38.127
X26.681 Y38.157
X27.214 Y38.173
X27.746 Y38.181
X28.279 Y38.185
X28.812 Y38.188
X30.41 Y38.19
X36.802
X37.058 Y38.117
X37.287 Y37.981
X37.481 Y37.799
X37.796 Y37.369
X37.978 Y36.869
X38.078 Y36.345
X38.131 Y35.815
X38.159 Y35.284
X38.174 Y34.751
X38.182 Y34.218
X38.186 Y33.686
X38.189 Y32.621
X38.19 Y29.425
Y25.163
X38.106 Y24.911
X37.962 Y24.686
X37.774 Y24.497
X37.338 Y24.191
X36.836 Y24.015
X36.312 Y23.918
X35.782 Y23.867
X35.25 Y23.84
X34.717 Y23.825
X34.185 Y23.818
X33.652 Y23.814
X32.587 Y23.811
X29.391 Y23.81
X26.195
X25.93 Y23.841
X25.68 Y23.932
X25.46 Y24.082
X25.09 Y24.466
X24.871 Y24.951
X24.749 Y25.47
X24.683 Y25.998
X24.648 Y26.53
X24.63 Y27.062
X24.62 Y27.595
X24.615 Y28.128
X24.613 Y28.66
X24.611 Y29.725
X24.61 Y35.585
Y35.851
X24.653 Y36.114
X24.757 Y36.359
X24.916 Y36.573
X25.311 Y36.93
X25.8 Y37.141
X26.32 Y37.258
X26.849 Y37.32
X27.38 Y37.354
X27.913 Y37.371
X28.445 Y37.38
X28.978 Y37.385
X29.511 Y37.387
X30.576 Y37.389
X35.903 Y37.39
X36.164 Y37.338
X36.404 Y37.223
X36.611 Y37.056
X36.954 Y36.648
X37.155 Y36.155
X37.265 Y35.634
X37.325 Y35.105
X37.356 Y34.573
X37.372 Y34.04
X37.381 Y33.508
X37.385 Y32.975
X37.388 Y32.442
X37.39 Y30.844
Y26.05
X37.326 Y25.792
X37.2 Y25.557
X37.025 Y25.357
X36.607 Y25.026
X36.11 Y24.834
X35.588 Y24.729
X35.058 Y24.672
X34.526 Y24.643
X33.994 Y24.627
X33.461 Y24.619
X32.929 Y24.615
X32.396 Y24.612
X30.798 Y24.61
X27.069
X26.803 Y24.623
X26.547 Y24.694
X26.317 Y24.828
X26.122 Y25.01
X25.805 Y25.438
X25.623 Y25.939
X25.522 Y26.462
X25.469 Y26.992
X25.441 Y27.524
X25.426 Y28.056
X25.418 Y28.589
X25.414 Y29.122
X25.411 Y30.187
X25.41 Y33.383
Y34.981
X25.436 Y35.246
X25.52 Y35.498
X25.666 Y35.722
X25.854 Y35.91
X26.292 Y36.214
X26.795 Y36.388
X27.319 Y36.483
X27.849 Y36.534
X28.381 Y36.561
X28.914 Y36.575
X29.446 Y36.582
X29.979 Y36.586
X31.044 Y36.589
X34.773 Y36.59
X35.039
X35.303 Y36.552
X35.55 Y36.453
X35.766 Y36.297
X36.126 Y35.904
X36.338 Y35.416
X36.456 Y34.896
X36.52 Y34.367
X36.553 Y33.836
X36.571 Y33.303
X36.58 Y32.771
X36.585 Y32.238
X36.587 Y31.705
X36.589 Y30.64
X36.59 Y26.911
X36.54 Y26.65
X36.428 Y26.408
X36.263 Y26.199
X35.859 Y25.853
X35.366 Y25.649
X34.845 Y25.537
X34.316 Y25.477
X33.784 Y25.445
X33.252 Y25.428
X32.72 Y25.419
X32.187 Y25.415
X31.654 Y25.413
X30.056 Y25.41
X27.926
X27.659 Y25.413
X27.4 Y25.475
X27.164 Y25.599
X26.963 Y25.773
X26.63 Y26.189
X26.437 Y26.686
X26.33 Y27.207
X26.273 Y27.737
X26.243 Y28.269
X26.227 Y28.801
X26.219 Y29.334
X26.215 Y29.867
X26.212 Y30.399
X26.21 Y31.997
Y34.128
X26.222 Y34.394
X26.299 Y34.649
X26.434 Y34.878
X26.617 Y35.072
X27.044 Y35.391
X27.543 Y35.575
X28.066 Y35.676
X28.596 Y35.73
X29.128 Y35.759
X29.661 Y35.774
X30.193 Y35.782
X30.726 Y35.786
X31.259 Y35.788
X32.857 Y35.79
X34.455
X34.705 Y35.7
X34.927 Y35.553
X35.3 Y35.173
X35.523 Y34.689
X35.648 Y34.171
X35.715 Y33.642
X35.751 Y33.111
X35.769 Y32.579
X35.779 Y32.046
X35.784 Y31.513
X35.787 Y30.981
X35.789 Y29.915
X35.79 Y27.785
X35.757 Y27.521
X35.664 Y27.271
X35.512 Y27.052
X35.125 Y26.686
X34.639 Y26.468
X34.12 Y26.347
X33.592 Y26.282
X33.06 Y26.248
X32.528 Y26.23
X31.995 Y26.22
X31.462 Y26.215
X30.93 Y26.213
X29.864 Y26.211
X28.533 Y26.21
X28.27 Y26.256
X28.026 Y26.363
X27.815 Y26.525
X27.462 Y26.924
X27.255 Y27.415
X27.14 Y27.935
X27.078 Y28.464
X27.046 Y28.996
X27.029 Y29.528
X27.02 Y30.061
X27.015 Y30.593
X27.013 Y31.126
X27.011 Y32.191
X27.01 Y33.256
X27.012 Y33.523
X27.073 Y33.782
X27.194 Y34.02
X27.365 Y34.223
X27.777 Y34.561
X28.272 Y34.758
X28.793 Y34.867
X29.323 Y34.925
X29.855 Y34.956
X30.387 Y34.972
X30.92 Y34.981
X31.452 Y34.985
X31.985 Y34.988
X33.583 Y34.99
X33.841 Y34.924
X34.073 Y34.793
X34.27 Y34.614
X34.59 Y34.188
X34.775 Y33.688
X34.876 Y33.166
X34.93 Y32.636
X34.959 Y32.104
X34.974 Y31.571
X34.982 Y31.039
X34.986 Y30.506
X34.988 Y29.973
X34.99 Y28.375
X34.909 Y28.122
X34.768 Y27.896
X34.582 Y27.705
X34.148 Y27.396
X33.646 Y27.218
X33.122 Y27.12
X32.592 Y27.068
X32.06 Y27.04
X31.528 Y27.026
X30.995 Y27.018
X30.463 Y27.014
X29.397 Y27.011
X29.133 Y27.041
X28.882 Y27.131
X28.662 Y27.281
X28.292 Y27.664
X28.072 Y28.149
X27.949 Y28.668
X27.883 Y29.196
X27.848 Y29.728
X27.83 Y30.26
X27.82 Y30.793
X27.815 Y31.325
X27.813 Y31.858
X27.811 Y32.657
X27.855 Y32.92
X27.96 Y33.165
X28.12 Y33.377
X28.517 Y33.733
X29.007 Y33.942
X29.526 Y34.058
X30.055 Y34.121
X30.587 Y34.154
X31.119 Y34.171
X31.652 Y34.18
X32.185 Y34.185
X32.717 Y34.187
X32.974 Y34.114
X33.205 Y33.983
X33.401 Y33.802
X33.721 Y33.377
X33.904 Y32.876
X34.004 Y32.353
X34.058 Y31.823
X34.086 Y31.291
X34.101 Y30.759
X34.109 Y30.226
X34.113 Y29.694
X34.115 Y29.427
X34.092 Y29.162
X34.001 Y28.912
X33.848 Y28.694
X33.454 Y28.335
X32.964 Y28.126
X32.444 Y28.012
X31.915 Y27.95
X31.383 Y27.918
X30.851 Y27.901
X30.318 Y27.892
X30.052 Y27.896
X29.793 Y27.96
X29.563 Y28.094
X29.37 Y28.277
X29.06 Y28.71
X28.884 Y29.213
X28.789 Y29.737
X28.738 Y30.268
X28.711 Y30.8
X28.697 Y31.332
X28.69 Y31.865
X28.738 Y32.127
X28.851 Y32.368
X29.022 Y32.572
X29.437 Y32.905
X29.935 Y33.096
X30.457 Y33.2
X30.987 Y33.256
X31.519 Y33.285
X31.785 Y33.293
X32.048 Y33.251
X32.29 Y33.14
X32.496 Y32.971
X32.832 Y32.558
X33.024 Y32.061
X33.128 Y31.539
X33.184 Y31.009
X33.213 Y30.477
X33.221 Y30.211
X33.187 Y29.947
X33.08 Y29.703
X32.912 Y29.496
X32.497 Y29.162
X31.999 Y28.972
X31.477 Y28.869
X30.947 Y28.815
X30.685 Y28.863
X30.449 Y28.986
X30.252 Y29.166
X29.935 Y29.594
X29.757 Y30.096
X29.661 Y30.62
X29.635 Y30.885
X29.633 Y31.151
X29.709 Y31.406
X29.856 Y31.628
X30.05 Y31.811
X30.496 Y32.103
X30.75 Y32.183
X30.879 Y32.214
X31.012 Y32.222
X31.144 Y32.207
X31.399 Y32.129
X31.615 Y31.973
X31.962 Y31.569
X32.059 Y31.321
X32.135 Y31.065
X32.138 Y30.932
X32.114 Y30.801
X32.019 Y30.553
X31.853 Y30.344
X31.744 Y30.268
X31.617 Y30.226
X31.484 Y30.221
X31.355 Y30.254
X31.241 Y30.322
G3 X31.013 Y29.996 I-0.096 J-0.175
G1 X31.044 Y29.974 Z11.004
X31.081 Y29.964 Z11.015
X31.115 Y29.955 Z11.035
X31.145 Y29.947 Z11.06
X31.175 Y29.951 Z11.102
X31.194 Y29.954 Z11.149
X31.201 Y29.955 Z11.2
G0 Z22.
X-0.263 Y-2.797
Z8.4
G1 Z8.2 F1500.
X-0.262 Y-2.791 Z8.148
X-0.257 Y-2.771 Z8.1
X-0.249 Y-2.741 Z8.059
X-0.238 Y-2.7 Z8.027
X-0.226 Y-2.654 Z8.007
X-0.214 Y-2.604 Z8.
G3 X0.01 Y-1.049 I-7.063 J1.809
G1 Y-0.899
X-0.097 Y-0.377
X-0.147 Y0.153
X-0.17 Y0.686
X-0.181 Y1.218
X-0.186 Y1.751
X-0.188 Y2.283
X-0.19 Y3.881
Y49.158
Y61.143
X-0.152 Y61.271
X-0.009 Y61.495
X0.191 Y61.671
X0.652 Y61.938
X1.167 Y62.072
X1.696 Y62.135
X2.228 Y62.165
X2.761 Y62.178
X3.293 Y62.185
X3.826 Y62.188
X4.891 Y62.189
X37.916 Y62.19
X61.087
X61.217 Y62.158
X61.452 Y62.034
X61.637 Y61.842
X61.921 Y61.391
X62.063 Y60.878
X62.131 Y60.35
X62.163 Y59.818
X62.178 Y59.286
X62.184 Y58.753
X62.187 Y58.22
X62.189 Y57.155
X62.19 Y35.316
Y0.959
X62.174 Y0.827
X62.121 Y0.704
X61.971 Y0.485
X61.766 Y0.314
X61.301 Y0.054
X60.785 Y-0.075
X60.255 Y-0.137
X59.724 Y-0.166
X59.191 Y-0.179
X58.658 Y-0.185
X58.126 Y-0.188
X57.06 Y-0.19
X46.94
X1.796
X1.665 Y-0.17
X1.42 Y-0.065
X1.223 Y0.114
X0.916 Y0.55
X0.758 Y1.058
X0.68 Y1.585
X0.643 Y2.117
X0.625 Y2.649
X0.617 Y3.182
X0.613 Y3.714
X0.612 Y4.247
X0.61 Y6.378
Y54.318
Y60.177
X0.701 Y60.427
X0.859 Y60.642
X1.261 Y60.99
X1.757 Y61.186
X2.28 Y61.288
X2.81 Y61.34
X3.342 Y61.366
X3.874 Y61.378
X4.407 Y61.384
X4.94 Y61.387
X6.005 Y61.389
X20.387 Y61.39
X44.357
X60.07
X60.331 Y61.336
X60.562 Y61.203
X60.752 Y61.016
X61.055 Y60.578
X61.22 Y60.072
X61.306 Y59.546
X61.349 Y59.015
X61.37 Y58.483
X61.38 Y57.95
X61.385 Y57.418
X61.388 Y56.885
X61.389 Y55.82
X61.39 Y27.588
Y2.021
X61.358 Y1.756
X61.246 Y1.514
X61.075 Y1.311
X60.656 Y0.981
X60.156 Y0.798
X59.632 Y0.704
X59.101 Y0.656
X58.569 Y0.632
X58.036 Y0.621
X57.504 Y0.615
X56.971 Y0.612
X55.906 Y0.611
X37.263 Y0.61
X2.639
X2.388 Y0.7
X2.173 Y0.856
X1.82 Y1.255
X1.621 Y1.749
X1.516 Y2.271
X1.463 Y2.801
X1.436 Y3.333
X1.423 Y3.866
X1.416 Y4.398
X1.413 Y4.931
X1.411 Y5.996
X1.41 Y15.052
Y15.584
Y59.263
X1.481 Y59.52
X1.621 Y59.746
X1.809 Y59.935
X2.247 Y60.238
X2.752 Y60.407
X3.277 Y60.497
X3.808 Y60.543
X4.34 Y60.567
X4.873 Y60.578
X5.405 Y60.584
X5.938 Y60.587
X7.003 Y60.589
X7.536 Y60.59
X57.606
X59.204
X59.464 Y60.531
X59.698 Y60.404
X59.894 Y60.224
X60.213 Y59.797
X60.393 Y59.296
X60.489 Y58.772
X60.539 Y58.241
X60.565 Y57.709
X60.577 Y57.177
X60.584 Y56.644
X60.587 Y56.112
X60.589 Y55.046
X60.59 Y48.122
Y12.433
Y2.845
X60.544 Y2.583
X60.429 Y2.342
X60.258 Y2.139
X59.841 Y1.806
X59.343 Y1.618
X58.82 Y1.516
X58.29 Y1.464
X57.758 Y1.437
X57.226 Y1.423
X56.693 Y1.417
X56.161 Y1.413
X55.095 Y1.411
X49.236 Y1.41
X20.472
X3.693
X3.428 Y1.441
X3.182 Y1.542
X2.972 Y1.705
X2.627 Y2.111
X2.429 Y2.606
X2.323 Y3.128
X2.267 Y3.657
X2.239 Y4.189
X2.224 Y4.722
X2.217 Y5.254
X2.214 Y5.787
X2.211 Y6.852
X2.21 Y11.646
Y34.018
Y58.255
X2.239 Y58.519
X2.335 Y58.768
X2.49 Y58.984
X2.884 Y59.342
X3.374 Y59.552
X3.894 Y59.666
X4.424 Y59.727
X4.955 Y59.758
X5.488 Y59.774
X6.02 Y59.782
X6.553 Y59.786
X7.086 Y59.788
X8.684 Y59.79
X27.327
X58.222
X58.487 Y59.767
X58.738 Y59.679
X58.959 Y59.53
X59.326 Y59.144
X59.543 Y58.657
X59.661 Y58.138
X59.724 Y57.609
X59.756 Y57.078
X59.773 Y56.545
X59.781 Y56.013
X59.786 Y55.48
X59.788 Y54.947
X59.79 Y53.349
Y41.098
Y3.811
X59.776 Y3.545
X59.697 Y3.291
X59.554 Y3.066
X59.366 Y2.878
X58.928 Y2.574
X58.424 Y2.402
X57.899 Y2.31
X57.369 Y2.261
X56.837 Y2.236
X56.304 Y2.223
X55.772 Y2.217
X55.239 Y2.213
X54.174 Y2.211
X48.847 Y2.21
X47.782
X4.636
X4.37 Y2.217
X4.113 Y2.289
X3.885 Y2.426
X3.693 Y2.611
X3.384 Y3.044
X3.208 Y3.547
X3.113 Y4.071
X3.063 Y4.602
X3.037 Y5.134
X3.024 Y5.666
X3.017 Y6.199
X3.013 Y6.731
X3.011 Y7.797
X3.01 Y8.329
Y57.335
X3.017 Y57.601
X3.084 Y57.859
X3.216 Y58.09
X3.397 Y58.285
X3.826 Y58.602
X4.326 Y58.783
X4.85 Y58.882
X5.38 Y58.934
X5.912 Y58.961
X6.444 Y58.975
X6.977 Y58.983
X7.51 Y58.986
X8.575 Y58.989
X12.836 Y58.99
X53.319
X57.58
X57.839 Y58.928
X58.073 Y58.8
X58.271 Y58.622
X58.593 Y58.198
X58.778 Y57.698
X58.879 Y57.175
X58.933 Y56.645
X58.961 Y56.114
X58.975 Y55.581
X58.982 Y55.048
X58.986 Y54.516
X58.989 Y53.45
X58.99 Y49.722
Y13.501
Y4.445
X58.927 Y4.186
X58.803 Y3.951
X58.628 Y3.75
X58.21 Y3.42
X57.713 Y3.229
X57.19 Y3.125
X56.661 Y3.069
X56.129 Y3.041
X55.596 Y3.026
X55.064 Y3.018
X54.531 Y3.014
X53.466 Y3.011
X49.737 Y3.01
X18.31
X5.526
X5.259 Y3.011
X4.999 Y3.068
X4.762 Y3.189
X4.559 Y3.362
X4.225 Y3.776
X4.032 Y4.273
X3.926 Y4.795
X3.87 Y5.325
X3.841 Y5.857
X3.826 Y6.389
X3.818 Y6.922
X3.814 Y7.454
X3.811 Y8.52
X3.81 Y12.248
Y39.414
Y56.459
X3.811 Y56.726
X3.866 Y56.986
X3.985 Y57.225
X4.155 Y57.429
X4.567 Y57.767
X5.062 Y57.963
X5.584 Y58.071
X6.114 Y58.128
X6.646 Y58.158
X7.178 Y58.173
X7.711 Y58.182
X8.243 Y58.186
X8.776 Y58.188
X10.374 Y58.19
X35.942
X56.716
X56.977 Y58.138
X57.217 Y58.022
X57.423 Y57.853
X57.763 Y57.443
X57.961 Y56.949
X58.069 Y56.427
X58.127 Y55.898
X58.157 Y55.366
X58.173 Y54.834
X58.181 Y54.301
X58.186 Y53.768
X58.188 Y53.236
X58.19 Y51.638
Y29.266
Y5.296
X58.138 Y5.035
X58.025 Y4.794
X57.857 Y4.586
X57.45 Y4.243
X56.957 Y4.043
X56.435 Y3.933
X55.906 Y3.874
X55.374 Y3.843
X54.842 Y3.827
X54.309 Y3.819
X53.777 Y3.815
X53.244 Y3.812
X51.646 Y3.81
X32.47
X6.103
X5.841 Y3.86
X5.599 Y3.971
X5.391 Y4.137
X5.046 Y4.543
X4.845 Y5.036
X4.734 Y5.557
X4.675 Y6.086
X4.643 Y6.618
X4.627 Y7.151
X4.619 Y7.683
X4.615 Y8.216
X4.612 Y8.748
X4.61 Y10.346
Y26.859
Y55.889
X4.659 Y56.151
X4.769 Y56.394
X4.934 Y56.603
X5.338 Y56.95
X5.831 Y57.153
X6.351 Y57.264
X6.881 Y57.324
X7.412 Y57.356
X7.945 Y57.372
X8.477 Y57.381
X9.01 Y57.385
X9.543 Y57.388
X11.141 Y57.39
X24.99
X55.885
X56.147 Y57.343
X56.39 Y57.234
X56.6 Y57.07
X56.948 Y56.667
X57.151 Y56.175
X57.264 Y55.654
X57.324 Y55.125
X57.356 Y54.593
X57.372 Y54.061
X57.381 Y53.528
X57.385 Y52.996
X57.388 Y52.463
X57.39 Y50.865
Y38.614
Y6.121
X57.344 Y5.859
X57.236 Y5.615
X57.073 Y5.405
X56.67 Y5.055
X56.179 Y4.851
X55.658 Y4.737
X55.129 Y4.677
X54.597 Y4.645
X54.065 Y4.628
X53.532 Y4.619
X53. Y4.615
X52.467 Y4.612
X50.869 Y4.61
X40.216
X6.924
X6.662 Y4.655
X6.418 Y4.762
X6.207 Y4.925
X5.857 Y5.326
X5.651 Y5.818
X5.538 Y6.338
X5.477 Y6.867
X5.445 Y7.399
X5.428 Y7.931
X5.419 Y8.464
X5.415 Y8.997
X5.412 Y9.529
X5.41 Y11.127
Y20.715
Y55.072
X5.455 Y55.335
X5.561 Y55.579
X5.724 Y55.79
X6.124 Y56.141
X6.615 Y56.347
X7.136 Y56.461
X7.665 Y56.523
X8.197 Y56.555
X8.729 Y56.572
X9.261 Y56.581
X9.794 Y56.585
X10.327 Y56.587
X11.925 Y56.59
X20.447
X55.071
X55.333 Y56.546
X55.578 Y56.44
X55.789 Y56.278
X56.141 Y55.878
X56.347 Y55.387
X56.461 Y54.866
X56.522 Y54.337
X56.555 Y53.805
X56.572 Y53.273
X56.581 Y52.74
X56.585 Y52.208
X56.587 Y51.675
X56.59 Y50.077
Y41.555
Y6.931
X56.546 Y6.669
X56.44 Y6.424
X56.279 Y6.212
X55.879 Y5.861
X55.388 Y5.654
X54.868 Y5.539
X54.338 Y5.478
X53.807 Y5.445
X53.274 Y5.428
X52.742 Y5.42
X52.209 Y5.415
X51.677 Y5.413
X50.611 Y5.411
X41.556 Y5.41
X7.732
X7.469 Y5.454
X7.224 Y5.559
X7.013 Y5.721
X6.661 Y6.121
X6.454 Y6.612
X6.339 Y7.132
X6.278 Y7.661
X6.245 Y8.193
X6.228 Y8.725
X6.22 Y9.258
X6.215 Y9.79
X6.213 Y10.323
X6.211 Y11.388
X6.21 Y20.976
Y54.268
X6.254 Y54.531
X6.359 Y54.775
X6.521 Y54.987
X6.921 Y55.339
X7.412 Y55.546
X7.932 Y55.66
X8.461 Y55.722
X8.993 Y55.754
X9.525 Y55.771
X10.058 Y55.78
X10.59 Y55.785
X11.123 Y55.787
X12.188 Y55.789
X22.309 Y55.79
X54.269
X54.532 Y55.746
X54.776 Y55.64
X54.988 Y55.479
X55.339 Y55.078
X55.546 Y54.588
X55.66 Y54.067
X55.722 Y53.538
X55.754 Y53.007
X55.772 Y52.474
X55.78 Y51.942
X55.785 Y51.409
X55.787 Y50.876
X55.789 Y49.811
X55.79 Y39.69
Y38.092
Y7.73
X55.746 Y7.468
X55.64 Y7.223
X55.478 Y7.012
X55.077 Y6.661
X54.586 Y6.454
X54.066 Y6.34
X53.537 Y6.278
X53.005 Y6.246
X52.473 Y6.229
X51.94 Y6.22
X51.408 Y6.215
X50.875 Y6.213
X49.81 Y6.211
X39.689 Y6.21
X36.493
X8.528
X8.266 Y6.255
X8.022 Y6.361
X7.81 Y6.523
X7.46 Y6.924
X7.253 Y7.416
X7.139 Y7.936
X7.078 Y8.465
X7.045 Y8.997
X7.028 Y9.529
X7.02 Y10.062
X7.015 Y10.594
X7.013 Y11.127
X7.011 Y12.192
X7.01 Y22.313
Y27.64
Y53.474
X7.055 Y53.736
X7.162 Y53.98
X7.325 Y54.191
X7.727 Y54.541
X8.218 Y54.747
X8.738 Y54.861
X9.267 Y54.922
X9.799 Y54.955
X10.331 Y54.972
X10.864 Y54.98
X11.397 Y54.985
X11.929 Y54.987
X12.995 Y54.989
X23.115 Y54.99
X30.573
X53.477
X53.74 Y54.944
X53.983 Y54.836
X54.194 Y54.673
X54.543 Y54.271
X54.748 Y53.779
X54.861 Y53.258
X54.922 Y52.729
X54.955 Y52.198
X54.972 Y51.665
X54.98 Y51.133
X54.985 Y50.6
X54.987 Y50.067
X54.989 Y49.002
X54.99 Y38.881
Y28.228
Y8.519
X54.943 Y8.257
X54.835 Y8.014
X54.671 Y7.804
X54.267 Y7.456
X53.776 Y7.252
X53.255 Y7.138
X52.726 Y7.077
X52.194 Y7.045
X51.662 Y7.028
X51.129 Y7.02
X50.597 Y7.015
X50.064 Y7.013
X48.999 Y7.011
X38.878 Y7.01
X25.029
X9.315 Y7.011
X9.053 Y7.058
X8.81 Y7.168
X8.601 Y7.333
X8.254 Y7.737
X8.05 Y8.229
X7.938 Y8.75
X7.877 Y9.279
X7.845 Y9.811
X7.828 Y10.343
X7.82 Y10.876
X7.815 Y11.408
X7.813 Y11.941
X7.81 Y13.539
Y40.705
Y52.424
X7.811 Y52.69
X7.86 Y52.952
X7.97 Y53.194
X8.136 Y53.402
X8.541 Y53.748
X9.034 Y53.951
X9.555 Y54.063
X10.084 Y54.123
X10.616 Y54.155
X11.148 Y54.172
X11.681 Y54.181
X12.213 Y54.185
X12.746 Y54.187
X14.344 Y54.19
X45.239
X52.696
X52.957 Y54.139
X53.199 Y54.027
X53.407 Y53.861
X53.751 Y53.454
X53.952 Y52.961
X54.064 Y52.44
X54.124 Y51.911
X54.155 Y51.379
X54.172 Y50.846
X54.181 Y50.314
X54.185 Y49.781
X54.187 Y49.248
X54.19 Y47.65
Y11.962
Y9.299
X54.138 Y9.037
X54.025 Y8.796
X53.857 Y8.589
X53.449 Y8.247
X52.955 Y8.047
X52.434 Y7.936
X51.905 Y7.876
X51.373 Y7.845
X50.841 Y7.828
X50.308 Y7.819
X49.776 Y7.815
X49.243 Y7.813
X47.645 Y7.81
X10.358
X10.092 Y7.811
X9.831 Y7.865
X9.591 Y7.98
X9.385 Y8.148
X9.044 Y8.558
X8.845 Y9.052
X8.735 Y9.573
X8.676 Y10.102
X8.644 Y10.634
X8.628 Y11.167
X8.619 Y11.699
X8.615 Y12.232
X8.613 Y12.765
X8.61 Y14.362
Y51.649
X8.612 Y51.915
X8.667 Y52.176
X8.783 Y52.415
X8.954 Y52.62
X9.365 Y52.959
X9.859 Y53.157
X10.381 Y53.266
X10.91 Y53.325
X11.442 Y53.356
X11.974 Y53.372
X12.507 Y53.381
X13.04 Y53.385
X13.572 Y53.387
X15.17 Y53.39
X16.236
X51.924
X52.184 Y53.333
X52.423 Y53.214
X52.626 Y53.042
X52.962 Y52.629
X53.159 Y52.134
X53.267 Y51.612
X53.325 Y51.083
X53.356 Y50.551
X53.372 Y50.019
X53.381 Y49.486
X53.385 Y48.953
X53.388 Y48.421
X53.39 Y46.823
Y39.366
Y10.069
X53.331 Y9.809
X53.211 Y9.572
X53.038 Y9.369
X52.623 Y9.035
X52.127 Y8.84
X51.606 Y8.732
X51.076 Y8.674
X50.544 Y8.644
X50.012 Y8.627
X49.479 Y8.619
X48.947 Y8.615
X48.414 Y8.612
X46.816 Y8.61
X32.967
X11.127
X10.861 Y8.613
X10.602 Y8.673
X10.365 Y8.796
X10.163 Y8.97
X9.831 Y9.386
X9.638 Y9.882
X9.531 Y10.404
X9.474 Y10.934
X9.443 Y11.465
X9.427 Y11.998
X9.419 Y12.53
X9.415 Y13.063
X9.412 Y13.596
X9.41 Y15.194
Y35.968
Y50.882
X9.414 Y51.149
X9.477 Y51.408
X9.601 Y51.643
X9.777 Y51.843
X10.195 Y52.173
X10.692 Y52.365
X11.214 Y52.47
X11.744 Y52.527
X12.276 Y52.557
X12.808 Y52.573
X13.341 Y52.581
X13.873 Y52.585
X14.406 Y52.588
X16.004 Y52.59
X43.703
X51.16
X51.418 Y52.524
X51.652 Y52.397
X51.851 Y52.22
X52.177 Y51.799
X52.367 Y51.301
X52.472 Y50.779
X52.528 Y50.249
X52.557 Y49.717
X52.573 Y49.185
X52.581 Y48.652
X52.585 Y48.119
X52.588 Y47.587
X52.59 Y45.989
Y10.833
X52.522 Y10.575
X52.394 Y10.342
X52.215 Y10.145
X51.792 Y9.82
X51.294 Y9.631
X50.772 Y9.528
X50.242 Y9.472
X49.71 Y9.442
X49.178 Y9.427
X48.645 Y9.419
X48.113 Y9.415
X47.58 Y9.412
X45.982 Y9.41
X11.891
X11.625 Y9.418
X11.368 Y9.486
X11.135 Y9.617
X10.939 Y9.796
X10.616 Y10.22
X10.429 Y10.719
X10.326 Y11.242
X10.271 Y11.771
X10.242 Y12.303
X10.227 Y12.836
X10.219 Y13.368
X10.215 Y13.901
X10.212 Y14.434
X10.21 Y16.032
Y17.63
Y50.122
X10.221 Y50.388
X10.292 Y50.645
X10.425 Y50.876
X10.607 Y51.07
X11.034 Y51.389
X11.533 Y51.574
X12.056 Y51.675
X12.586 Y51.73
X13.118 Y51.759
X13.65 Y51.774
X14.183 Y51.781
X14.716 Y51.786
X15.248 Y51.788
X16.846 Y51.79
X26.967
X50.404
X50.659 Y51.713
X50.888 Y51.576
X51.08 Y51.392
X51.395 Y50.962
X51.577 Y50.462
X51.677 Y49.939
X51.731 Y49.409
X51.759 Y48.877
X51.774 Y48.344
X51.782 Y47.812
X51.786 Y47.279
X51.788 Y46.746
X51.79 Y45.148
Y25.44
Y11.59
X51.712 Y11.336
X51.574 Y11.108
X51.389 Y10.917
X50.958 Y10.603
X50.457 Y10.422
X49.934 Y10.323
X49.404 Y10.269
X48.872 Y10.241
X48.339 Y10.226
X47.807 Y10.218
X47.274 Y10.214
X46.741 Y10.212
X45.143 Y10.21
X15.847
X12.651
X12.385 Y10.226
X12.13 Y10.304
X11.903 Y10.442
X11.712 Y10.628
X11.4 Y11.06
X11.22 Y11.561
X11.121 Y12.085
X11.069 Y12.615
X11.041 Y13.147
X11.026 Y13.679
X11.018 Y14.212
X11.014 Y14.744
X11.011 Y15.81
X11.01 Y19.006
Y49.368
X11.031 Y49.633
X11.113 Y49.887
X11.255 Y50.112
X11.632 Y50.488
X12.113 Y50.716
X12.63 Y50.844
X13.159 Y50.913
X13.69 Y50.95
X14.222 Y50.969
X14.755 Y50.979
X15.288 Y50.984
X15.82 Y50.987
X16.886 Y50.989
X17.418 Y50.99
X49.378
X49.644 Y50.969
X49.896 Y50.884
X50.12 Y50.74
X50.494 Y50.361
X50.719 Y49.878
X50.846 Y49.361
X50.914 Y48.832
X50.95 Y48.301
X50.969 Y47.769
X50.979 Y47.236
X50.984 Y46.703
X50.987 Y46.171
X50.989 Y45.105
X50.99 Y38.713
Y33.387
Y12.613
X50.966 Y12.348
X50.88 Y12.096
X50.734 Y11.873
X50.352 Y11.501
X49.868 Y11.278
X49.351 Y11.153
X48.822 Y11.085
X48.291 Y11.049
X47.759 Y11.031
X47.226 Y11.021
X46.693 Y11.016
X46.161 Y11.013
X45.095 Y11.011
X38.171 Y11.01
X22.191
X13.402
X13.137 Y11.039
X12.886 Y11.129
X12.665 Y11.278
X12.297 Y11.662
X12.075 Y12.147
X11.951 Y12.665
X11.885 Y13.193
X11.849 Y13.725
X11.83 Y14.257
X11.821 Y14.79
X11.816 Y15.322
X11.813 Y15.855
X11.811 Y16.92
X11.81 Y23.845
Y48.614
X11.841 Y48.879
X11.933 Y49.129
X12.084 Y49.347
X12.471 Y49.713
X12.958 Y49.931
X13.476 Y50.052
X14.005 Y50.117
X14.537 Y50.152
X15.069 Y50.17
X15.602 Y50.18
X16.134 Y50.185
X16.667 Y50.187
X17.732 Y50.189
X25.19 Y50.19
X48.627
X48.891 Y50.157
X49.14 Y50.062
X49.357 Y49.908
X49.72 Y49.518
X49.934 Y49.03
X50.054 Y48.511
X50.118 Y47.982
X50.152 Y47.451
X50.17 Y46.918
X50.18 Y46.386
X50.185 Y45.853
X50.187 Y45.32
X50.189 Y44.255
X50.19 Y36.265
Y35.2
Y13.36
X50.154 Y13.097
X50.056 Y12.849
X49.899 Y12.633
X49.506 Y12.275
X49.017 Y12.062
X48.498 Y11.944
X47.969 Y11.881
X47.437 Y11.847
X46.905 Y11.829
X46.372 Y11.82
X45.84 Y11.815
X45.307 Y11.813
X44.242 Y11.811
X36.252 Y11.81
X22.402
X14.412
X14.146 Y11.811
X13.883 Y11.851
X13.637 Y11.953
X13.423 Y12.112
X13.069 Y12.51
X12.859 Y12.999
X12.743 Y13.519
X12.68 Y14.048
X12.647 Y14.58
X12.629 Y15.112
X12.62 Y15.645
X12.615 Y16.177
X12.613 Y16.71
X12.611 Y17.775
X12.61 Y26.298
Y47.605
X12.611 Y47.871
X12.654 Y48.134
X12.759 Y48.378
X12.922 Y48.59
X13.323 Y48.94
X13.814 Y49.146
X14.334 Y49.26
X14.864 Y49.322
X15.395 Y49.354
X15.928 Y49.371
X16.46 Y49.38
X16.993 Y49.385
X17.525 Y49.387
X18.591 Y49.389
X27.646 Y49.39
X47.887
X48.15 Y49.343
X48.392 Y49.234
X48.601 Y49.069
X48.947 Y48.663
X49.15 Y48.171
X49.262 Y47.65
X49.323 Y47.121
X49.355 Y46.589
X49.372 Y46.057
X49.38 Y45.524
X49.385 Y44.992
X49.387 Y44.459
X49.389 Y43.394
X49.39 Y33.806
Y30.61
Y14.097
X49.339 Y13.836
X49.226 Y13.594
X49.058 Y13.388
X48.65 Y13.046
X48.156 Y12.846
X47.635 Y12.736
X47.105 Y12.676
X46.574 Y12.645
X46.041 Y12.628
X45.509 Y12.619
X44.976 Y12.615
X44.443 Y12.613
X42.845 Y12.61
X16.212
X15.147
X14.881 Y12.612
X14.62 Y12.667
X14.381 Y12.784
X14.176 Y12.955
X13.839 Y13.368
X13.642 Y13.863
X13.533 Y14.384
X13.475 Y14.913
X13.444 Y15.445
X13.428 Y15.978
X13.419 Y16.51
X13.415 Y17.043
X13.413 Y17.575
X13.41 Y19.173
Y46.872
X13.413 Y47.138
X13.472 Y47.398
X13.593 Y47.635
X13.767 Y47.837
X14.183 Y48.169
X14.68 Y48.362
X15.202 Y48.469
X15.731 Y48.526
X16.263 Y48.557
X16.795 Y48.573
X17.328 Y48.581
X17.861 Y48.585
X18.393 Y48.588
X19.991 Y48.59
X26.383
X47.157
X47.416 Y48.526
X47.651 Y48.401
X47.85 Y48.224
X48.176 Y47.803
X48.367 Y47.305
X48.471 Y46.783
X48.528 Y46.254
X48.557 Y45.722
X48.573 Y45.189
X48.581 Y44.657
X48.585 Y44.124
X48.588 Y43.591
X48.59 Y41.993
Y19.621
Y14.827
X48.522 Y14.57
X48.393 Y14.337
X48.214 Y14.14
X47.79 Y13.817
X47.291 Y13.63
X46.769 Y13.527
X46.239 Y13.471
X45.707 Y13.442
X45.175 Y13.427
X44.642 Y13.419
X44.109 Y13.415
X43.577 Y13.412
X41.979 Y13.41
X15.878
X15.612 Y13.42
X15.355 Y13.49
X15.124 Y13.623
X14.929 Y13.804
X14.611 Y14.231
X14.426 Y14.731
X14.325 Y15.254
X14.27 Y15.784
X14.242 Y16.316
X14.226 Y16.848
X14.219 Y17.381
X14.214 Y17.913
X14.212 Y18.446
X14.21 Y20.044
Y24.838
Y46.145
X14.224 Y46.411
X14.299 Y46.666
X14.437 Y46.894
X14.622 Y47.086
X15.053 Y47.399
X15.554 Y47.579
X16.077 Y47.678
X16.607 Y47.731
X17.139 Y47.759
X17.672 Y47.774
X18.204 Y47.782
X18.737 Y47.786
X19.802 Y47.789
X22.998 Y47.79
X42.174
X46.436
X46.688 Y47.706
X46.913 Y47.562
X47.289 Y47.185
X47.516 Y46.703
X47.644 Y46.186
X47.713 Y45.658
X47.75 Y45.127
X47.769 Y44.594
X47.779 Y44.062
X47.784 Y43.529
X47.787 Y42.996
X47.789 Y41.931
X47.79 Y35.539
Y15.83
X47.771 Y15.565
X47.689 Y15.311
X47.546 Y15.086
X47.17 Y14.71
X46.688 Y14.482
X46.171 Y14.355
X45.642 Y14.286
X45.111 Y14.25
X44.579 Y14.231
X44.046 Y14.221
X43.513 Y14.216
X42.981 Y14.213
X41.915 Y14.211
X35.523 Y14.21
X34.991
X16.348
X16.097 Y14.3
X15.875 Y14.447
X15.504 Y14.83
X15.28 Y15.313
X15.154 Y15.83
X15.086 Y16.359
X15.05 Y16.89
X15.031 Y17.423
X15.021 Y17.955
X15.016 Y18.488
X15.013 Y19.02
X15.011 Y20.086
X15.01 Y26.478
Y45.121
Y45.654
X15.1 Y45.904
X15.248 Y46.126
X15.631 Y46.496
X16.114 Y46.72
X16.632 Y46.845
X17.16 Y46.914
X17.692 Y46.95
X18.224 Y46.969
X18.757 Y46.979
X19.289 Y46.984
X19.822 Y46.987
X20.887 Y46.989
X27.279 Y46.99
X45.39
X45.655 Y46.968
X45.908 Y46.884
X46.13 Y46.737
X46.503 Y46.357
X46.725 Y45.872
X46.849 Y45.354
X46.916 Y44.826
X46.951 Y44.294
X46.97 Y43.762
X46.979 Y43.23
X46.984 Y42.697
X46.987 Y42.164
X46.989 Y41.099
X46.99 Y34.174
Y28.848
Y16.596
X46.962 Y16.331
X46.873 Y16.08
X46.724 Y15.86
X46.34 Y15.491
X45.854 Y15.272
X45.336 Y15.149
X44.807 Y15.083
X44.276 Y15.048
X43.743 Y15.03
X43.211 Y15.02
X42.678 Y15.015
X42.145 Y15.013
X41.08 Y15.011
X33.623 Y15.01
X17.376
X17.112 Y15.039
X16.862 Y15.132
X16.644 Y15.286
X16.281 Y15.675
X16.066 Y16.163
X15.946 Y16.682
X15.882 Y17.211
X15.848 Y17.742
X15.83 Y18.274
X15.82 Y18.807
X15.815 Y19.34
X15.813 Y19.872
X15.811 Y20.938
X15.81 Y22.003
Y44.641
X15.843 Y44.906
X15.941 Y45.153
X16.097 Y45.369
X16.492 Y45.727
X16.981 Y45.938
X17.5 Y46.056
X18.029 Y46.119
X18.561 Y46.153
X19.093 Y46.171
X19.626 Y46.18
X20.158 Y46.185
X20.691 Y46.187
X21.756 Y46.189
X29.746 Y46.19
X42.53
X44.661
X44.924 Y46.151
X45.171 Y46.049
X45.383 Y45.889
X45.736 Y45.49
X45.944 Y45.
X46.059 Y44.48
X46.121 Y43.951
X46.154 Y43.419
X46.171 Y42.887
X46.18 Y42.354
X46.185 Y41.821
X46.187 Y41.289
X46.189 Y40.223
X46.19 Y31.168
Y17.319
X46.145 Y17.056
X46.038 Y16.812
X45.874 Y16.602
X45.47 Y16.255
X44.978 Y16.051
X44.458 Y15.938
X43.929 Y15.877
X43.397 Y15.845
X42.864 Y15.828
X42.332 Y15.82
X41.799 Y15.815
X41.267 Y15.813
X40.201 Y15.811
X30.613 Y15.81
X28.483
X18.362
X18.096 Y15.811
X17.834 Y15.861
X17.592 Y15.973
X17.386 Y16.141
X17.045 Y16.55
X16.845 Y17.044
X16.735 Y17.565
X16.676 Y18.095
X16.644 Y18.626
X16.628 Y19.159
X16.619 Y19.691
X16.615 Y20.224
X16.613 Y20.757
X16.61 Y22.355
Y43.661
X16.612 Y43.928
X16.667 Y44.188
X16.785 Y44.427
X16.957 Y44.631
X17.371 Y44.965
X17.867 Y45.16
X18.388 Y45.268
X18.918 Y45.326
X19.45 Y45.356
X19.982 Y45.372
X20.515 Y45.381
X21.047 Y45.385
X21.58 Y45.388
X23.178 Y45.39
X26.907
X43.952
X44.211 Y45.329
X44.447 Y45.205
X44.647 Y45.03
X44.975 Y44.61
X45.166 Y44.113
X45.271 Y43.59
X45.328 Y43.061
X45.357 Y42.529
X45.373 Y41.996
X45.381 Y41.464
X45.385 Y40.931
X45.388 Y40.398
X45.39 Y38.8
Y18.027
X45.323 Y17.769
X45.194 Y17.536
X45.015 Y17.339
X44.591 Y17.017
X44.092 Y16.829
X43.57 Y16.726
X43.04 Y16.671
X42.508 Y16.642
X41.975 Y16.627
X41.443 Y16.619
X40.91 Y16.615
X40.378 Y16.612
X38.78 Y16.61
X19.071
X18.805 Y16.621
X18.548 Y16.691
X18.318 Y16.825
X18.124 Y17.007
X17.807 Y17.436
X17.624 Y17.936
X17.523 Y18.459
X17.47 Y18.989
X17.441 Y19.521
X17.426 Y20.053
X17.418 Y20.586
X17.414 Y21.119
X17.412 Y21.651
X17.41 Y23.249
Y42.958
X17.427 Y43.224
X17.505 Y43.478
X17.646 Y43.705
X17.832 Y43.895
X18.266 Y44.204
X18.768 Y44.382
X19.291 Y44.48
X19.821 Y44.532
X20.353 Y44.56
X20.886 Y44.574
X21.418 Y44.582
X21.951 Y44.586
X23.016 Y44.589
X26.212 Y44.59
X43.258
X43.508 Y44.5
X43.729 Y44.352
X44.1 Y43.969
X44.323 Y43.485
X44.448 Y42.967
X44.515 Y42.439
X44.551 Y41.908
X44.57 Y41.375
X44.579 Y40.843
X44.584 Y40.31
X44.587 Y39.777
X44.589 Y38.712
X44.59 Y31.787
Y20.601
Y19.003
X44.564 Y18.738
X44.475 Y18.487
X44.327 Y18.266
X43.944 Y17.896
X43.46 Y17.674
X42.942 Y17.55
X42.413 Y17.484
X41.882 Y17.449
X41.349 Y17.43
X40.817 Y17.42
X40.284 Y17.415
X39.752 Y17.413
X38.686 Y17.411
X31.229 Y17.41
X19.777
X19.512 Y17.444
X19.264 Y17.54
X19.046 Y17.694
X18.683 Y18.084
X18.467 Y18.57
X18.346 Y19.089
X18.282 Y19.618
X18.247 Y20.149
X18.23 Y20.682
X18.22 Y21.214
X18.215 Y21.747
X18.213 Y22.28
X18.211 Y23.345
X18.21 Y31.335
Y39.858
Y41.988
X18.211 Y42.255
X18.253 Y42.518
X18.358 Y42.763
X18.517 Y42.976
X18.914 Y43.331
X19.404 Y43.542
X19.923 Y43.658
X20.452 Y43.721
X20.984 Y43.754
X21.516 Y43.771
X22.049 Y43.78
X22.582 Y43.785
X23.114 Y43.787
X24.18 Y43.789
X33.235 Y43.79
X42.29
X42.553 Y43.747
X42.797 Y43.639
X43.006 Y43.474
X43.35 Y43.068
X43.552 Y42.575
X43.664 Y42.054
X43.724 Y41.525
X43.755 Y40.993
X43.772 Y40.461
X43.781 Y39.928
X43.785 Y39.396
X43.787 Y38.863
X43.79 Y37.265
Y21.285
Y19.687
X43.738 Y19.426
X43.624 Y19.185
X43.455 Y18.979
X43.044 Y18.641
X42.549 Y18.443
X42.028 Y18.334
X41.498 Y18.275
X40.967 Y18.244
X40.434 Y18.228
X39.902 Y18.219
X39.369 Y18.215
X38.836 Y18.212
X37.238 Y18.21
X20.726
X20.459 Y18.214
X20.2 Y18.272
X19.962 Y18.393
X19.761 Y18.567
X19.43 Y18.985
X19.237 Y19.481
X19.13 Y20.003
X19.073 Y20.533
X19.043 Y21.064
X19.027 Y21.597
X19.019 Y22.129
X19.015 Y22.662
X19.012 Y23.195
X19.01 Y24.793
Y41.305
X19.019 Y41.572
X19.085 Y41.83
X19.213 Y42.063
X19.392 Y42.26
X19.816 Y42.583
X20.315 Y42.77
X20.837 Y42.874
X21.367 Y42.929
X21.899 Y42.958
X22.431 Y42.973
X22.964 Y42.981
X23.497 Y42.986
X24.029 Y42.988
X25.627 Y42.99
X41.607
X41.863 Y42.916
X42.091 Y42.779
X42.284 Y42.595
X42.598 Y42.164
X42.779 Y41.664
X42.878 Y41.14
X42.931 Y40.61
X42.959 Y40.078
X42.974 Y39.546
X42.982 Y39.013
X42.986 Y38.481
X42.989 Y37.415
X42.99 Y34.219
Y20.37
X42.908 Y20.117
X42.766 Y19.891
X42.391 Y19.513
X41.91 Y19.284
X41.393 Y19.156
X40.865 Y19.087
X40.333 Y19.05
X39.801 Y19.031
X39.268 Y19.021
X38.736 Y19.016
X38.203 Y19.013
X37.138 Y19.011
X30.746 Y19.01
X21.158
X20.906 Y19.096
X20.682 Y19.241
X20.308 Y19.62
X20.081 Y20.102
X19.955 Y20.62
X19.886 Y21.148
X19.85 Y21.679
X19.831 Y22.212
X19.821 Y22.744
X19.816 Y23.277
X19.813 Y23.809
X19.811 Y24.875
X19.81 Y31.799
Y40.855
X19.901 Y41.105
X20.048 Y41.327
X20.431 Y41.698
X20.914 Y41.921
X21.432 Y42.047
X21.96 Y42.114
X22.492 Y42.15
X23.024 Y42.169
X23.557 Y42.179
X24.089 Y42.184
X24.622 Y42.187
X25.687 Y42.189
X28.883 Y42.19
X40.602
X40.867 Y42.164
X41.118 Y42.074
X41.339 Y41.925
X41.707 Y41.54
X41.928 Y41.055
X42.051 Y40.537
X42.117 Y40.009
X42.152 Y39.477
X42.17 Y38.945
X42.18 Y38.412
X42.185 Y37.88
X42.187 Y37.347
X42.189 Y36.282
X42.19 Y28.292
Y21.367
X42.159 Y21.102
X42.065 Y20.853
X41.911 Y20.636
X41.519 Y20.276
X41.03 Y20.063
X40.511 Y19.944
X39.982 Y19.881
X39.451 Y19.847
X38.918 Y19.829
X38.386 Y19.82
X37.853 Y19.815
X37.32 Y19.813
X36.255 Y19.811
X27.732 Y19.81
X26.134
X22.139
X21.876 Y19.847
X21.629 Y19.948
X21.416 Y20.108
X21.063 Y20.507
X20.856 Y20.997
X20.74 Y21.517
X20.679 Y22.046
X20.646 Y22.578
X20.629 Y23.11
X20.62 Y23.643
X20.615 Y24.176
X20.613 Y24.708
X20.611 Y25.774
X20.61 Y34.829
Y39.889
X20.653 Y40.152
X20.761 Y40.396
X20.926 Y40.605
X21.332 Y40.949
X21.825 Y41.151
X22.346 Y41.263
X22.875 Y41.323
X23.407 Y41.355
X23.939 Y41.372
X24.472 Y41.381
X25.005 Y41.385
X25.537 Y41.387
X27.135 Y41.39
X39.919
X40.18 Y41.337
X40.42 Y41.222
X40.625 Y41.051
X40.962 Y40.639
X41.159 Y40.144
X41.267 Y39.622
X41.325 Y39.093
X41.356 Y38.561
X41.372 Y38.028
X41.381 Y37.496
X41.385 Y36.963
X41.388 Y36.431
X41.39 Y34.833
Y22.049
X41.331 Y21.789
X41.208 Y21.553
X41.032 Y21.352
X40.613 Y21.024
X40.115 Y20.834
X39.593 Y20.728
X39.063 Y20.672
X38.532 Y20.642
X37.999 Y20.627
X37.467 Y20.619
X36.934 Y20.615
X36.401 Y20.612
X34.803 Y20.61
X23.085
X22.818 Y20.617
X22.56 Y20.683
X22.328 Y20.814
X22.132 Y20.994
X21.812 Y21.419
X21.626 Y21.919
X21.525 Y22.442
X21.47 Y22.971
X21.441 Y23.503
X21.426 Y24.036
X21.419 Y24.568
X21.414 Y25.101
X21.412 Y25.634
X21.41 Y27.232
Y36.82
Y38.95
X21.424 Y39.216
X21.5 Y39.472
X21.638 Y39.699
X21.823 Y39.891
X22.256 Y40.202
X22.757 Y40.381
X23.281 Y40.48
X23.811 Y40.532
X24.343 Y40.56
X24.875 Y40.574
X25.408 Y40.582
X25.94 Y40.586
X27.006 Y40.589
X30.202 Y40.59
X39.257
X39.508 Y40.5
X39.729 Y40.352
X40.101 Y39.97
X40.324 Y39.486
X40.448 Y38.968
X40.515 Y38.44
X40.551 Y37.909
X40.57 Y37.376
X40.579 Y36.844
X40.584 Y36.311
X40.587 Y35.778
X40.589 Y34.713
X40.59 Y27.788
Y22.994
X40.562 Y22.729
X40.472 Y22.479
X40.322 Y22.259
X39.938 Y21.89
X39.452 Y21.67
X38.934 Y21.548
X38.405 Y21.483
X37.874 Y21.448
X37.341 Y21.43
X36.809 Y21.42
X36.276 Y21.415
X35.743 Y21.413
X34.678 Y21.411
X29.884 Y21.41
X23.758
X23.495 Y21.448
X23.248 Y21.548
X23.033 Y21.705
X22.673 Y22.098
X22.461 Y22.587
X22.343 Y23.106
X22.28 Y23.635
X22.247 Y24.167
X22.229 Y24.699
X22.22 Y25.232
X22.215 Y25.764
X22.213 Y26.297
X22.211 Y27.362
X22.21 Y36.418
Y38.016
X22.211 Y38.282
X22.26 Y38.544
X22.37 Y38.786
X22.535 Y38.996
X22.937 Y39.344
X23.429 Y39.549
X23.95 Y39.662
X24.479 Y39.723
X25.01 Y39.755
X25.543 Y39.772
X26.075 Y39.781
X26.608 Y39.785
X27.141 Y39.787
X28.739 Y39.79
X38.327
X38.588 Y39.74
X38.828 Y39.623
X39.032 Y39.452
X39.366 Y39.037
X39.561 Y38.542
X39.669 Y38.02
X39.726 Y37.49
X39.757 Y36.959
X39.773 Y36.426
X39.781 Y35.894
X39.785 Y35.361
X39.788 Y34.828
X39.79 Y33.23
Y30.567
Y23.642
X39.729 Y23.383
X39.604 Y23.148
X39.428 Y22.948
X39.007 Y22.622
X38.509 Y22.432
X37.987 Y22.328
X37.457 Y22.272
X36.925 Y22.242
X36.393 Y22.227
X35.86 Y22.219
X35.328 Y22.215
X34.795 Y22.212
X33.197 Y22.21
X24.674
X24.408 Y22.222
X24.151 Y22.291
X23.92 Y22.425
X23.725 Y22.606
X23.408 Y23.034
X23.224 Y23.534
X23.123 Y24.057
X23.069 Y24.587
X23.041 Y25.118
X23.026 Y25.651
X23.018 Y26.184
X23.014 Y26.716
X23.012 Y27.249
X23.01 Y28.847
Y37.369
X23.033 Y37.635
X23.114 Y37.888
X23.257 Y38.113
X23.444 Y38.302
X23.88 Y38.609
X24.383 Y38.785
X24.907 Y38.882
X25.437 Y38.933
X25.969 Y38.96
X26.501 Y38.975
X27.034 Y38.982
X27.566 Y38.986
X28.632 Y38.989
X31.828 Y38.99
X33.958
X37.421
X37.685 Y38.959
X37.935 Y38.865
X38.153 Y38.713
X38.519 Y38.326
X38.734 Y37.839
X38.854 Y37.32
X38.919 Y36.791
X38.953 Y36.259
X38.971 Y35.727
X38.98 Y35.194
X38.985 Y34.662
X38.987 Y34.129
X38.989 Y33.064
X38.99 Y24.541
X38.949 Y24.278
X38.845 Y24.033
X38.685 Y23.82
X38.288 Y23.465
X37.798 Y23.256
X37.278 Y23.141
X36.749 Y23.079
X36.217 Y23.046
X35.685 Y23.029
X35.152 Y23.02
X34.619 Y23.015
X34.087 Y23.013
X33.021 Y23.011
X25.564 Y23.01
X25.298 Y23.011
X25.037 Y23.065
X24.797 Y23.18
X24.59 Y23.348
X24.247 Y23.755
X24.046 Y24.248
X23.935 Y24.769
X23.876 Y25.299
X23.844 Y25.831
X23.828 Y26.363
X23.819 Y26.896
X23.815 Y27.428
X23.813 Y27.961
X23.81 Y29.559
Y36.484
X23.815 Y36.75
X23.881 Y37.008
X24.008 Y37.242
X24.183 Y37.442
X24.601 Y37.773
X25.098 Y37.965
X25.62 Y38.071
X26.149 Y38.127
X26.681 Y38.157
X27.214 Y38.173
X27.746 Y38.181
X28.279 Y38.185
X28.812 Y38.188
X30.41 Y38.19
X36.802
X37.058 Y38.117
X37.287 Y37.981
X37.481 Y37.799
X37.796 Y37.369
X37.978 Y36.869
X38.078 Y36.345
X38.131 Y35.815
X38.159 Y35.284
X38.174 Y34.751
X38.182 Y34.218
X38.186 Y33.686
X38.189 Y32.621
X38.19 Y29.425
Y25.163
X38.106 Y24.911
X37.962 Y24.686
X37.774 Y24.497
X37.338 Y24.191
X36.836 Y24.015
X36.312 Y23.918
X35.782 Y23.867
X35.25 Y23.84
X34.717 Y23.825
X34.185 Y23.818
X33.652 Y23.814
X32.587 Y23.811
X29.391 Y23.81
X26.195
X25.93 Y23.841
X25.68 Y23.932
X25.46 Y24.082
X25.09 Y24.466
X24.871 Y24.951
X24.749 Y25.47
X24.683 Y25.998
X24.648 Y26.53
X24.63 Y27.062
X24.62 Y27.595
X24.615 Y28.128
X24.613 Y28.66
X24.611 Y29.725
X24.61 Y35.585
Y35.851
X24.653 Y36.114
X24.757 Y36.359
X24.916 Y36.573
X25.311 Y36.93
X25.8 Y37.141
X26.32 Y37.258
X26.849 Y37.32
X27.38 Y37.354
X27.913 Y37.371
X28.445 Y37.38
X28.978 Y37.385
X29.511 Y37.387
X30.576 Y37.389
X35.903 Y37.39
