(1001)
(T2  D=0.6 CR=0. - ZMIN=0. - FLAT END MILL)
G0 G90 G94 G17
G21
G53 Z0.

(XY-FINISHING - 0.6MM)
M5
M9
T2
S16400 M3
G4 P4.
G55
M9
G0 X7.919 Y30.312
Z27.
Z8.06
G1 Z6.76 F1500.
X7.915 Y30.315 Z6.737
X7.905 Y30.324 Z6.718
X7.89 Y30.336 Z6.705
X7.873 Y30.351 Z6.7
X7.316 Y30.816
G3 X7.231 Y30.809 I-0.038 J-0.046
G1 X7.229 Y30.807
X7.226 Y30.803
X7.214 Y30.79
X7.201 Y30.777
X7.188 Y30.767
X7.176 Y30.757
X7.164 Y30.749
X7.103 Y30.713
X6.49 Y30.359
Y30.357
X7.164 Y30.014
X7.18 Y30.006
X7.195 Y29.996
X7.211 Y29.986
X7.226 Y29.973
X7.236 Y29.965
X7.246 Y29.955
X7.258 Y29.942
X7.269 Y29.929
X7.279 Y29.915
X7.288 Y29.902
X7.293 Y29.893
X7.301 Y29.878
X7.305 Y29.87
X7.307 Y29.866
X7.308 Y29.865
G3 X7.341 Y29.833 I0.055 J0.024
G2 X7.379 Y29.769 I-0.022 J-0.056
G1 X7.362 Y29.632
G2 X7.309 Y29.58 I-0.06 J0.007
G3 X7.268 Y29.558 I0.007 J-0.06
G1 X7.265 Y29.554
X7.252 Y29.539
X7.236 Y29.523
X7.226 Y29.514
X7.211 Y29.502
X7.195 Y29.492
X6.556 Y29.077
X6.559 Y29.075
X7.226 Y28.778
X7.257 Y28.764
X7.272 Y28.756
X7.288 Y28.747
X7.306 Y28.735
X7.324 Y28.722
X7.337 Y28.71
X7.343 Y28.704
X7.346 Y28.701
G3 X7.389 Y28.683 I0.043 J0.042
G2 X7.448 Y28.625 I0. J-0.06
G1 X7.458 Y28.383
G2 X7.403 Y28.321 I-0.06 J-0.002
G3 X7.362 Y28.299 I0.005 J-0.06
G1 X7.36 Y28.297
X7.354 Y28.29
X7.349 Y28.285
X7.334 Y28.27
X7.319 Y28.257
X7.288 Y28.234
X6.691 Y27.8
Y27.799
X7.349 Y27.546
X7.411 Y27.522
X7.426 Y27.516
X7.442 Y27.508
X7.457 Y27.498
X7.472 Y27.488
X7.473
X7.48 Y27.482
G3 X7.525 Y27.47 I0.036 J0.048
G2 X7.593 Y27.417 I0.008 J-0.059
G1 X7.623 Y27.147
G2 X7.57 Y27.08 I-0.06 J-0.007
G3 X7.53 Y27.058 I0.006 J-0.06
G1 X7.528 Y27.056
X7.515 Y27.041
X7.5 Y27.026
X7.473 Y27.003
X6.891 Y26.532
X6.893 Y26.531
X7.596 Y26.302
X7.627 Y26.292
X7.642 Y26.286
X7.658 Y26.279
X7.678 Y26.268
X7.681 Y26.266
G3 X7.726 Y26.259 I0.031 J0.051
G2 X7.799 Y26.214 I0.014 J-0.058
G1 X7.859 Y25.94
G2 X7.812 Y25.868 I-0.059 J-0.013
G3 X7.773 Y25.843 I0.011 J-0.059
G1 X7.771 Y25.839
X7.759 Y25.823
X7.75 Y25.812
X7.741 Y25.802
X7.719 Y25.782
X7.158 Y25.276
X7.16 Y25.275
X7.88 Y25.082
X7.904 Y25.076
X7.92 Y25.07
X7.935 Y25.064
X7.943 Y25.061
X7.947 Y25.059
G3 X7.993 Y25.057 I0.025 J0.054
G2 X8.07 Y25.02 I0.02 J-0.056
G1 X8.159 Y24.764
G2 X8.122 Y24.688 I-0.057 J-0.02
G3 X8.088 Y24.657 I0.019 J-0.057
G1 X8.087 Y24.656
X8.084 Y24.651
X8.076 Y24.635
X8.066 Y24.62
X8.055 Y24.604
X8.042 Y24.589
X8.028 Y24.574
X7.491 Y24.037
X7.492 Y24.035
X8.213 Y23.882
X8.244 Y23.876
X8.259 Y23.871
X8.275 Y23.866
X8.295 Y23.859
X8.315 Y23.849
X8.326 Y23.843
X8.331 Y23.84
G3 X8.376 Y23.833 I0.031 J0.052
G2 X8.447 Y23.795 I0.015 J-0.058
G1 X8.519 Y23.597
G2 X8.489 Y23.523 I-0.056 J-0.02
G3 X8.459 Y23.488 I0.027 J-0.054
G1 Y23.487
X8.458 Y23.484
X8.456 Y23.479
X8.449 Y23.463
X8.442 Y23.448
X8.434 Y23.432
X8.424 Y23.417
X8.412 Y23.4
X8.398 Y23.383
X7.887 Y22.816
X7.889 Y22.815
X8.583 Y22.705
X8.645 Y22.695
X8.66 Y22.692
X8.675 Y22.688
X8.691 Y22.683
X8.706 Y22.677
X8.708
X8.723 Y22.67
X8.73 Y22.666
X8.734 Y22.665
G3 X8.78 Y22.661 I0.028 J0.053
G2 X8.853 Y22.626 I0.018 J-0.057
G1 X8.94 Y22.418
G2 X8.91 Y22.341 I-0.055 J-0.023
G3 X8.879 Y22.307 I0.026 J-0.054
G1 X8.874 Y22.291
X8.868 Y22.276
X8.86 Y22.261
X8.851 Y22.245
X8.841 Y22.229
X8.83 Y22.213
X8.805 Y22.183
X8.348 Y21.619
X8.35 Y21.616
X9.107 Y21.537
X9.123 Y21.535
X9.138 Y21.532
X9.153 Y21.528
X9.169 Y21.523
X9.184 Y21.518
X9.2 Y21.511
X9.212 Y21.505
G3 X9.258 Y21.502 I0.026 J0.054
G2 X9.333 Y21.468 I0.02 J-0.057
G1 X9.419 Y21.259
G2 X9.391 Y21.183 I-0.056 J-0.023
G3 X9.361 Y21.148 I0.028 J-0.053
G1 X9.36 Y21.146
X9.359 Y21.143
X9.357 Y21.135
X9.35 Y21.119
X9.343 Y21.104
X9.335 Y21.089
X9.325 Y21.073
X9.323 Y21.07
X9.281 Y21.012
X8.869 Y20.445
X8.871 Y20.444
X9.631 Y20.404
X9.646 Y20.403
X9.661 Y20.401
X9.676 Y20.398
X9.691 Y20.395
X9.693 Y20.394
X9.709 Y20.39
X9.724 Y20.384
X9.739 Y20.378
X9.755 Y20.37
X9.762 Y20.366
X9.765 Y20.364
G3 X9.811 Y20.359 I0.03 J0.052
G2 X9.883 Y20.323 I0.016 J-0.058
G1 X9.962 Y20.119
G2 X9.931 Y20.043 I-0.056 J-0.022
G3 X9.9 Y20.009 I0.025 J-0.054
G1 X9.895 Y19.994
X9.888 Y19.978
X9.88 Y19.963
X9.878 Y19.959
X9.842 Y19.901
X9.452 Y19.301
X9.454 Y19.3
X10.187
X10.217
X10.233 Y19.299
X10.248 Y19.298
X10.264 Y19.296
X10.279 Y19.293
X10.294 Y19.289
X10.31 Y19.285
X10.311 Y19.284
X10.314 Y19.283
G3 X10.36 Y19.286 I0.019 J0.057
G2 X10.44 Y19.259 I0.026 J-0.054
G1 X10.558 Y19.024
G2 X10.531 Y18.943 I-0.054 J-0.027
G3 X10.501 Y18.909 I0.027 J-0.054
G1 X10.499 Y18.903
X10.495 Y18.891
X10.487 Y18.872
X10.477 Y18.853
X10.433 Y18.777
X10.094 Y18.19
X10.096 Y18.188
X10.803 Y18.225
X10.865 Y18.229
X10.88
X10.896 Y18.228
X10.911 Y18.226
X10.927 Y18.224
X10.931 Y18.223
X10.932 Y18.222
G3 X10.977 Y18.231 I0.012 J0.059
G2 X11.062 Y18.213 I0.033 J-0.05
G1 X11.211 Y17.974
G2 X11.19 Y17.891 I-0.051 J-0.032
G3 X11.163 Y17.854 I0.03 J-0.052
G1 X11.162 Y17.85
X11.157 Y17.835
X11.151 Y17.82
X11.145 Y17.804
X11.114 Y17.742
X10.794 Y17.114
X10.795 Y17.112
X11.543 Y17.191
X11.574 Y17.193
X11.59
X11.605 Y17.192
X11.614
G3 X11.658 Y17.205 I0.005 J0.06
G2 X11.744 Y17.197 I0.039 J-0.046
G1 X11.915 Y16.981
G2 X11.904 Y16.895 I-0.047 J-0.037
G3 X11.881 Y16.856 I0.036 J-0.048
G1 X11.88 Y16.848
X11.877 Y16.833
X11.874 Y16.817
X11.87 Y16.802
X11.864 Y16.788
X11.852 Y16.758
X11.548 Y16.075
X11.55 Y16.074
X12.284 Y16.19
X12.314 Y16.194
X12.33 Y16.196
X12.345
X12.361
X12.368
X12.372 Y16.195
X12.374
G3 X12.418 Y16.209 I0.005 J0.06
G2 X12.5 Y16.204 I0.039 J-0.046
G1 X12.666 Y16.027
G2 X12.665 Y15.944 I-0.044 J-0.041
G3 X12.648 Y15.902 I0.043 J-0.042
G1 Y15.9
Y15.892
Y15.877
X12.646 Y15.861
X12.644 Y15.846
X12.641 Y15.83
X12.637 Y15.815
X12.632 Y15.8
X12.621 Y15.769
X12.356 Y15.078
X12.358 Y15.076
X13.085 Y15.231
X13.116 Y15.237
X13.132 Y15.239
X13.147 Y15.24
X13.162 Y15.241
X13.178
X13.193 Y15.239
G3 X13.237 Y15.254 I0.004 J0.06
G2 X13.313 Y15.256 I0.039 J-0.045
G1 X13.427 Y15.167
G2 X13.445 Y15.096 I-0.037 J-0.047
G3 X13.444 Y15.05 I0.055 J-0.024
G1 X13.445 Y15.048
X13.446 Y15.044
X13.451 Y15.029
X13.455 Y15.014
X13.46 Y14.991
X13.463 Y14.967
X13.464 Y14.951
Y14.936
Y14.921
X13.462 Y14.905
X13.46 Y14.886
X13.455 Y14.867
X13.448 Y14.844
X13.214 Y14.124
X13.217 Y14.122
X13.949 Y14.318
X13.964 Y14.322
X13.98 Y14.325
X13.995 Y14.327
X14.01 Y14.329
X14.026
X14.041
X14.057 Y14.328
X14.061
G3 X14.105 Y14.341 I0.006 J0.06
G2 X14.185 Y14.337 I0.038 J-0.046
G1 X14.337 Y14.185
G2 X14.341 Y14.105 I-0.042 J-0.042
G3 X14.328 Y14.061 I0.046 J-0.038
G1 Y14.057
X14.329 Y14.042
Y14.026
Y14.011
X14.328 Y13.995
X14.325 Y13.98
X14.322 Y13.965
X14.319 Y13.951
X14.122 Y13.216
X14.124 Y13.215
X14.843 Y13.448
X14.859 Y13.453
X14.874 Y13.457
X14.889 Y13.46
X14.905 Y13.462
X14.92 Y13.464
X14.936
X14.951
X14.966 Y13.463
X14.982 Y13.462
X14.997 Y13.459
X15.013 Y13.456
X15.028 Y13.452
X15.044 Y13.446
X15.047 Y13.445
X15.049 Y13.444
G3 X15.095 Y13.445 I0.022 J0.056
G2 X15.167 Y13.427 I0.024 J-0.055
G1 X15.256 Y13.313
G2 X15.254 Y13.237 I-0.047 J-0.037
G3 X15.239 Y13.194 I0.045 J-0.039
G1 X15.241 Y13.178
Y13.163
X15.24 Y13.147
X15.239 Y13.132
X15.237 Y13.116
X15.224 Y13.055
X15.076 Y12.357
X15.077 Y12.355
X15.774 Y12.623
X15.799 Y12.632
X15.815 Y12.637
X15.83 Y12.641
X15.845 Y12.644
X15.861 Y12.646
X15.876 Y12.648
X15.892
X15.899
X15.901
G3 X15.944 Y12.665 I0.001 J0.06
G2 X16.027 Y12.666 I0.042 J-0.043
G1 X16.204 Y12.501
G2 X16.209 Y12.418 I-0.041 J-0.044
G3 X16.195 Y12.374 I0.046 J-0.039
G1 Y12.372
X16.196 Y12.369
Y12.361
Y12.345
Y12.33
X16.194 Y12.315
X16.185 Y12.253
X16.074 Y11.55
X16.075 Y11.548
X16.724 Y11.837
X16.786 Y11.864
X16.801 Y11.869
X16.817 Y11.874
X16.832 Y11.877
X16.848 Y11.88
X16.854 Y11.881
X16.857
G3 X16.897 Y11.904 I-0.008 J0.06
G2 X16.982 Y11.914 I0.047 J-0.037
G1 X17.196 Y11.744
G2 X17.205 Y11.659 I-0.037 J-0.047
G3 X17.192 Y11.615 I0.047 J-0.038
G1 Y11.613
Y11.605
X17.193 Y11.59
Y11.574
X17.187 Y11.513
X17.112 Y10.795
X17.114 Y10.794
X17.773 Y11.129
X17.8 Y11.143
X17.817 Y11.15
X17.834 Y11.157
X17.85 Y11.161
X17.854 Y11.162
G3 X17.89 Y11.19 I-0.015 J0.058
G2 X17.974 Y11.211 I0.052 J-0.03
G1 X18.213 Y11.064
G2 X18.231 Y10.98 I-0.031 J-0.051
G3 X18.222 Y10.935 I0.05 J-0.033
G1 X18.224 Y10.927
X18.226 Y10.911
X18.228 Y10.896
X18.229 Y10.881
Y10.865
X18.227 Y10.834
X18.188 Y10.094
X18.19
X18.831 Y10.464
X18.857 Y10.479
X18.87 Y10.486
X18.883 Y10.492
X18.898 Y10.498
X18.906 Y10.5
X18.908 Y10.501
G3 X18.943 Y10.531 I-0.019 J0.057
G2 X19.023 Y10.557 I0.053 J-0.027
G1 X19.259 Y10.44
G2 X19.286 Y10.36 I-0.027 J-0.054
G3 X19.283 Y10.314 I0.054 J-0.027
G1 X19.285 Y10.31
X19.289 Y10.295
X19.293 Y10.279
X19.296 Y10.264
X19.298 Y10.248
X19.299 Y10.233
X19.3 Y10.218
Y10.032
Y9.454
X19.302 Y9.452
X19.931 Y9.861
X19.962 Y9.88
X19.978 Y9.888
X19.993 Y9.895
X20.005 Y9.899
X20.008 Y9.9
X20.01 Y9.901
G3 X20.044 Y9.931 I-0.019 J0.057
G2 X20.119 Y9.96 I0.054 J-0.027
G1 X20.323 Y9.882
G2 X20.359 Y9.81 I-0.021 J-0.056
G3 X20.365 Y9.765 I0.058 J-0.016
G1 X20.366 Y9.762
X20.369 Y9.756
X20.375 Y9.746
X20.384 Y9.724
X20.39 Y9.709
X20.394 Y9.693
X20.398 Y9.678
X20.401 Y9.662
X20.403 Y9.647
X20.404 Y9.632
X20.444 Y8.872
X20.446 Y8.87
X21.042 Y9.303
X21.073 Y9.325
X21.088 Y9.334
X21.103 Y9.343
X21.116 Y9.349
X21.128 Y9.354
X21.147 Y9.361
X21.149
G3 X21.184 Y9.391 I-0.018 J0.057
G2 X21.26 Y9.419 I0.053 J-0.028
G1 X21.467 Y9.333
G2 X21.501 Y9.259 I-0.023 J-0.055
G3 X21.505 Y9.213 I0.057 J-0.018
G1 Y9.211
X21.507 Y9.207
X21.511 Y9.2
X21.518 Y9.184
X21.523 Y9.169
X21.53 Y9.144
X21.535 Y9.119
X21.537 Y9.107
X21.616 Y8.35
X21.619 Y8.348
X22.175 Y8.799
X22.214 Y8.83
X22.225 Y8.839
X22.237 Y8.847
X22.249 Y8.854
X22.261 Y8.861
X22.275 Y8.867
X22.291 Y8.874
X22.306 Y8.879
X22.308 Y8.88
G3 X22.343 Y8.91 I-0.018 J0.057
G2 X22.419 Y8.938 I0.053 J-0.027
G1 X22.627 Y8.853
G2 X22.661 Y8.779 I-0.023 J-0.056
G3 X22.665 Y8.733 I0.057 J-0.018
G1 X22.667 Y8.729
X22.671 Y8.722
X22.677 Y8.706
X22.683 Y8.691
X22.688 Y8.676
X22.692 Y8.66
X22.695 Y8.645
X22.7 Y8.614
X22.814 Y7.89
X22.817 Y7.888
X23.349 Y8.367
X23.385 Y8.4
X23.405 Y8.416
X23.424 Y8.429
X23.436 Y8.436
X23.447 Y8.442
X23.462 Y8.449
X23.478 Y8.455
X23.486 Y8.458
X23.489 Y8.459
X23.491 Y8.46
G3 X23.526 Y8.49 I-0.019 J0.057
G2 X23.601 Y8.519 I0.054 J-0.027
G1 X23.796 Y8.447
G2 X23.833 Y8.376 I-0.021 J-0.056
G3 X23.84 Y8.331 I0.058 J-0.015
G1 X23.842 Y8.327
X23.846 Y8.32
X23.854 Y8.305
X23.861 Y8.29
X23.866 Y8.275
X23.871 Y8.259
X23.876 Y8.244
X23.879 Y8.229
X24.035 Y7.492
X24.037 Y7.491
X24.557 Y8.011
X24.583 Y8.037
X24.597 Y8.048
X24.61 Y8.059
X24.619 Y8.065
X24.634 Y8.075
X24.65 Y8.084
X24.654 Y8.086
X24.656 Y8.087
G3 X24.686 Y8.121 I-0.027 J0.054
G2 X24.762 Y8.159 I0.057 J-0.019
G1 X25.021 Y8.069
G2 X25.058 Y7.992 I-0.02 J-0.057
G3 X25.06 Y7.946 I0.056 J-0.021
G1 X25.061 Y7.942
X25.064 Y7.935
X25.07 Y7.92
X25.076 Y7.905
X25.084 Y7.874
X25.275 Y7.16
X25.277 Y7.158
X25.754 Y7.689
X25.791 Y7.729
X25.802 Y7.74
X25.813 Y7.75
X25.833 Y7.766
X25.843 Y7.773
G3 X25.867 Y7.812 I-0.035 J0.049
G2 X25.939 Y7.86 I0.059 J-0.01
G1 X26.214 Y7.799
G2 X26.259 Y7.726 I-0.013 J-0.059
G3 X26.266 Y7.681 I0.058 J-0.014
G1 X26.268 Y7.678
X26.274 Y7.668
X26.284 Y7.646
X26.292 Y7.627
X26.312 Y7.565
X26.531 Y6.892
X26.533
X26.978 Y7.442
X27.024 Y7.498
X27.029 Y7.504
X27.044 Y7.517
X27.058 Y7.529
G3 X27.079 Y7.57 I-0.039 J0.046
G2 X27.146 Y7.625 I0.06 J-0.005
G1 X27.418 Y7.593
G2 X27.47 Y7.525 I-0.007 J-0.06
G3 X27.482 Y7.48 I0.059 J-0.008
G1 X27.488 Y7.473
X27.498 Y7.457
X27.507 Y7.442
X27.518 Y7.422
X27.534 Y7.38
X27.799 Y6.691
X27.802 Y6.692
X28.212 Y7.257
X28.257 Y7.319
X28.258 Y7.32
X28.272 Y7.336
X28.289 Y7.353
X28.296 Y7.36
X28.298 Y7.361
G3 X28.319 Y7.402 I-0.039 J0.046
G2 X28.381 Y7.457 I0.06 J-0.005
G1 X28.624 Y7.45
G2 X28.682 Y7.39 I-0.002 J-0.06
G3 X28.699 Y7.348 I0.06 J0.
G1 X28.709 Y7.338
X28.726 Y7.319
X28.74 Y7.3
X28.751 Y7.281
X28.758 Y7.269
X28.764 Y7.257
X28.791 Y7.195
X29.075 Y6.557
X29.077
X29.492 Y7.195
X29.502 Y7.211
X29.514 Y7.226
X29.528 Y7.241
X29.544 Y7.257
X29.553 Y7.264
X29.557 Y7.267
X29.559 Y7.269
G3 X29.581 Y7.309 I-0.037 J0.047
G2 X29.633 Y7.362 I0.06 J-0.007
G1 X29.77 Y7.379
G2 X29.834 Y7.341 I0.008 J-0.06
G3 X29.865 Y7.307 I0.056 J0.021
G1 X29.869 Y7.306
X29.877 Y7.302
X29.892 Y7.294
X29.908 Y7.284
X29.923 Y7.273
X29.933 Y7.266
X29.944 Y7.257
X29.955 Y7.246
X29.966 Y7.234
X29.976 Y7.223
X29.985 Y7.212
X29.996 Y7.195
X30.006 Y7.18
X30.014 Y7.164
X30.357 Y6.49
X30.358 Y6.488
X30.731 Y7.134
X30.749 Y7.164
X30.76 Y7.18
X30.772 Y7.195
X30.787 Y7.211
X30.801 Y7.225
X30.809 Y7.231
G3 X30.829 Y7.272 I-0.039 J0.046
G2 X30.889 Y7.327 I0.06 J-0.005
G1 X31.111
G2 X31.17 Y7.272 I0. J-0.06
G3 X31.191 Y7.231 I0.06 J0.005
G1 X31.195 Y7.228
X31.203 Y7.221
X31.218 Y7.206
X31.228 Y7.195
X31.24 Y7.18
X31.251 Y7.164
X31.269 Y7.134
X31.641 Y6.49
X31.642 Y6.489
X31.986 Y7.164
X31.994 Y7.18
X32.004 Y7.195
X32.012 Y7.207
X32.02 Y7.218
X32.037 Y7.238
X32.047 Y7.248
X32.056 Y7.257
X32.069 Y7.268
X32.082 Y7.277
X32.097 Y7.287
X32.113 Y7.296
X32.128 Y7.304
X32.132 Y7.306
X32.134 Y7.307
G3 X32.165 Y7.34 I-0.025 J0.055
G2 X32.229 Y7.379 I0.056 J-0.021
G1 X32.365 Y7.362
G2 X32.418 Y7.31 I-0.007 J-0.06
G3 X32.44 Y7.27 I0.06 J0.007
G1 X32.444 Y7.267
X32.452 Y7.26
X32.456 Y7.257
X32.472 Y7.241
X32.486 Y7.226
X32.498 Y7.211
X32.508 Y7.195
X32.923 Y6.557
X32.925
X33.209 Y7.195
X33.236 Y7.257
X33.244 Y7.273
X33.254 Y7.29
X33.263 Y7.304
X33.274 Y7.319
X33.283 Y7.329
X33.293 Y7.34
X33.298 Y7.345
X33.3 Y7.347
G3 X33.318 Y7.389 I-0.042 J0.043
G2 X33.376 Y7.448 I0.06 J-0.001
G1 X33.619 Y7.457
G2 X33.681 Y7.402 I0.002 J-0.06
G3 X33.702 Y7.361 I0.06 J0.005
G1 X33.703 Y7.36
X33.707 Y7.356
X33.714 Y7.35
X33.73 Y7.334
X33.743 Y7.319
X33.747 Y7.314
X33.788 Y7.257
X34.198 Y6.692
X34.201 Y6.691
X34.466 Y7.38
X34.476 Y7.406
X34.481 Y7.419
X34.487 Y7.432
X34.493 Y7.442
X34.502 Y7.457
X34.512 Y7.473
X34.518 Y7.48
G3 X34.53 Y7.525 I-0.048 J0.036
G2 X34.582 Y7.593 I0.059 J0.008
G1 X34.853 Y7.624
G2 X34.92 Y7.57 I0.007 J-0.06
G3 X34.942 Y7.53 I0.06 J0.006
G1 X34.945 Y7.527
X34.958 Y7.516
X34.971 Y7.504
X34.981 Y7.493
X35.022 Y7.442
X35.467 Y6.892
X35.469 Y6.894
X35.688 Y7.565
X35.708 Y7.627
X35.714 Y7.642
X35.721 Y7.657
X35.729 Y7.673
X35.734 Y7.681
G3 X35.74 Y7.726 I-0.052 J0.03
G2 X35.786 Y7.8 I0.058 J0.015
G1 X36.063 Y7.859
G2 X36.134 Y7.811 I0.012 J-0.059
G3 X36.159 Y7.772 I0.059 J0.011
G1 X36.161 Y7.771
X36.17 Y7.764
X36.187 Y7.75
X36.201 Y7.738
X36.214 Y7.724
X36.724 Y7.158
X36.725 Y7.16
X36.916 Y7.874
X36.924 Y7.905
X36.93 Y7.92
X36.936 Y7.935
X36.94 Y7.945
X36.941 Y7.947
G3 X36.943 Y7.993 I-0.054 J0.026
G2 X36.98 Y8.07 I0.056 J0.02
G1 X37.237 Y8.159
G2 X37.314 Y8.122 I0.02 J-0.057
G3 X37.344 Y8.087 I0.057 J0.019
G1 X37.347 Y8.085
X37.355 Y8.081
X37.371 Y8.072
X37.386 Y8.062
X37.39 Y8.059
X37.405 Y8.047
X37.419 Y8.035
X37.448 Y8.006
X37.963 Y7.491
X37.965 Y7.492
X38.111 Y8.182
X38.124 Y8.244
X38.126 Y8.251
X38.13 Y8.264
X38.135 Y8.278
X38.14 Y8.292
X38.146 Y8.305
X38.154 Y8.321
X38.159 Y8.329
X38.16 Y8.33
G3 X38.167 Y8.376 I-0.051 J0.031
G2 X38.204 Y8.447 I0.058 J0.014
G1 X38.398 Y8.519
G2 X38.473 Y8.49 I0.021 J-0.056
G3 X38.508 Y8.46 I0.054 J0.027
G1 X38.512 Y8.459
X38.527 Y8.453
X38.542 Y8.447
X38.558 Y8.439
X38.576 Y8.429
X38.587 Y8.422
X38.598 Y8.414
X38.62 Y8.395
X39.184 Y7.887
X39.185 Y7.889
X39.3 Y8.614
X39.305 Y8.645
X39.308 Y8.66
X39.312 Y8.676
X39.317 Y8.691
X39.323 Y8.706
X39.329 Y8.722
X39.333 Y8.729
X39.335 Y8.733
G3 X39.339 Y8.779 I-0.053 J0.027
G2 X39.373 Y8.853 I0.057 J0.018
G1 X39.582 Y8.938
G2 X39.658 Y8.909 I0.023 J-0.056
G3 X39.693 Y8.88 I0.054 J0.027
G1 X39.695 Y8.879
X39.699 Y8.878
X39.714 Y8.872
X39.73 Y8.865
X39.739 Y8.861
X39.752 Y8.853
X39.765 Y8.845
X39.778 Y8.836
X39.791 Y8.826
X40.381 Y8.348
X40.384 Y8.35
X40.463 Y9.107
X40.466 Y9.126
X40.47 Y9.145
X40.477 Y9.169
X40.482 Y9.184
X40.489 Y9.2
X40.493 Y9.207
X40.495 Y9.211
Y9.213
G3 X40.499 Y9.259 I-0.053 J0.027
G2 X40.533 Y9.333 I0.057 J0.018
G1 X40.74 Y9.419
G2 X40.817 Y9.391 I0.023 J-0.055
G3 X40.852 Y9.361 I0.053 J0.027
G1 X40.856 Y9.36
X40.872 Y9.354
X40.887 Y9.348
X40.902 Y9.34
X40.917 Y9.332
X40.932 Y9.322
X40.963 Y9.299
X41.554 Y8.87
X41.556 Y8.872
X41.596 Y9.632
X41.597 Y9.647
X41.599 Y9.662
X41.602 Y9.678
X41.606 Y9.693
X41.61 Y9.709
X41.616 Y9.724
X41.621 Y9.737
X41.627 Y9.75
X41.634 Y9.763
X41.635 Y9.764
G3 X41.641 Y9.81 I-0.052 J0.03
G2 X41.677 Y9.882 I0.058 J0.016
G1 X41.879 Y9.96
G2 X41.954 Y9.931 I0.022 J-0.056
G3 X41.989 Y9.901 I0.054 J0.027
G1 X41.992 Y9.9
X41.999 Y9.898
X42.012 Y9.892
X42.027 Y9.886
X42.043 Y9.877
X42.073 Y9.858
X42.698 Y9.453
X42.7 Y9.454
Y10.156
Y10.218
X42.701 Y10.233
X42.702 Y10.248
X42.704 Y10.264
X42.707 Y10.279
X42.711 Y10.295
X42.715 Y10.31
X42.717 Y10.314
G3 X42.714 Y10.36 I-0.057 J0.019
G2 X42.74 Y10.44 I0.054 J0.027
G1 X42.976 Y10.559
G2 X43.057 Y10.532 I0.027 J-0.054
G3 X43.091 Y10.501 I0.054 J0.026
G1 X43.107 Y10.496
X43.122 Y10.489
X43.134 Y10.484
X43.146 Y10.478
X43.169 Y10.464
X43.81 Y10.094
X43.812
X43.773 Y10.834
X43.771 Y10.865
Y10.881
X43.772 Y10.896
X43.774 Y10.911
X43.776 Y10.927
X43.778 Y10.935
G3 X43.769 Y10.98 I-0.059 J0.012
G2 X43.787 Y11.064 I0.05 J0.033
G1 X44.026 Y11.211
G2 X44.109 Y11.19 I0.032 J-0.051
G3 X44.145 Y11.163 I0.052 J0.03
G1 X44.147 Y11.162
X44.155 Y11.16
X44.171 Y11.155
X44.185 Y11.149
X44.2 Y11.143
X44.232 Y11.127
X44.886 Y10.793
X44.888 Y10.795
X44.813 Y11.513
X44.807 Y11.574
Y11.59
X44.808 Y11.605
Y11.613
Y11.615
G3 X44.795 Y11.659 I-0.06 J0.006
G2 X44.804 Y11.744 I0.047 J0.038
G1 X45.017 Y11.916
G2 X45.103 Y11.905 I0.038 J-0.047
G3 X45.143 Y11.881 I0.048 J0.036
G1 X45.157 Y11.879
X45.173 Y11.876
X45.188 Y11.872
X45.204 Y11.868
X45.219 Y11.862
X45.281 Y11.835
X45.925 Y11.548
X45.927 Y11.549
X45.815 Y12.253
X45.806 Y12.315
X45.804 Y12.33
Y12.345
Y12.361
Y12.369
X45.805 Y12.372
Y12.374
G3 X45.791 Y12.418 I-0.06 J0.005
G2 X45.795 Y12.5 I0.046 J0.039
G1 X45.972 Y12.668
G2 X46.056 Y12.666 I0.041 J-0.044
G3 X46.098 Y12.648 I0.043 J0.042
G1 X46.113
X46.129 Y12.647
X46.144 Y12.646
X46.16 Y12.643
X46.175 Y12.64
X46.19 Y12.636
X46.206 Y12.631
X46.226 Y12.623
X46.922 Y12.356
X46.924 Y12.358
X46.776 Y13.055
X46.763 Y13.116
X46.761 Y13.132
X46.759 Y13.155
Y13.178
X46.76 Y13.188
Y13.193
G3 X46.747 Y13.236 I-0.06 J0.005
G2 X46.745 Y13.311 I0.046 J0.039
G1 X46.834 Y13.428
G2 X46.906 Y13.446 I0.048 J-0.036
G3 X46.952 Y13.445 I0.025 J0.055
G1 X46.954
X46.961 Y13.448
X46.977 Y13.453
X46.992 Y13.457
X47.008 Y13.46
X47.023 Y13.462
X47.038 Y13.464
X47.054
X47.069
X47.085 Y13.463
X47.1 Y13.462
X47.116 Y13.459
X47.131 Y13.456
X47.193 Y13.437
X47.876 Y13.215
X47.878 Y13.216
X47.686 Y13.932
X47.68 Y13.956
X47.675 Y13.98
X47.672 Y13.995
X47.671 Y14.011
Y14.026
Y14.042
X47.672 Y14.057
Y14.061
G3 X47.659 Y14.105 I-0.06 J0.006
G2 X47.663 Y14.185 I0.046 J0.038
G1 X47.816 Y14.338
G2 X47.897 Y14.342 I0.042 J-0.042
G3 X47.941 Y14.328 I0.039 J0.046
G1 X47.948 Y14.329
X47.964
X47.979
X47.994 Y14.328
X48.01 Y14.327
X48.025 Y14.324
X48.056 Y14.317
X48.783 Y14.122
X48.786 Y14.124
X48.552 Y14.844
X48.55 Y14.85
X48.546 Y14.864
X48.542 Y14.878
X48.54 Y14.891
X48.538 Y14.905
X48.536 Y14.921
Y14.936
Y14.951
X48.537 Y14.967
X48.538 Y14.982
X48.541 Y14.998
X48.544 Y15.013
X48.549 Y15.029
X48.55 Y15.032
X48.555 Y15.046
Y15.048
G3 X48.554 Y15.094 I-0.056 J0.021
G2 X48.572 Y15.166 I0.055 J0.025
G1 X48.689 Y15.255
G2 X48.764 Y15.253 I0.036 J-0.048
G3 X48.808 Y15.24 I0.039 J0.046
G1 X48.812
X48.827 Y15.241
X48.843
X48.858 Y15.24
X48.873 Y15.238
X48.889 Y15.236
X48.92 Y15.23
X49.643 Y15.076
X49.644 Y15.078
X49.379 Y15.769
X49.368 Y15.8
X49.363 Y15.815
X49.359 Y15.83
X49.356 Y15.846
X49.354 Y15.861
X49.352 Y15.877
Y15.892
Y15.9
Y15.902
G3 X49.335 Y15.944 I-0.06 J0.001
G2 X49.334 Y16.027 I0.043 J0.042
G1 X49.499 Y16.204
G2 X49.581 Y16.209 I0.044 J-0.041
G3 X49.625 Y16.195 I0.039 J0.046
G1 X49.629
X49.644 Y16.196
X49.66
X49.675 Y16.195
X49.691 Y16.194
X49.721 Y16.189
X50.45 Y16.074
X50.452 Y16.075
X50.149 Y16.756
X50.136 Y16.786
X50.131 Y16.802
X50.126 Y16.817
X50.123 Y16.833
X50.12 Y16.848
X50.119 Y16.856
Y16.858
G3 X50.096 Y16.898 I-0.06 J-0.007
G2 X50.086 Y16.982 I0.037 J0.047
G1 X50.255 Y17.196
G2 X50.34 Y17.205 I0.047 J-0.037
G3 X50.384 Y17.191 I0.038 J0.046
G1 X50.389 Y17.192
X50.4 Y17.193
X50.415
X50.431
X50.462 Y17.19
X51.205 Y17.112
X51.207 Y17.114
X50.886 Y17.742
X50.855 Y17.804
X50.849 Y17.82
X50.843 Y17.835
X50.838 Y17.85
X50.837 Y17.854
G3 X50.81 Y17.891 I-0.058 J-0.015
G2 X50.789 Y17.974 I0.03 J0.052
G1 X50.938 Y18.213
G2 X51.022 Y18.231 I0.051 J-0.032
G3 X51.067 Y18.222 I0.033 J0.05
G1 X51.071 Y18.223
X51.078 Y18.225
X51.094 Y18.227
X51.109 Y18.228
X51.125 Y18.229
X51.14 Y18.228
X51.202 Y18.225
X51.904 Y18.188
X51.906 Y18.19
X51.559 Y18.791
X51.523 Y18.853
X51.516 Y18.866
X51.51 Y18.879
X51.503 Y18.897
X51.5 Y18.906
X51.499 Y18.908
G3 X51.469 Y18.943 I-0.057 J-0.019
G2 X51.443 Y19.023 I0.027 J0.054
G1 X51.56 Y19.259
G2 X51.64 Y19.286 I0.054 J-0.027
G3 X51.686 Y19.283 I0.026 J0.054
G1 X51.689 Y19.284
X51.695 Y19.286
X51.711 Y19.291
X51.726 Y19.294
X51.741 Y19.297
X51.757 Y19.299
X51.772 Y19.3
X51.788
X52.546
X52.548 Y19.301
X52.158 Y19.901
X52.127 Y19.95
X52.12 Y19.963
X52.112 Y19.978
X52.105 Y19.994
X52.102 Y20.001
X52.101 Y20.005
X52.1 Y20.007
G3 X52.07 Y20.042 I-0.057 J-0.02
G2 X52.04 Y20.116 I0.026 J0.054
G1 X52.116 Y20.323
G2 X52.189 Y20.36 I0.056 J-0.021
G3 X52.235 Y20.365 I0.017 J0.057
G1 X52.25 Y20.373
X52.265 Y20.38
X52.28 Y20.385
X52.294 Y20.39
X52.309 Y20.395
X52.312
X52.327 Y20.399
X52.343 Y20.401
X52.374 Y20.404
X53.129 Y20.444
X53.131 Y20.445
X52.682 Y21.063
X52.675 Y21.073
X52.665 Y21.089
X52.657 Y21.104
X52.65 Y21.119
X52.643 Y21.135
X52.641 Y21.143
X52.64 Y21.146
X52.639 Y21.148
G3 X52.609 Y21.183 I-0.057 J-0.018
G2 X52.581 Y21.259 I0.028 J0.053
G1 X52.666 Y21.469
G2 X52.742 Y21.503 I0.056 J-0.023
G3 X52.788 Y21.505 I0.02 J0.057
G1 X52.805 Y21.513
X52.821 Y21.52
X52.836 Y21.525
X52.852 Y21.529
X52.867 Y21.533
X52.882 Y21.535
X52.898 Y21.537
X53.65 Y21.616
X53.652 Y21.619
X53.175 Y22.207
X53.161 Y22.226
X53.149 Y22.245
X53.14 Y22.261
X53.132 Y22.276
X53.126 Y22.291
X53.121 Y22.307
X53.12 Y22.308
G3 X53.09 Y22.343 I-0.057 J-0.018
G2 X53.062 Y22.42 I0.027 J0.053
G1 X53.147 Y22.626
G2 X53.221 Y22.661 I0.056 J-0.023
G3 X53.266 Y22.665 I0.018 J0.057
G1 X53.268 Y22.666
X53.272 Y22.667
X53.279 Y22.671
X53.292 Y22.677
X53.299 Y22.679
X53.314 Y22.685
X53.33 Y22.689
X53.345 Y22.693
X53.36 Y22.696
X54.111 Y22.815
X54.113 Y22.816
X53.607 Y23.378
X53.59 Y23.397
X53.576 Y23.417
X53.567 Y23.432
X53.559 Y23.446
X53.552 Y23.461
X53.545 Y23.476
X53.544 Y23.479
X53.542 Y23.486
X53.54 Y23.49
Y23.492
G3 X53.51 Y23.527 I-0.057 J-0.018
G2 X53.481 Y23.601 I0.027 J0.053
G1 X53.551 Y23.796
G2 X53.623 Y23.834 I0.056 J-0.02
G3 X53.669 Y23.839 I0.016 J0.058
G1 X53.685 Y23.849
X53.708 Y23.86
X53.73 Y23.868
X53.746 Y23.873
X53.761 Y23.877
X54.508 Y24.035
X54.51 Y24.037
X53.977 Y24.569
X53.958 Y24.589
X53.945 Y24.604
X53.934 Y24.62
X53.924 Y24.635
X53.916 Y24.651
X53.914 Y24.655
X53.913 Y24.657
G3 X53.878 Y24.687 I-0.054 J-0.026
G2 X53.841 Y24.763 I0.019 J0.057
G1 X53.93 Y25.022
G2 X54.008 Y25.059 I0.057 J-0.02
G3 X54.054 Y25.06 I0.022 J0.056
G1 X54.07 Y25.066
X54.085 Y25.072
X54.1 Y25.077
X54.12 Y25.082
X54.841 Y25.275
Y25.278
X54.286 Y25.778
X54.261 Y25.8
X54.251 Y25.811
X54.241 Y25.823
X54.232 Y25.835
X54.228 Y25.841
X54.227 Y25.842
G3 X54.188 Y25.868 I-0.05 J-0.034
G2 X54.141 Y25.939 I0.011 J0.059
G1 X54.201 Y26.214
G2 X54.275 Y26.26 I0.059 J-0.013
G3 X54.32 Y26.267 I0.014 J0.058
G1 X54.321
X54.324 Y26.269
X54.347 Y26.281
X54.363 Y26.288
X54.378 Y26.294
X54.409 Y26.304
X55.107 Y26.531
X55.109 Y26.532
X54.532 Y26.999
X54.502 Y27.024
X54.486 Y27.04
X54.472 Y27.056
X54.471 Y27.058
G3 X54.43 Y27.08 I-0.047 J-0.038
G2 X54.377 Y27.146 I0.006 J0.06
G1 X54.408 Y27.418
G2 X54.476 Y27.471 I0.06 J-0.007
G3 X54.521 Y27.483 I0.008 J0.059
G1 X54.528 Y27.488
X54.532 Y27.491
X54.548 Y27.501
X54.563 Y27.51
X54.578 Y27.518
X54.594 Y27.524
X54.659 Y27.55
X55.308 Y27.798
X55.309 Y27.8
X54.717 Y28.23
X54.686 Y28.253
X54.671 Y28.266
X54.656 Y28.28
X54.646 Y28.29
X54.64 Y28.297
X54.638 Y28.299
G3 X54.597 Y28.321 I-0.046 J-0.039
G2 X54.542 Y28.383 I0.005 J0.06
G1 X54.551 Y28.624
G2 X54.611 Y28.682 I0.06 J-0.002
G3 X54.653 Y28.7 I-0.001 J0.06
G1 X54.656 Y28.703
X54.666 Y28.713
X54.676 Y28.722
X54.697 Y28.737
X54.717 Y28.75
X54.733 Y28.759
X54.748 Y28.766
X55.444 Y29.076
X55.442 Y29.078
X54.81 Y29.488
X54.794 Y29.499
X54.779 Y29.51
X54.764 Y29.523
X54.75 Y29.537
X54.738 Y29.551
X54.732 Y29.557
X54.731 Y29.559
G3 X54.691 Y29.582 I-0.047 J-0.037
G2 X54.638 Y29.634 I0.007 J0.06
G1 X54.621 Y29.769
G2 X54.659 Y29.833 I0.06 J0.007
G3 X54.692 Y29.865 I-0.022 J0.056
G1 X54.693 Y29.866
X54.695 Y29.87
X54.699 Y29.878
X54.707 Y29.893
X54.717 Y29.91
X54.725 Y29.921
X54.734 Y29.933
X54.743 Y29.944
X54.754 Y29.955
X54.766 Y29.967
X54.779 Y29.978
X54.794 Y29.989
X54.81 Y29.999
X54.841 Y30.016
X55.509 Y30.357
X55.511 Y30.359
X54.902 Y30.71
X54.841 Y30.746
X54.824 Y30.757
X54.813 Y30.766
X54.802 Y30.775
X54.79 Y30.786
X54.779 Y30.797
X54.77 Y30.808
G3 X54.728 Y30.828 I-0.045 J-0.04
G2 X54.672 Y30.889 I0.004 J0.06
G1 X54.674 Y31.112
G2 X54.729 Y31.171 I0.06 J0.
G3 X54.77 Y31.192 I-0.005 J0.06
G1 X54.773 Y31.196
X54.779 Y31.203
X54.793 Y31.217
X54.807 Y31.23
X54.821 Y31.241
X54.835 Y31.25
X54.841 Y31.254
X54.902 Y31.29
X55.51 Y31.641
X55.511 Y31.642
X54.841 Y31.984
X54.827 Y31.991
X54.815 Y31.997
X54.803 Y32.005
X54.791 Y32.013
X54.779 Y32.022
X54.763 Y32.036
X54.747 Y32.052
X54.731 Y32.071
X54.717 Y32.09
X54.71 Y32.102
X54.703 Y32.114
X54.695 Y32.129
X54.693 Y32.133
Y32.135
G3 X54.659 Y32.167 I-0.055 J-0.024
G2 X54.621 Y32.23 I0.022 J0.056
G1 X54.638 Y32.367
G2 X54.691 Y32.419 I0.06 J-0.007
G3 X54.731 Y32.442 I-0.007 J0.06
G1 X54.734 Y32.445
X54.741 Y32.453
X54.756 Y32.47
X54.772 Y32.484
X54.779 Y32.49
X54.794 Y32.501
X54.81 Y32.512
X55.442 Y32.922
X55.444 Y32.924
X54.77 Y33.224
X54.744 Y33.236
X54.73 Y33.242
X54.717 Y33.25
X54.705 Y33.257
X54.692 Y33.266
X54.68 Y33.275
X54.668 Y33.286
X54.656 Y33.297
X54.653 Y33.3
G3 X54.61 Y33.319 I-0.043 J-0.042
G2 X54.551 Y33.376 I0.001 J0.06
G1 X54.542 Y33.617
G2 X54.597 Y33.679 I0.06 J0.002
G3 X54.638 Y33.7 I-0.005 J0.06
G1 X54.639 Y33.702
X54.653 Y33.718
X54.656 Y33.72
X54.671 Y33.734
X54.686 Y33.747
X54.717 Y33.77
X55.308 Y34.199
Y34.201
X54.64 Y34.458
X54.594 Y34.476
X54.578 Y34.482
X54.563 Y34.49
X54.548 Y34.499
X54.532 Y34.509
X54.525 Y34.514
X54.522 Y34.517
X54.52 Y34.518
G3 X54.476 Y34.53 I-0.037 J-0.047
G2 X54.408 Y34.582 I-0.008 J0.06
G1 X54.376 Y34.854
G2 X54.43 Y34.921 I0.06 J0.007
G3 X54.471 Y34.942 I-0.005 J0.06
G1 X54.478 Y34.951
X54.491 Y34.965
X54.505 Y34.979
X54.532 Y35.001
X55.109 Y35.468
X55.107 Y35.469
X54.409 Y35.696
X54.378 Y35.706
X54.363 Y35.712
X54.347 Y35.719
X54.333 Y35.726
X54.319 Y35.734
G3 X54.274 Y35.74 I-0.03 J-0.052
G2 X54.199 Y35.785 I-0.016 J0.058
G1 X54.141 Y36.063
G2 X54.189 Y36.134 I0.059 J0.012
G3 X54.228 Y36.159 I-0.011 J0.059
G1 X54.229 Y36.161
X54.235 Y36.169
X54.247 Y36.185
X54.257 Y36.195
X54.267 Y36.205
X54.286 Y36.222
X54.841 Y36.722
Y36.725
X54.162 Y36.906
X54.1 Y36.923
X54.094 Y36.925
X54.08 Y36.93
X54.066 Y36.935
X54.059 Y36.938
X54.056 Y36.939
X54.054 Y36.94
G3 X54.008 Y36.942 I-0.025 J-0.054
G2 X53.931 Y36.979 I-0.02 J0.056
G1 X53.841 Y37.237
G2 X53.878 Y37.314 I0.057 J0.02
G3 X53.913 Y37.344 I-0.019 J0.057
G1 X53.914 Y37.346
X53.915 Y37.349
X53.92 Y37.357
X53.929 Y37.372
X53.939 Y37.388
X53.951 Y37.403
X53.965 Y37.418
X53.977 Y37.431
X54.509 Y37.963
X54.507 Y37.965
X53.761 Y38.123
X53.746 Y38.127
X53.73 Y38.132
X53.716 Y38.137
X53.701 Y38.143
X53.687 Y38.15
X53.672 Y38.159
X53.669 Y38.161
G3 X53.623 Y38.167 I-0.031 J-0.051
G2 X53.553 Y38.205 I-0.014 J0.058
G1 X53.481 Y38.397
G2 X53.509 Y38.471 I0.056 J0.021
G3 X53.539 Y38.506 I-0.027 J0.053
G1 X53.54 Y38.51
X53.545 Y38.524
X53.547 Y38.529
X53.554 Y38.544
X53.562 Y38.559
X53.571 Y38.575
X53.581 Y38.59
X53.593 Y38.606
X53.607 Y38.622
X54.113 Y39.184
X54.111 Y39.185
X53.36 Y39.304
X53.345 Y39.307
X53.33 Y39.311
X53.314 Y39.315
X53.299 Y39.321
X53.276 Y39.33
X53.266 Y39.335
G3 X53.22 Y39.339 I-0.027 J-0.054
G2 X53.146 Y39.373 I-0.019 J0.057
G1 X53.061 Y39.582
G2 X53.09 Y39.658 I0.056 J0.023
G3 X53.12 Y39.693 I-0.027 J0.054
G1 X53.123 Y39.701
X53.129 Y39.716
X53.136 Y39.731
X53.144 Y39.747
X53.153 Y39.762
X53.163 Y39.778
X53.175 Y39.793
X53.652 Y40.382
X53.65 Y40.384
X52.898 Y40.463
X52.882 Y40.465
X52.867 Y40.467
X52.852 Y40.471
X52.836 Y40.475
X52.821 Y40.48
X52.805 Y40.487
X52.79 Y40.494
X52.788 Y40.495
G3 X52.742 Y40.499 I-0.027 J-0.053
G2 X52.668 Y40.532 I-0.019 J0.057
G1 X52.582 Y40.74
G2 X52.609 Y40.816 I0.055 J0.023
G3 X52.639 Y40.851 I-0.028 J0.053
G1 Y40.853
X52.641 Y40.857
X52.646 Y40.872
X52.653 Y40.888
X52.661 Y40.903
X52.669 Y40.919
X52.68 Y40.934
X52.682 Y40.937
X53.131 Y41.555
X53.128 Y41.556
X52.374 Y41.596
X52.343 Y41.599
X52.327 Y41.601
X52.312 Y41.605
X52.298 Y41.608
X52.285 Y41.613
X52.268 Y41.619
X52.25 Y41.627
X52.235 Y41.636
G3 X52.189 Y41.64 I-0.028 J-0.053
G2 X52.116 Y41.677 I-0.017 J0.057
G1 X52.04 Y41.879
G2 X52.069 Y41.954 I0.056 J0.021
G3 X52.099 Y41.988 I-0.027 J0.054
G1 Y41.99
X52.102 Y41.998
X52.108 Y42.014
X52.115 Y42.029
X52.124 Y42.044
X52.127 Y42.05
X52.163 Y42.106
X52.547 Y42.698
X52.545 Y42.7
X51.788
X51.772
X51.757 Y42.701
X51.741 Y42.703
X51.726 Y42.706
X51.711 Y42.709
X51.695 Y42.714
X51.689 Y42.716
X51.686 Y42.717
G3 X51.64 Y42.714 I-0.019 J-0.057
G2 X51.56 Y42.741 I-0.026 J0.054
G1 X51.441 Y42.978
G2 X51.469 Y43.059 I0.054 J0.027
G3 X51.499 Y43.093 I-0.026 J0.054
G1 X51.504 Y43.107
X51.51 Y43.121
X51.518 Y43.138
X51.527 Y43.155
X51.906 Y43.81
X51.904 Y43.812
X51.202 Y43.775
X51.14 Y43.772
X51.135 Y43.771
X51.121
X51.1 Y43.773
X51.078 Y43.775
X51.071 Y43.777
X51.067 Y43.778
G3 X51.022 Y43.769 I-0.012 J-0.059
G2 X50.937 Y43.787 I-0.033 J0.05
G1 X50.789 Y44.027
G2 X50.81 Y44.111 I0.051 J0.032
G3 X50.838 Y44.147 I-0.03 J0.052
G1 Y44.149
X50.841 Y44.157
X50.846 Y44.172
X50.852 Y44.188
X50.859 Y44.203
X50.893 Y44.271
X51.207 Y44.886
X51.205 Y44.888
X50.462 Y44.81
X50.431 Y44.807
X50.415
X50.4
X50.384 Y44.809
G3 X50.341 Y44.794 I-0.005 J-0.06
G2 X50.255 Y44.803 I-0.039 J0.046
G1 X50.084 Y45.019
G2 X50.095 Y45.104 I0.047 J0.037
G3 X50.119 Y45.144 I-0.036 J0.048
G1 X50.121 Y45.159
X50.124 Y45.175
X50.128 Y45.19
X50.133 Y45.205
X50.139 Y45.221
X50.153 Y45.252
X50.452 Y45.925
X50.45 Y45.926
X49.721 Y45.811
X49.695 Y45.807
X49.677 Y45.805
X49.66 Y45.804
X49.634
X49.627 Y45.805
X49.624
G3 X49.58 Y45.791 I-0.005 J-0.06
G2 X49.498 Y45.796 I-0.039 J0.046
G1 X49.334 Y45.973
G2 X49.335 Y46.055 I0.044 J0.041
G3 X49.352 Y46.098 I-0.043 J0.042
G1 Y46.1
Y46.115
X49.353 Y46.131
X49.355 Y46.146
X49.357 Y46.162
X49.361 Y46.177
X49.365 Y46.192
X49.37 Y46.208
X49.382 Y46.239
X49.644 Y46.922
X49.643 Y46.924
X48.92 Y46.77
X48.889 Y46.764
X48.873 Y46.762
X48.858 Y46.76
X48.843 Y46.759
X48.827
X48.812 Y46.76
X48.808
G3 X48.764 Y46.747 I-0.005 J-0.06
G2 X48.689 Y46.745 I-0.039 J0.046
G1 X48.573 Y46.833
G2 X48.555 Y46.905 I0.036 J0.048
G3 X48.556 Y46.951 I-0.055 J0.024
G1 X48.555 Y46.952
X48.554 Y46.955
X48.55 Y46.968
X48.546 Y46.979
X48.543 Y46.994
X48.54 Y47.01
X48.537 Y47.025
X48.536 Y47.04
X48.535 Y47.056
X48.536 Y47.071
X48.537 Y47.087
X48.539 Y47.102
X48.543 Y47.126
X48.55 Y47.15
X48.554 Y47.164
X48.785 Y47.875
X48.783 Y47.878
X48.056 Y47.683
X48.025 Y47.676
X48.01 Y47.673
X47.994 Y47.672
X47.979 Y47.671
X47.964
X47.948
X47.941 Y47.672
G3 X47.897 Y47.658 I-0.005 J-0.06
G2 X47.816 Y47.662 I-0.039 J0.046
G1 X47.662 Y47.816
G2 X47.659 Y47.897 I0.043 J0.042
G3 X47.672 Y47.941 I-0.046 J0.038
G1 Y47.943
X47.671 Y47.95
Y47.966
Y47.981
X47.672 Y47.997
X47.673 Y48.012
X47.676 Y48.027
X47.686 Y48.068
X47.878 Y48.784
X47.876 Y48.785
X47.193 Y48.563
X47.131 Y48.544
X47.116 Y48.541
X47.1 Y48.538
X47.085 Y48.537
X47.069 Y48.536
X47.054
X47.038
X47.023 Y48.538
X47.008 Y48.54
X46.992 Y48.543
X46.977 Y48.547
X46.961 Y48.552
X46.954 Y48.555
X46.952
G3 X46.906 Y48.554 I-0.021 J-0.056
G2 X46.833 Y48.572 I-0.025 J0.055
G1 X46.745 Y48.689
G2 X46.747 Y48.764 I0.048 J0.036
G3 X46.76 Y48.808 I-0.046 J0.038
G1 Y48.809
Y48.816
X46.759 Y48.829
Y48.849
X46.761 Y48.868
X46.764 Y48.891
X46.777 Y48.953
X46.924 Y49.643
X46.922 Y49.644
X46.245 Y49.384
X46.206 Y49.369
X46.19 Y49.364
X46.175 Y49.36
X46.16 Y49.357
X46.144 Y49.354
X46.129 Y49.353
X46.113 Y49.352
X46.098
G3 X46.056 Y49.334 I0. J-0.06
G2 X45.972 Y49.332 I-0.043 J0.042
G1 X45.795 Y49.499
G2 X45.791 Y49.581 I0.041 J0.044
G3 X45.805 Y49.625 I-0.046 J0.039
G1 Y49.627
X45.804 Y49.631
Y49.646
Y49.662
X45.805 Y49.677
X45.807 Y49.693
X45.816 Y49.754
X45.927 Y50.451
X45.925 Y50.452
X45.281 Y50.165
X45.219 Y50.138
X45.197 Y50.13
X45.176 Y50.124
X45.157 Y50.121
X45.15 Y50.119
X45.146
X45.144
G3 X45.104 Y50.096 I0.008 J-0.06
G2 X45.019 Y50.086 I-0.047 J0.037
G1 X44.805 Y50.256
G2 X44.795 Y50.341 I0.037 J0.047
G3 X44.809 Y50.385 I-0.047 J0.038
G1 X44.808 Y50.387
X44.807 Y50.402
Y50.417
Y50.433
X44.813 Y50.495
X44.888 Y51.205
X44.886 Y51.207
X44.215 Y50.865
X44.193 Y50.854
X44.171 Y50.845
X44.155 Y50.84
X44.147 Y50.838
X44.145 Y50.837
G3 X44.109 Y50.81 I0.015 J-0.058
G2 X44.025 Y50.789 I-0.052 J0.03
G1 X43.787 Y50.938
G2 X43.769 Y51.022 I0.032 J0.051
G3 X43.778 Y51.067 I-0.05 J0.033
G1 X43.777 Y51.069
X43.776 Y51.073
X43.775 Y51.081
X43.773 Y51.096
X43.772 Y51.111
X43.771 Y51.127
X43.772 Y51.142
X43.812 Y51.903
X43.81 Y51.906
X43.152 Y51.526
X43.137 Y51.518
X43.122 Y51.511
X43.107 Y51.504
X43.091 Y51.499
G3 X43.057 Y51.468 I0.02 J-0.057
G2 X42.976 Y51.441 I-0.054 J0.026
G1 X42.741 Y51.56
G2 X42.714 Y51.64 I0.027 J0.054
G3 X42.717 Y51.686 I-0.054 J0.026
G1 X42.715 Y51.69
X42.713 Y51.697
X42.709 Y51.713
X42.705 Y51.728
X42.703 Y51.744
X42.701 Y51.759
X42.7 Y51.79
Y52.546
X42.698 Y52.547
X42.073 Y52.142
X42.043 Y52.123
X42.027 Y52.114
X42.012 Y52.108
X41.999 Y52.103
X41.993 Y52.1
G3 X41.959 Y52.07 I0.02 J-0.057
G2 X41.883 Y52.039 I-0.054 J0.026
G1 X41.677 Y52.118
G2 X41.641 Y52.19 I0.021 J0.056
G3 X41.635 Y52.236 I-0.058 J0.016
G1 X41.633 Y52.239
X41.626 Y52.254
X41.619 Y52.269
X41.613 Y52.283
X41.608 Y52.299
X41.604 Y52.314
X41.601 Y52.33
X41.598 Y52.345
X41.594 Y52.407
X41.556 Y53.128
X41.554 Y53.13
X40.963 Y52.701
X40.932 Y52.678
X40.917 Y52.668
X40.902 Y52.66
X40.889 Y52.653
X40.877 Y52.648
X40.864 Y52.643
X40.852 Y52.639
G3 X40.818 Y52.609 I0.019 J-0.057
G2 X40.74 Y52.58 I-0.054 J0.027
G1 X40.532 Y52.668
G2 X40.498 Y52.742 I0.023 J0.055
G3 X40.495 Y52.788 I-0.057 J0.019
G1 X40.493 Y52.792
X40.486 Y52.808
X40.48 Y52.823
X40.474 Y52.838
X40.47 Y52.855
X40.465 Y52.878
X40.463 Y52.9
X40.384 Y53.651
X40.382 Y53.653
X39.791 Y53.174
X39.772 Y53.159
X39.752 Y53.147
X39.73 Y53.135
X39.714 Y53.128
X39.699 Y53.122
X39.695 Y53.121
X39.693 Y53.12
G3 X39.658 Y53.091 I0.019 J-0.057
G2 X39.582 Y53.062 I-0.054 J0.027
G1 X39.374 Y53.147
G2 X39.339 Y53.22 I0.023 J0.056
G3 X39.335 Y53.266 I-0.057 J0.018
G1 Y53.267
X39.333 Y53.27
X39.326 Y53.286
X39.32 Y53.301
X39.315 Y53.316
X39.31 Y53.332
X39.307 Y53.347
X39.304 Y53.363
X39.185 Y54.111
X39.184 Y54.112
X38.62 Y53.605
X38.603 Y53.591
X38.587 Y53.579
X38.572 Y53.569
X38.558 Y53.561
X38.542 Y53.553
X38.527 Y53.547
X38.512 Y53.541
X38.508 Y53.54
G3 X38.473 Y53.51 I0.019 J-0.057
G2 X38.398 Y53.481 I-0.054 J0.027
G1 X38.204 Y53.553
G2 X38.167 Y53.624 I0.021 J0.056
G3 X38.16 Y53.669 I-0.058 J0.014
G1 X38.159 Y53.671
X38.15 Y53.686
X38.143 Y53.702
X38.133 Y53.726
X38.126 Y53.749
X38.123 Y53.764
X37.965 Y54.508
X37.963 Y54.51
X37.424 Y53.97
X37.412 Y53.959
X37.4 Y53.949
X37.386 Y53.938
X37.371 Y53.928
X37.355 Y53.919
X37.347 Y53.915
X37.344 Y53.913
G3 X37.314 Y53.878 I0.027 J-0.054
G2 X37.237 Y53.841 I-0.057 J0.019
G1 X36.98 Y53.93
G2 X36.943 Y54.007 I0.02 J0.057
G3 X36.941 Y54.053 I-0.056 J0.02
G1 X36.94 Y54.056
X36.937 Y54.061
X36.933 Y54.072
X36.927 Y54.087
X36.922 Y54.103
X36.848 Y54.38
X36.725 Y54.841
X36.724 Y54.842
X36.214 Y54.276
X36.195 Y54.257
X36.185 Y54.247
X36.174 Y54.239
X36.163 Y54.231
X36.158 Y54.227
G3 X36.133 Y54.188 I0.034 J-0.049
G2 X36.061 Y54.141 I-0.059 J0.011
G1 X35.785 Y54.202
G2 X35.74 Y54.275 I0.013 J0.059
G3 X35.733 Y54.32 I-0.058 J0.015
G1 X35.732 Y54.322
X35.731 Y54.325
X35.727 Y54.331
X35.721 Y54.343
X35.712 Y54.362
X35.705 Y54.38
X35.685 Y54.442
X35.469 Y55.107
X35.468 Y55.109
X35.028 Y54.565
X34.981 Y54.507
X34.977 Y54.504
X34.963 Y54.489
X34.948 Y54.475
X34.945 Y54.472
X34.943 Y54.471
G3 X34.921 Y54.431 I0.038 J-0.047
G2 X34.854 Y54.377 I-0.06 J0.006
G1 X34.581 Y54.409
G2 X34.529 Y54.477 I0.007 J0.06
G3 X34.517 Y54.521 I-0.059 J0.008
G1 X34.516 Y54.523
X34.513 Y54.527
X34.507 Y54.535
X34.497 Y54.55
X34.489 Y54.565
X34.487 Y54.568
X34.48 Y54.583
X34.474 Y54.598
X34.202 Y55.307
X34.2 Y55.309
X33.794 Y54.75
X33.749 Y54.689
X33.747 Y54.686
X33.733 Y54.67
X33.717 Y54.653
X33.702 Y54.639
G3 X33.682 Y54.598 I0.04 J-0.045
G2 X33.62 Y54.541 I-0.06 J0.003
G1 X33.376 Y54.551
G2 X33.319 Y54.61 I0.003 J0.06
G3 X33.301 Y54.652 I-0.06 J-0.001
G1 X33.299 Y54.654
X33.296 Y54.657
X33.289 Y54.664
X33.278 Y54.676
X33.268 Y54.689
X33.261 Y54.7
X33.254 Y54.71
X33.242 Y54.73
X33.233 Y54.75
X32.924 Y55.443
X32.922 Y55.442
X32.513 Y54.812
X32.503 Y54.797
X32.492 Y54.781
X32.479 Y54.766
X32.464 Y54.75
X32.452 Y54.74
X32.444 Y54.733
X32.442 Y54.732
G3 X32.42 Y54.692 I0.037 J-0.047
G2 X32.368 Y54.639 I-0.06 J0.007
G1 X32.231 Y54.62
G2 X32.167 Y54.659 I-0.008 J0.059
G3 X32.136 Y54.692 I-0.056 J-0.021
G1 X32.128 Y54.696
X32.113 Y54.704
X32.097 Y54.713
X32.082 Y54.723
X32.065 Y54.736
X32.049 Y54.75
X32.033 Y54.766
X32.02 Y54.782
X32.009 Y54.797
X31.999 Y54.812
X31.967 Y54.874
X31.643 Y55.51
X31.642 Y55.511
X31.274 Y54.874
X31.256 Y54.843
X31.245 Y54.828
X31.234 Y54.812
X31.218 Y54.794
X31.205 Y54.781
X31.192 Y54.77
G3 X31.172 Y54.729 I0.04 J-0.045
G2 X31.112 Y54.672 I-0.06 J0.004
G1 X30.889 Y54.674
G2 X30.83 Y54.728 I0. J0.06
G3 X30.809 Y54.769 I-0.06 J-0.005
G1 X30.807 Y54.77
X30.804 Y54.773
X30.798 Y54.778
X30.787 Y54.789
X30.776 Y54.801
X30.766 Y54.812
X30.755 Y54.828
X30.744 Y54.843
X30.726 Y54.874
X30.359 Y55.511
X30.357 Y55.509
X30.033 Y54.874
X30.001 Y54.812
X29.993 Y54.8
X29.985 Y54.788
X29.97 Y54.769
X29.961 Y54.76
X29.951 Y54.75
X29.937 Y54.738
X29.923 Y54.727
X29.908 Y54.716
X29.892 Y54.706
X29.877 Y54.698
X29.869 Y54.694
X29.865 Y54.693
G3 X29.834 Y54.659 I0.025 J-0.055
G2 X29.77 Y54.621 I-0.056 J0.021
G1 X29.633 Y54.638
G2 X29.581 Y54.691 I0.008 J0.06
G3 X29.559 Y54.731 I-0.06 J-0.007
G1 X29.557 Y54.733
X29.553 Y54.736
X29.536 Y54.75
X29.523 Y54.764
X29.511 Y54.778
X29.501 Y54.791
X29.491 Y54.805
X29.078 Y55.442
X29.076 Y55.443
X28.767 Y54.75
X28.76 Y54.735
X28.751 Y54.719
X28.742 Y54.704
X28.732 Y54.689
X28.723 Y54.677
X28.713 Y54.666
X28.701 Y54.654
X28.7 Y54.653
G3 X28.682 Y54.611 I0.042 J-0.043
G2 X28.624 Y54.551 I-0.06 J0.001
G1 X28.382 Y54.54
G2 X28.319 Y54.597 I-0.003 J0.06
G3 X28.299 Y54.638 I-0.06 J-0.004
G1 X28.286 Y54.65
X28.271 Y54.665
X28.258 Y54.68
X28.251 Y54.689
X28.206 Y54.75
X27.8 Y55.309
X27.798 Y55.307
X27.537 Y54.627
X27.518 Y54.578
X27.511 Y54.565
X27.503 Y54.55
X27.493 Y54.535
X27.487 Y54.527
X27.484 Y54.523
X27.483 Y54.521
G3 X27.471 Y54.477 I0.048 J-0.036
G2 X27.419 Y54.409 I-0.059 J-0.008
G1 X27.146 Y54.377
G2 X27.079 Y54.431 I-0.007 J0.06
G3 X27.057 Y54.471 I-0.06 J-0.006
G1 X27.055 Y54.473
X27.04 Y54.486
X27.024 Y54.502
X27.023 Y54.504
X26.972 Y54.565
X26.533 Y55.108
X26.531
X26.315 Y54.442
X26.295 Y54.38
X26.29 Y54.367
X26.284 Y54.354
X26.276 Y54.336
X26.271 Y54.327
X26.268 Y54.323
X26.267 Y54.321
G3 X26.261 Y54.275 I0.052 J-0.031
G2 X26.215 Y54.202 I-0.058 J-0.015
G1 X25.939 Y54.141
G2 X25.867 Y54.189 I-0.013 J0.059
G3 X25.842 Y54.227 I-0.059 J-0.011
G1 X25.84 Y54.228
X25.829 Y54.237
X25.817 Y54.246
X25.805 Y54.257
X25.791 Y54.271
X25.748 Y54.319
X25.277 Y54.842
X25.275 Y54.84
X25.086 Y54.134
X25.078 Y54.103
X25.073 Y54.087
X25.067 Y54.072
X25.06 Y54.054
G3 X25.059 Y54.008 I0.055 J-0.024
G2 X25.023 Y53.93 I-0.056 J-0.022
G1 X24.762 Y53.841
G2 X24.686 Y53.879 I-0.019 J0.057
G3 X24.656 Y53.913 I-0.057 J-0.019
G1 X24.654 Y53.914
X24.65 Y53.916
X24.634 Y53.925
X24.619 Y53.935
X24.6 Y53.949
X24.589 Y53.958
X24.579 Y53.968
X24.557 Y53.989
X24.037 Y54.51
X24.035 Y54.508
X23.877 Y53.764
X23.873 Y53.748
X23.869 Y53.733
X23.863 Y53.717
X23.857 Y53.702
X23.85 Y53.686
X23.841 Y53.671
X23.84 Y53.669
G3 X23.833 Y53.624 I0.051 J-0.031
G2 X23.796 Y53.553 I-0.058 J-0.014
G1 X23.603 Y53.479
G2 X23.528 Y53.509 I-0.022 J0.056
G3 X23.493 Y53.539 I-0.054 J-0.026
G1 X23.478 Y53.545
X23.462 Y53.551
X23.447 Y53.558
X23.43 Y53.568
X23.413 Y53.579
X23.399 Y53.589
X23.385 Y53.6
X23.341 Y53.64
X22.816 Y54.113
X22.815 Y54.111
X22.696 Y53.363
X22.693 Y53.347
X22.69 Y53.332
X22.685 Y53.316
X22.68 Y53.301
X22.674 Y53.286
X22.667 Y53.27
X22.666 Y53.268
G3 X22.662 Y53.222 I0.053 J-0.027
G2 X22.628 Y53.148 I-0.057 J-0.018
G1 X22.419 Y53.062
G2 X22.343 Y53.09 I-0.023 J0.055
G3 X22.308 Y53.12 I-0.053 J-0.027
G1 X22.306 Y53.121
X22.291 Y53.126
X22.275 Y53.133
X22.262 Y53.139
X22.248 Y53.147
X22.231 Y53.158
X22.214 Y53.17
X22.166 Y53.208
X21.618 Y53.653
X21.616 Y53.651
X21.537 Y52.9
X21.535 Y52.881
X21.531 Y52.86
X21.526 Y52.838
X21.52 Y52.823
X21.514 Y52.808
X21.507 Y52.792
X21.505 Y52.788
G3 X21.502 Y52.742 I0.054 J-0.027
G2 X21.468 Y52.668 I-0.057 J-0.019
G1 X21.26 Y52.581
G2 X21.183 Y52.609 I-0.023 J0.055
G3 X21.148 Y52.639 I-0.053 J-0.027
G1 X21.145 Y52.64
X21.138 Y52.642
X21.125 Y52.647
X21.111 Y52.653
X21.103 Y52.657
X21.088 Y52.666
X21.073 Y52.675
X21.042 Y52.697
X20.446 Y53.13
X20.444 Y53.128
X20.406 Y52.407
X20.402 Y52.345
X20.399 Y52.33
X20.396 Y52.314
X20.392 Y52.299
X20.387 Y52.283
X20.382 Y52.271
X20.376 Y52.258
X20.37 Y52.245
X20.367 Y52.239
X20.365 Y52.236
G3 X20.36 Y52.19 I0.052 J-0.029
G2 X20.324 Y52.118 I-0.058 J-0.016
G1 X20.122 Y52.04
G2 X20.047 Y52.069 I-0.022 J0.056
G3 X20.012 Y52.099 I-0.053 J-0.027
G1 X20.011
X20.008 Y52.1
X20.003 Y52.102
X19.993 Y52.105
X19.978 Y52.112
X19.962 Y52.12
X19.931 Y52.139
X19.302 Y52.548
X19.3 Y52.546
Y51.79
X19.299 Y51.759
X19.297 Y51.744
X19.295 Y51.728
X19.291 Y51.713
X19.287 Y51.697
X19.285 Y51.69
X19.283 Y51.686
G3 X19.286 Y51.64 I0.057 J-0.019
G2 X19.259 Y51.56 I-0.054 J-0.026
G1 X19.023 Y51.443
G2 X18.943 Y51.469 I-0.027 J0.054
G3 X18.908 Y51.499 I-0.053 J-0.027
G1 X18.906 Y51.5
X18.898 Y51.502
X18.883 Y51.508
X18.868 Y51.515
X18.852 Y51.524
X18.818 Y51.543
X18.191 Y51.905
X18.188 Y51.904
X18.228 Y51.142
X18.229 Y51.127
X18.228 Y51.111
X18.227 Y51.096
X18.225 Y51.081
X18.222 Y51.065
G3 X18.231 Y51.02 I0.059 J-0.011
G2 X18.213 Y50.935 I-0.05 J-0.034
G1 X17.973 Y50.789
G2 X17.89 Y50.81 I-0.031 J0.051
G3 X17.854 Y50.838 I-0.052 J-0.03
G1 X17.85 Y50.839
X17.834 Y50.843
X17.822 Y50.848
X17.81 Y50.853
X17.785 Y50.865
X17.114 Y51.207
X17.112 Y51.205
X17.187 Y50.495
X17.193 Y50.433
Y50.417
Y50.402
X17.192 Y50.387
X17.191 Y50.385
G3 X17.205 Y50.341 I0.06 J-0.006
G2 X17.195 Y50.256 I-0.047 J-0.038
G1 X16.982 Y50.086
G2 X16.897 Y50.096 I-0.037 J0.047
G3 X16.857 Y50.119 I-0.047 J-0.037
G1 X16.855
X16.848 Y50.12
X16.824 Y50.124
X16.805 Y50.13
X16.786 Y50.136
X16.724 Y50.163
X16.075 Y50.452
X16.074 Y50.45
X16.184 Y49.754
X16.193 Y49.693
X16.195 Y49.677
X16.196 Y49.662
Y49.646
Y49.631
X16.195 Y49.627
Y49.625
G3 X16.209 Y49.581 I0.06 J-0.005
G2 X16.204 Y49.499 I-0.046 J-0.039
G1 X16.027 Y49.334
G2 X15.944 Y49.335 I-0.041 J0.044
G3 X15.901 Y49.352 I-0.042 J-0.043
G1 X15.899
X15.892
X15.876
X15.861 Y49.354
X15.845 Y49.356
X15.83 Y49.359
X15.815 Y49.363
X15.799 Y49.368
X15.755 Y49.384
X15.078 Y49.644
X15.076 Y49.643
X15.223 Y48.953
X15.236 Y48.891
X15.238 Y48.875
X15.24 Y48.86
X15.241 Y48.845
Y48.829
X15.24 Y48.814
Y48.81
Y48.808
G3 X15.253 Y48.764 I0.06 J-0.005
G2 X15.255 Y48.69 I-0.046 J-0.039
G1 X15.168 Y48.573
G2 X15.095 Y48.555 I-0.048 J0.036
G3 X15.049 Y48.556 I-0.024 J-0.055
G1 X15.047 Y48.555
X15.044 Y48.554
X15.028 Y48.548
X15.013 Y48.544
X14.997 Y48.541
X14.982 Y48.538
X14.966 Y48.537
X14.951 Y48.536
X14.936
X14.92
X14.905 Y48.538
X14.889 Y48.54
X14.874 Y48.543
X14.859 Y48.547
X14.843 Y48.552
X14.124 Y48.785
X14.122 Y48.784
X14.319 Y48.049
X14.324 Y48.027
X14.327 Y48.012
X14.328 Y47.997
X14.329 Y47.981
Y47.966
Y47.95
X14.328 Y47.943
Y47.941
G3 X14.341 Y47.897 I0.06 J-0.006
G2 X14.338 Y47.816 I-0.046 J-0.038
G1 X14.185 Y47.663
G2 X14.105 Y47.659 I-0.043 J0.042
G3 X14.061 Y47.672 I-0.038 J-0.046
G1 X14.057
X14.041 Y47.671
X14.026
X14.01
X13.995 Y47.673
X13.98 Y47.675
X13.964 Y47.678
X13.949 Y47.682
X13.217 Y47.878
X13.214 Y47.876
X13.446 Y47.164
X13.455 Y47.133
X13.459 Y47.117
X13.461 Y47.102
X13.463 Y47.087
X13.464 Y47.071
X13.465 Y47.056
X13.464 Y47.04
X13.463 Y47.027
X13.461 Y47.013
X13.459 Y46.999
X13.455 Y46.986
X13.454 Y46.979
X13.449 Y46.963
X13.446 Y46.956
X13.445 Y46.952
G3 X13.446 Y46.906 I0.056 J-0.021
G2 X13.428 Y46.834 I-0.055 J-0.025
G1 X13.313 Y46.744
G2 X13.237 Y46.746 I-0.037 J0.047
G3 X13.193 Y46.761 I-0.039 J-0.045
G1 X13.178 Y46.759
X13.162
X13.147 Y46.76
X13.132 Y46.761
X13.116 Y46.763
X13.085 Y46.769
X12.357 Y46.924
X12.356 Y46.922
X12.618 Y46.239
X12.63 Y46.208
X12.635 Y46.192
X12.639 Y46.177
X12.643 Y46.162
X12.645 Y46.146
X12.647 Y46.131
X12.648 Y46.115
Y46.1
Y46.098
G3 X12.665 Y46.055 I0.06 J-0.001
G2 X12.666 Y45.973 I-0.043 J-0.042
G1 X12.502 Y45.796
G2 X12.42 Y45.791 I-0.044 J0.041
G3 X12.376 Y45.805 I-0.038 J-0.046
G1 X12.374
X12.369 Y45.804
X12.345
X12.325 Y45.805
X12.305 Y45.807
X12.284 Y45.81
X11.55 Y45.926
X11.548 Y45.925
X11.852 Y45.242
X11.863 Y45.216
X11.868 Y45.203
X11.872 Y45.19
X11.876 Y45.175
X11.879 Y45.159
X11.881 Y45.144
G3 X11.905 Y45.104 I0.059 J0.009
G2 X11.916 Y45.019 I-0.036 J-0.048
G1 X11.743 Y44.804
G2 X11.659 Y44.795 I-0.047 J0.038
G3 X11.615 Y44.808 I-0.038 J-0.046
G1 X11.613
X11.605
X11.59 Y44.807
X11.574
X11.543 Y44.809
X10.795 Y44.888
X10.793 Y44.886
X11.112 Y44.262
X11.141 Y44.203
X11.148 Y44.188
X11.154 Y44.172
X11.159 Y44.157
X11.162 Y44.149
Y44.147
G3 X11.19 Y44.111 I0.058 J0.015
G2 X11.211 Y44.027 I-0.03 J-0.052
G1 X11.062 Y43.787
G2 X10.977 Y43.769 I-0.051 J0.032
G3 X10.932 Y43.778 I-0.033 J-0.05
G1 X10.931 Y43.777
X10.927 Y43.776
X10.903 Y43.773
X10.879 Y43.771
X10.865
X10.803 Y43.775
X10.095 Y43.812
X10.094 Y43.81
X10.473 Y43.155
X10.485 Y43.132
X10.495 Y43.109
X10.501 Y43.093
G3 X10.531 Y43.059 I0.056 J0.02
G2 X10.559 Y42.978 I-0.026 J-0.054
G1 X10.439 Y42.741
G2 X10.36 Y42.714 I-0.054 J0.027
G3 X10.314 Y42.717 I-0.026 J-0.054
G1 X10.312 Y42.716
X10.31 Y42.715
X10.294 Y42.711
X10.279 Y42.707
X10.264 Y42.704
X10.248 Y42.702
X10.233 Y42.701
X10.217 Y42.7
X10.125
X9.455
X9.453 Y42.698
X9.837 Y42.106
X9.876 Y42.044
X9.878 Y42.041
X9.886 Y42.027
X9.892 Y42.012
X9.898 Y41.997
X9.899 Y41.994
X9.9 Y41.992
G3 X9.93 Y41.957 I0.057 J0.019
G2 X9.96 Y41.882 I-0.026 J-0.054
G1 X9.882 Y41.677
G2 X9.81 Y41.641 I-0.056 J0.021
G3 X9.764 Y41.635 I-0.016 J-0.058
G1 X9.762 Y41.634
X9.755 Y41.63
X9.735 Y41.62
X9.715 Y41.613
X9.693 Y41.606
X9.678 Y41.602
X9.662 Y41.599
X9.647 Y41.597
X9.631 Y41.596
X8.871 Y41.556
X8.869 Y41.555
X9.276 Y40.996
X9.32 Y40.934
X9.323 Y40.93
X9.332 Y40.916
X9.34 Y40.901
X9.348 Y40.887
X9.354 Y40.872
X9.359 Y40.857
X9.361 Y40.853
Y40.851
G3 X9.391 Y40.816 I0.057 J0.018
G2 X9.419 Y40.74 I-0.028 J-0.053
G1 X9.334 Y40.532
G2 X9.259 Y40.498 I-0.056 J0.023
G3 X9.213 Y40.495 I-0.02 J-0.057
G1 X9.2 Y40.489
X9.184 Y40.482
X9.169 Y40.477
X9.153 Y40.472
X9.138 Y40.468
X9.123 Y40.465
X9.107 Y40.463
X8.349 Y40.384
X8.348 Y40.382
X8.799 Y39.824
X8.83 Y39.787
X8.839 Y39.774
X8.847 Y39.762
X8.856 Y39.747
X8.864 Y39.731
X8.871 Y39.716
X8.877 Y39.701
X8.88 Y39.693
G3 X8.91 Y39.659 I0.057 J0.019
G2 X8.939 Y39.582 I-0.027 J-0.054
G1 X8.853 Y39.374
G2 X8.779 Y39.339 I-0.055 J0.023
G3 X8.734 Y39.335 I-0.018 J-0.057
G1 X8.732
X8.73 Y39.333
X8.724 Y39.33
X8.706 Y39.323
X8.691 Y39.317
X8.675 Y39.312
X8.66 Y39.308
X8.645 Y39.305
X8.583 Y39.295
X7.889 Y39.185
X7.887 Y39.184
X8.398 Y38.617
X8.409 Y38.604
X8.419 Y38.59
X8.429 Y38.575
X8.438 Y38.559
X8.446 Y38.544
X8.453 Y38.529
X8.46 Y38.51
G3 X8.491 Y38.477 I0.056 J0.021
G2 X8.521 Y38.401 I-0.025 J-0.054
G1 X8.446 Y38.203
G2 X8.375 Y38.167 I-0.056 J0.021
G3 X8.33 Y38.16 I-0.015 J-0.058
G1 X8.328 Y38.159
X8.315 Y38.151
X8.301 Y38.144
X8.288 Y38.139
X8.275 Y38.134
X8.259 Y38.129
X8.244 Y38.124
X8.213 Y38.118
X7.493 Y37.965
X7.491 Y37.963
X8.028 Y37.426
X8.035 Y37.418
X8.049 Y37.403
X8.061 Y37.388
X8.071 Y37.372
X8.08 Y37.357
X8.085 Y37.348
X8.087 Y37.343
G3 X8.122 Y37.313 I0.054 J0.027
G2 X8.16 Y37.236 I-0.019 J-0.057
G1 X8.068 Y36.979
G2 X7.991 Y36.942 I-0.057 J0.02
G3 X7.946 Y36.94 I-0.021 J-0.056
G1 X7.944 Y36.939
X7.936 Y36.936
X7.921 Y36.93
X7.906 Y36.925
X7.904 Y36.924
X7.843 Y36.908
X7.16 Y36.725
X7.158 Y36.724
X7.719 Y36.218
X7.737 Y36.201
X7.753 Y36.185
X7.768 Y36.165
X7.772 Y36.16
X7.773 Y36.158
G3 X7.812 Y36.132 I0.05 J0.034
G2 X7.859 Y36.061 I-0.011 J-0.059
G1 X7.799 Y35.785
G2 X7.725 Y35.74 I-0.059 J0.013
G3 X7.68 Y35.733 I-0.015 J-0.058
G1 X7.677 Y35.731
X7.67 Y35.728
X7.658 Y35.721
X7.642 Y35.714
X7.627 Y35.708
X7.596 Y35.698
X6.893 Y35.469
X6.891 Y35.468
X7.473 Y34.997
X7.497 Y34.976
X7.51 Y34.964
X7.522 Y34.951
X7.528 Y34.944
X7.53 Y34.942
G3 X7.57 Y34.92 I0.047 J0.038
G2 X7.623 Y34.853 I-0.006 J-0.06
G1 X7.591 Y34.582
G2 X7.524 Y34.53 I-0.06 J0.007
G3 X7.48 Y34.518 I-0.008 J-0.059
G1 X7.477 Y34.516
X7.473 Y34.512
X7.457 Y34.502
X7.442 Y34.493
X7.426 Y34.485
X7.411 Y34.478
X7.36 Y34.458
X6.69 Y34.201
X6.692 Y34.199
X7.288 Y33.766
X7.317 Y33.744
X7.332 Y33.732
X7.347 Y33.718
X7.349 Y33.715
X7.356 Y33.708
X7.359 Y33.704
X7.361 Y33.702
G3 X7.402 Y33.681 I0.046 J0.039
G2 X7.457 Y33.619 I-0.005 J-0.06
G1 X7.449 Y33.376
G2 X7.39 Y33.318 I-0.06 J0.002
G3 X7.347 Y33.3 I0.001 J-0.06
G1 X7.345 Y33.298
X7.341 Y33.294
X7.332 Y33.286
X7.321 Y33.276
X7.31 Y33.268
X7.299 Y33.26
X7.288 Y33.253
X7.273 Y33.244
X7.259 Y33.237
X7.23 Y33.224
X6.557 Y32.924
Y32.923
X7.195 Y32.508
X7.211 Y32.498
X7.226 Y32.486
X7.228 Y32.484
X7.244 Y32.47
X7.259 Y32.453
X7.266 Y32.445
X7.269 Y32.442
G3 X7.309 Y32.419 I0.047 J0.037
G2 X7.362 Y32.367 I-0.007 J-0.06
G1 X7.379 Y32.23
G2 X7.341 Y32.167 I-0.06 J-0.007
G3 X7.307 Y32.135 I0.022 J-0.056
G1 Y32.133
X7.305 Y32.129
X7.297 Y32.114
X7.288 Y32.098
X7.28 Y32.086
X7.272 Y32.075
X7.263 Y32.064
X7.253 Y32.052
X7.24 Y32.039
X7.226 Y32.027
X7.213 Y32.016
X7.199 Y32.006
X7.186 Y31.998
X7.173 Y31.991
X7.164 Y31.986
X6.488 Y31.642
X6.49 Y31.641
X7.103 Y31.287
X7.164 Y31.251
X7.165 Y31.25
X7.18 Y31.24
X7.196 Y31.227
X7.211 Y31.213
X7.226 Y31.197
X7.23 Y31.193
G3 X7.314 Y31.186 I0.046 J0.039
G2 X7.408 Y31.116 I0.039 J-0.046
G1 X7.225 Y30.725
G3 X7.742 Y30.484 I0.258 J-0.12
X7.333 Y30.846 I-0.258 J0.12
G1 X7.331 Y30.845 F500.
G3 X7.636 Y30.363 Z6.669 I0.152 J-0.241
X7.331 Y30.845 Z6.637 I-0.152 J0.241
X7.636 Y30.363 Z6.606 I0.152 J-0.241
X7.331 Y30.845 Z6.575 I-0.152 J0.241
X7.636 Y30.363 Z6.544 I0.152 J-0.241
X7.331 Y30.845 Z6.512 I-0.152 J0.241
X7.636 Y30.363 Z6.481 I0.152 J-0.241
X7.331 Y30.845 Z6.45 I-0.152 J0.241
X7.636 Y30.363 Z6.419 I0.152 J-0.241
X7.668 Y30.822 Z6.4 I-0.152 J0.241
G1 X7.666 Y30.823
X7.64 Y30.845 F1500.
G3 X7.231 Y30.809 I-0.186 J-0.223
G1 X7.229 Y30.807
X7.226 Y30.803
X7.214 Y30.79
X7.201 Y30.777
X7.188 Y30.767
X7.176 Y30.757
X7.164 Y30.749
X7.103 Y30.713
X6.49 Y30.359
Y30.357
X7.164 Y30.014
X7.18 Y30.006
X7.195 Y29.996
X7.211 Y29.986
X7.226 Y29.973
X7.236 Y29.965
X7.246 Y29.955
X7.258 Y29.942
X7.269 Y29.929
X7.279 Y29.915
X7.288 Y29.902
X7.293 Y29.893
X7.301 Y29.878
X7.305 Y29.87
X7.307 Y29.866
X7.308 Y29.865
G3 X7.341 Y29.833 I0.055 J0.024
G2 X7.379 Y29.769 I-0.022 J-0.056
G1 X7.362 Y29.632
G2 X7.309 Y29.58 I-0.06 J0.007
G3 X7.268 Y29.558 I0.007 J-0.06
G1 X7.265 Y29.554
X7.252 Y29.539
X7.236 Y29.523
X7.226 Y29.514
X7.211 Y29.502
X7.195 Y29.492
X6.556 Y29.077
X6.559 Y29.075
X7.226 Y28.778
X7.257 Y28.764
X7.272 Y28.756
X7.288 Y28.747
X7.306 Y28.735
X7.324 Y28.722
X7.337 Y28.71
X7.343 Y28.704
X7.346 Y28.701
G3 X7.389 Y28.683 I0.043 J0.042
G2 X7.448 Y28.625 I0. J-0.06
G1 X7.458 Y28.383
G2 X7.403 Y28.321 I-0.06 J-0.002
G3 X7.362 Y28.299 I0.005 J-0.06
G1 X7.36 Y28.297
X7.354 Y28.29
X7.349 Y28.285
X7.334 Y28.27
X7.319 Y28.257
X7.288 Y28.234
X6.691 Y27.8
Y27.799
X7.349 Y27.546
X7.411 Y27.522
X7.426 Y27.516
X7.442 Y27.508
X7.457 Y27.498
X7.472 Y27.488
X7.473
X7.48 Y27.482
G3 X7.525 Y27.47 I0.036 J0.048
G2 X7.593 Y27.417 I0.008 J-0.059
G1 X7.623 Y27.147
G2 X7.57 Y27.08 I-0.06 J-0.007
G3 X7.53 Y27.058 I0.006 J-0.06
G1 X7.528 Y27.056
X7.515 Y27.041
X7.5 Y27.026
X7.473 Y27.003
X6.891 Y26.532
X6.893 Y26.531
X7.596 Y26.302
X7.627 Y26.292
X7.642 Y26.286
X7.658 Y26.279
X7.678 Y26.268
X7.681 Y26.266
G3 X7.726 Y26.259 I0.031 J0.051
G2 X7.799 Y26.214 I0.014 J-0.058
G1 X7.859 Y25.94
G2 X7.812 Y25.868 I-0.059 J-0.013
G3 X7.773 Y25.843 I0.011 J-0.059
G1 X7.771 Y25.839
X7.759 Y25.823
X7.75 Y25.812
X7.741 Y25.802
X7.719 Y25.782
X7.158 Y25.276
X7.16 Y25.275
X7.88 Y25.082
X7.904 Y25.076
X7.92 Y25.07
X7.935 Y25.064
X7.943 Y25.061
X7.947 Y25.059
G3 X7.993 Y25.057 I0.025 J0.054
G2 X8.07 Y25.02 I0.02 J-0.056
G1 X8.159 Y24.764
G2 X8.122 Y24.688 I-0.057 J-0.02
G3 X8.088 Y24.657 I0.019 J-0.057
G1 X8.087 Y24.656
X8.084 Y24.651
X8.076 Y24.635
X8.066 Y24.62
X8.055 Y24.604
X8.042 Y24.589
X8.028 Y24.574
X7.491 Y24.037
X7.492 Y24.035
X8.213 Y23.882
X8.244 Y23.876
X8.259 Y23.871
X8.275 Y23.866
X8.295 Y23.859
X8.315 Y23.849
X8.326 Y23.843
X8.331 Y23.84
G3 X8.376 Y23.833 I0.031 J0.052
G2 X8.447 Y23.795 I0.015 J-0.058
G1 X8.519 Y23.597
G2 X8.489 Y23.523 I-0.056 J-0.02
G3 X8.459 Y23.488 I0.027 J-0.054
G1 Y23.487
X8.458 Y23.484
X8.456 Y23.479
X8.449 Y23.463
X8.442 Y23.448
X8.434 Y23.432
X8.424 Y23.417
X8.412 Y23.4
X8.398 Y23.383
X7.887 Y22.816
X7.889 Y22.815
X8.583 Y22.705
X8.645 Y22.695
X8.66 Y22.692
X8.675 Y22.688
X8.691 Y22.683
X8.706 Y22.677
X8.708
X8.723 Y22.67
X8.73 Y22.666
X8.734 Y22.665
G3 X8.78 Y22.661 I0.028 J0.053
G2 X8.853 Y22.626 I0.018 J-0.057
G1 X8.94 Y22.418
G2 X8.91 Y22.341 I-0.055 J-0.023
G3 X8.879 Y22.307 I0.026 J-0.054
G1 X8.874 Y22.291
X8.868 Y22.276
X8.86 Y22.261
X8.851 Y22.245
X8.841 Y22.229
X8.83 Y22.213
X8.805 Y22.183
X8.348 Y21.619
X8.35 Y21.616
X9.107 Y21.537
X9.123 Y21.535
X9.138 Y21.532
X9.153 Y21.528
X9.169 Y21.523
X9.184 Y21.518
X9.2 Y21.511
X9.212 Y21.505
G3 X9.258 Y21.502 I0.026 J0.054
G2 X9.333 Y21.468 I0.02 J-0.057
G1 X9.419 Y21.259
G2 X9.391 Y21.183 I-0.056 J-0.023
G3 X9.361 Y21.148 I0.028 J-0.053
G1 X9.36 Y21.146
X9.359 Y21.143
X9.357 Y21.135
X9.35 Y21.119
X9.343 Y21.104
X9.335 Y21.089
X9.325 Y21.073
X9.323 Y21.07
X9.281 Y21.012
X8.869 Y20.445
X8.871 Y20.444
X9.631 Y20.404
X9.646 Y20.403
X9.661 Y20.401
X9.676 Y20.398
X9.691 Y20.395
X9.693 Y20.394
X9.709 Y20.39
X9.724 Y20.384
X9.739 Y20.378
X9.755 Y20.37
X9.762 Y20.366
X9.765 Y20.364
G3 X9.811 Y20.359 I0.03 J0.052
G2 X9.883 Y20.323 I0.016 J-0.058
G1 X9.962 Y20.119
G2 X9.931 Y20.043 I-0.056 J-0.022
G3 X9.9 Y20.009 I0.025 J-0.054
G1 X9.895 Y19.994
X9.888 Y19.978
X9.88 Y19.963
X9.878 Y19.959
X9.842 Y19.901
X9.452 Y19.301
X9.454 Y19.3
X10.187
X10.217
X10.233 Y19.299
X10.248 Y19.298
X10.264 Y19.296
X10.279 Y19.293
X10.294 Y19.289
X10.31 Y19.285
X10.311 Y19.284
X10.314 Y19.283
G3 X10.36 Y19.286 I0.019 J0.057
G2 X10.44 Y19.259 I0.026 J-0.054
G1 X10.558 Y19.024
G2 X10.531 Y18.943 I-0.054 J-0.027
G3 X10.501 Y18.909 I0.027 J-0.054
G1 X10.499 Y18.903
X10.495 Y18.891
X10.487 Y18.872
X10.477 Y18.853
X10.433 Y18.777
X10.094 Y18.19
X10.096 Y18.188
X10.803 Y18.225
X10.865 Y18.229
X10.88
X10.896 Y18.228
X10.911 Y18.226
X10.927 Y18.224
X10.931 Y18.223
X10.932 Y18.222
G3 X10.977 Y18.231 I0.012 J0.059
G2 X11.062 Y18.213 I0.033 J-0.05
G1 X11.211 Y17.974
G2 X11.19 Y17.891 I-0.051 J-0.032
G3 X11.163 Y17.854 I0.03 J-0.052
G1 X11.162 Y17.85
X11.157 Y17.835
X11.151 Y17.82
X11.145 Y17.804
X11.114 Y17.742
X10.794 Y17.114
X10.795 Y17.112
X11.543 Y17.191
X11.574 Y17.193
X11.59
X11.605 Y17.192
X11.614
G3 X11.658 Y17.205 I0.005 J0.06
G2 X11.744 Y17.197 I0.039 J-0.046
G1 X11.915 Y16.981
G2 X11.904 Y16.895 I-0.047 J-0.037
G3 X11.881 Y16.856 I0.036 J-0.048
G1 X11.88 Y16.848
X11.877 Y16.833
X11.874 Y16.817
X11.87 Y16.802
X11.864 Y16.788
X11.852 Y16.758
X11.548 Y16.075
X11.55 Y16.074
X12.284 Y16.19
X12.314 Y16.194
X12.33 Y16.196
X12.345
X12.361
X12.368
X12.372 Y16.195
X12.374
G3 X12.418 Y16.209 I0.005 J0.06
G2 X12.5 Y16.204 I0.039 J-0.046
G1 X12.666 Y16.027
G2 X12.665 Y15.944 I-0.044 J-0.041
G3 X12.648 Y15.902 I0.043 J-0.042
G1 Y15.9
Y15.892
Y15.877
X12.646 Y15.861
X12.644 Y15.846
X12.641 Y15.83
X12.637 Y15.815
X12.632 Y15.8
X12.621 Y15.769
X12.356 Y15.078
X12.358 Y15.076
X13.085 Y15.231
X13.116 Y15.237
X13.132 Y15.239
X13.147 Y15.24
X13.162 Y15.241
X13.178
X13.193 Y15.239
G3 X13.237 Y15.254 I0.004 J0.06
G2 X13.313 Y15.256 I0.039 J-0.045
G1 X13.427 Y15.167
G2 X13.445 Y15.096 I-0.037 J-0.047
G3 X13.444 Y15.05 I0.055 J-0.024
G1 X13.445 Y15.048
X13.446 Y15.044
X13.451 Y15.029
X13.455 Y15.014
X13.46 Y14.991
X13.463 Y14.967
X13.464 Y14.951
Y14.936
Y14.921
X13.462 Y14.905
X13.46 Y14.886
X13.455 Y14.867
X13.448 Y14.844
X13.214 Y14.124
X13.217 Y14.122
X13.949 Y14.318
X13.964 Y14.322
X13.98 Y14.325
X13.995 Y14.327
X14.01 Y14.329
X14.026
X14.041
X14.057 Y14.328
X14.061
G3 X14.105 Y14.341 I0.006 J0.06
G2 X14.185 Y14.337 I0.038 J-0.046
G1 X14.337 Y14.185
G2 X14.341 Y14.105 I-0.042 J-0.042
G3 X14.328 Y14.061 I0.046 J-0.038
G1 Y14.057
X14.329 Y14.042
Y14.026
Y14.011
X14.328 Y13.995
X14.325 Y13.98
X14.322 Y13.965
X14.319 Y13.951
X14.122 Y13.216
X14.124 Y13.215
X14.843 Y13.448
X14.859 Y13.453
X14.874 Y13.457
X14.889 Y13.46
X14.905 Y13.462
X14.92 Y13.464
X14.936
X14.951
X14.966 Y13.463
X14.982 Y13.462
X14.997 Y13.459
X15.013 Y13.456
X15.028 Y13.452
X15.044 Y13.446
X15.047 Y13.445
X15.049 Y13.444
G3 X15.095 Y13.445 I0.022 J0.056
G2 X15.167 Y13.427 I0.024 J-0.055
G1 X15.256 Y13.313
G2 X15.254 Y13.237 I-0.047 J-0.037
G3 X15.239 Y13.194 I0.045 J-0.039
G1 X15.241 Y13.178
Y13.163
X15.24 Y13.147
X15.239 Y13.132
X15.237 Y13.116
X15.224 Y13.055
X15.076 Y12.357
X15.077 Y12.355
X15.774 Y12.623
X15.799 Y12.632
X15.815 Y12.637
X15.83 Y12.641
X15.845 Y12.644
X15.861 Y12.646
X15.876 Y12.648
X15.892
X15.899
X15.901
G3 X15.944 Y12.665 I0.001 J0.06
G2 X16.027 Y12.666 I0.042 J-0.043
G1 X16.204 Y12.501
G2 X16.209 Y12.418 I-0.041 J-0.044
G3 X16.195 Y12.374 I0.046 J-0.039
G1 Y12.372
X16.196 Y12.369
Y12.361
Y12.345
Y12.33
X16.194 Y12.315
X16.185 Y12.253
X16.074 Y11.55
X16.075 Y11.548
X16.724 Y11.837
X16.786 Y11.864
X16.801 Y11.869
X16.817 Y11.874
X16.832 Y11.877
X16.848 Y11.88
X16.854 Y11.881
X16.857
G3 X16.897 Y11.904 I-0.008 J0.06
G2 X16.982 Y11.914 I0.047 J-0.037
G1 X17.196 Y11.744
G2 X17.205 Y11.659 I-0.037 J-0.047
G3 X17.192 Y11.615 I0.047 J-0.038
G1 Y11.613
Y11.605
X17.193 Y11.59
Y11.574
X17.187 Y11.513
X17.112 Y10.795
X17.114 Y10.794
X17.773 Y11.129
X17.8 Y11.143
X17.817 Y11.15
X17.834 Y11.157
X17.85 Y11.161
X17.854 Y11.162
G3 X17.89 Y11.19 I-0.015 J0.058
G2 X17.974 Y11.211 I0.052 J-0.03
G1 X18.213 Y11.064
G2 X18.231 Y10.98 I-0.031 J-0.051
G3 X18.222 Y10.935 I0.05 J-0.033
G1 X18.224 Y10.927
X18.226 Y10.911
X18.228 Y10.896
X18.229 Y10.881
Y10.865
X18.227 Y10.834
X18.188 Y10.094
X18.19
X18.831 Y10.464
X18.857 Y10.479
X18.87 Y10.486
X18.883 Y10.492
X18.898 Y10.498
X18.906 Y10.5
X18.908 Y10.501
G3 X18.943 Y10.531 I-0.019 J0.057
G2 X19.023 Y10.557 I0.053 J-0.027
G1 X19.259 Y10.44
G2 X19.286 Y10.36 I-0.027 J-0.054
G3 X19.283 Y10.314 I0.054 J-0.027
G1 X19.285 Y10.31
X19.289 Y10.295
X19.293 Y10.279
X19.296 Y10.264
X19.298 Y10.248
X19.299 Y10.233
X19.3 Y10.218
Y10.032
Y9.454
X19.302 Y9.452
X19.931 Y9.861
X19.962 Y9.88
X19.978 Y9.888
X19.993 Y9.895
X20.005 Y9.899
X20.008 Y9.9
X20.01 Y9.901
G3 X20.044 Y9.931 I-0.019 J0.057
G2 X20.119 Y9.96 I0.054 J-0.027
G1 X20.323 Y9.882
G2 X20.359 Y9.81 I-0.021 J-0.056
G3 X20.365 Y9.765 I0.058 J-0.016
G1 X20.366 Y9.762
X20.369 Y9.756
X20.375 Y9.746
X20.384 Y9.724
X20.39 Y9.709
X20.394 Y9.693
X20.398 Y9.678
X20.401 Y9.662
X20.403 Y9.647
X20.404 Y9.632
X20.444 Y8.872
X20.446 Y8.87
X21.042 Y9.303
X21.073 Y9.325
X21.088 Y9.334
X21.103 Y9.343
X21.116 Y9.349
X21.128 Y9.354
X21.147 Y9.361
X21.149
G3 X21.184 Y9.391 I-0.018 J0.057
G2 X21.26 Y9.419 I0.053 J-0.028
G1 X21.467 Y9.333
G2 X21.501 Y9.259 I-0.023 J-0.055
G3 X21.505 Y9.213 I0.057 J-0.018
G1 Y9.211
X21.507 Y9.207
X21.511 Y9.2
X21.518 Y9.184
X21.523 Y9.169
X21.53 Y9.144
X21.535 Y9.119
X21.537 Y9.107
X21.616 Y8.35
X21.619 Y8.348
X22.175 Y8.799
X22.214 Y8.83
X22.225 Y8.839
X22.237 Y8.847
X22.249 Y8.854
X22.261 Y8.861
X22.275 Y8.867
X22.291 Y8.874
X22.306 Y8.879
X22.308 Y8.88
G3 X22.343 Y8.91 I-0.018 J0.057
G2 X22.419 Y8.938 I0.053 J-0.027
G1 X22.627 Y8.853
G2 X22.661 Y8.779 I-0.023 J-0.056
G3 X22.665 Y8.733 I0.057 J-0.018
G1 X22.667 Y8.729
X22.671 Y8.722
X22.677 Y8.706
X22.683 Y8.691
X22.688 Y8.676
X22.692 Y8.66
X22.695 Y8.645
X22.7 Y8.614
X22.814 Y7.89
X22.817 Y7.888
X23.349 Y8.367
X23.385 Y8.4
X23.405 Y8.416
X23.424 Y8.429
X23.436 Y8.436
X23.447 Y8.442
X23.462 Y8.449
X23.478 Y8.455
X23.486 Y8.458
X23.489 Y8.459
X23.491 Y8.46
G3 X23.526 Y8.49 I-0.019 J0.057
G2 X23.601 Y8.519 I0.054 J-0.027
G1 X23.796 Y8.447
G2 X23.833 Y8.376 I-0.021 J-0.056
G3 X23.84 Y8.331 I0.058 J-0.015
G1 X23.842 Y8.327
X23.846 Y8.32
X23.854 Y8.305
X23.861 Y8.29
X23.866 Y8.275
X23.871 Y8.259
X23.876 Y8.244
X23.879 Y8.229
X24.035 Y7.492
X24.037 Y7.491
X24.557 Y8.011
X24.583 Y8.037
X24.597 Y8.048
X24.61 Y8.059
X24.619 Y8.065
X24.634 Y8.075
X24.65 Y8.084
X24.654 Y8.086
X24.656 Y8.087
G3 X24.686 Y8.121 I-0.027 J0.054
G2 X24.762 Y8.159 I0.057 J-0.019
G1 X25.021 Y8.069
G2 X25.058 Y7.992 I-0.02 J-0.057
G3 X25.06 Y7.946 I0.056 J-0.021
G1 X25.061 Y7.942
X25.064 Y7.935
X25.07 Y7.92
X25.076 Y7.905
X25.084 Y7.874
X25.275 Y7.16
X25.277 Y7.158
X25.754 Y7.689
X25.791 Y7.729
X25.802 Y7.74
X25.813 Y7.75
X25.833 Y7.766
X25.843 Y7.773
G3 X25.867 Y7.812 I-0.035 J0.049
G2 X25.939 Y7.86 I0.059 J-0.01
G1 X26.214 Y7.799
G2 X26.259 Y7.726 I-0.013 J-0.059
G3 X26.266 Y7.681 I0.058 J-0.014
G1 X26.268 Y7.678
X26.274 Y7.668
X26.284 Y7.646
X26.292 Y7.627
X26.312 Y7.565
X26.531 Y6.892
X26.533
X26.978 Y7.442
X27.024 Y7.498
X27.029 Y7.504
X27.044 Y7.517
X27.058 Y7.529
G3 X27.079 Y7.57 I-0.039 J0.046
G2 X27.146 Y7.625 I0.06 J-0.005
G1 X27.418 Y7.593
G2 X27.47 Y7.525 I-0.007 J-0.06
G3 X27.482 Y7.48 I0.059 J-0.008
G1 X27.488 Y7.473
X27.498 Y7.457
X27.507 Y7.442
X27.518 Y7.422
X27.534 Y7.38
X27.799 Y6.691
X27.802 Y6.692
X28.212 Y7.257
X28.257 Y7.319
X28.258 Y7.32
X28.272 Y7.336
X28.289 Y7.353
X28.296 Y7.36
X28.298 Y7.361
G3 X28.319 Y7.402 I-0.039 J0.046
G2 X28.381 Y7.457 I0.06 J-0.005
G1 X28.624 Y7.45
G2 X28.682 Y7.39 I-0.002 J-0.06
G3 X28.699 Y7.348 I0.06 J0.
G1 X28.709 Y7.338
X28.726 Y7.319
X28.74 Y7.3
X28.751 Y7.281
X28.758 Y7.269
X28.764 Y7.257
X28.791 Y7.195
X29.075 Y6.557
X29.077
X29.492 Y7.195
X29.502 Y7.211
X29.514 Y7.226
X29.528 Y7.241
X29.544 Y7.257
X29.553 Y7.264
X29.557 Y7.267
X29.559 Y7.269
G3 X29.581 Y7.309 I-0.037 J0.047
G2 X29.633 Y7.362 I0.06 J-0.007
G1 X29.77 Y7.379
G2 X29.834 Y7.341 I0.008 J-0.06
G3 X29.865 Y7.307 I0.056 J0.021
G1 X29.869 Y7.306
X29.877 Y7.302
X29.892 Y7.294
X29.908 Y7.284
X29.923 Y7.273
X29.933 Y7.266
X29.944 Y7.257
X29.955 Y7.246
X29.966 Y7.234
X29.976 Y7.223
X29.985 Y7.212
X29.996 Y7.195
X30.006 Y7.18
X30.014 Y7.164
X30.357 Y6.49
X30.358 Y6.488
X30.731 Y7.134
X30.749 Y7.164
X30.76 Y7.18
X30.772 Y7.195
X30.787 Y7.211
X30.801 Y7.225
X30.809 Y7.231
G3 X30.829 Y7.272 I-0.039 J0.046
G2 X30.889 Y7.327 I0.06 J-0.005
G1 X31.111
G2 X31.17 Y7.272 I0. J-0.06
G3 X31.191 Y7.231 I0.06 J0.005
G1 X31.195 Y7.228
X31.203 Y7.221
X31.218 Y7.206
X31.228 Y7.195
X31.24 Y7.18
X31.251 Y7.164
X31.269 Y7.134
X31.641 Y6.49
X31.642 Y6.489
X31.986 Y7.164
X31.994 Y7.18
X32.004 Y7.195
X32.012 Y7.207
X32.02 Y7.218
X32.037 Y7.238
X32.047 Y7.248
X32.056 Y7.257
X32.069 Y7.268
X32.082 Y7.277
X32.097 Y7.287
X32.113 Y7.296
X32.128 Y7.304
X32.132 Y7.306
X32.134 Y7.307
G3 X32.165 Y7.34 I-0.025 J0.055
G2 X32.229 Y7.379 I0.056 J-0.021
G1 X32.365 Y7.362
G2 X32.418 Y7.31 I-0.007 J-0.06
G3 X32.44 Y7.27 I0.06 J0.007
G1 X32.444 Y7.267
X32.452 Y7.26
X32.456 Y7.257
X32.472 Y7.241
X32.486 Y7.226
X32.498 Y7.211
X32.508 Y7.195
X32.923 Y6.557
X32.925
X33.209 Y7.195
X33.236 Y7.257
X33.244 Y7.273
X33.254 Y7.29
X33.263 Y7.304
X33.274 Y7.319
X33.283 Y7.329
X33.293 Y7.34
X33.298 Y7.345
X33.3 Y7.347
G3 X33.318 Y7.389 I-0.042 J0.043
G2 X33.376 Y7.448 I0.06 J-0.001
G1 X33.619 Y7.457
G2 X33.681 Y7.402 I0.002 J-0.06
G3 X33.702 Y7.361 I0.06 J0.005
G1 X33.703 Y7.36
X33.707 Y7.356
X33.714 Y7.35
X33.73 Y7.334
X33.743 Y7.319
X33.747 Y7.314
X33.788 Y7.257
X34.198 Y6.692
X34.201 Y6.691
X34.466 Y7.38
X34.476 Y7.406
X34.481 Y7.419
X34.487 Y7.432
X34.493 Y7.442
X34.502 Y7.457
X34.512 Y7.473
X34.518 Y7.48
G3 X34.53 Y7.525 I-0.048 J0.036
G2 X34.582 Y7.593 I0.059 J0.008
G1 X34.853 Y7.624
G2 X34.92 Y7.57 I0.007 J-0.06
G3 X34.942 Y7.53 I0.06 J0.006
G1 X34.945 Y7.527
X34.958 Y7.516
X34.971 Y7.504
X34.981 Y7.493
X35.022 Y7.442
X35.467 Y6.892
X35.469 Y6.894
X35.688 Y7.565
X35.708 Y7.627
X35.714 Y7.642
X35.721 Y7.657
X35.729 Y7.673
X35.734 Y7.681
G3 X35.74 Y7.726 I-0.052 J0.03
G2 X35.786 Y7.8 I0.058 J0.015
G1 X36.063 Y7.859
G2 X36.134 Y7.811 I0.012 J-0.059
G3 X36.159 Y7.772 I0.059 J0.011
G1 X36.161 Y7.771
X36.17 Y7.764
X36.187 Y7.75
X36.201 Y7.738
X36.214 Y7.724
X36.724 Y7.158
X36.725 Y7.16
X36.916 Y7.874
X36.924 Y7.905
X36.93 Y7.92
X36.936 Y7.935
X36.94 Y7.945
X36.941 Y7.947
G3 X36.943 Y7.993 I-0.054 J0.026
G2 X36.98 Y8.07 I0.056 J0.02
G1 X37.237 Y8.159
G2 X37.314 Y8.122 I0.02 J-0.057
G3 X37.344 Y8.087 I0.057 J0.019
G1 X37.347 Y8.085
X37.355 Y8.081
X37.371 Y8.072
X37.386 Y8.062
X37.39 Y8.059
X37.405 Y8.047
X37.419 Y8.035
X37.448 Y8.006
X37.963 Y7.491
X37.965 Y7.492
X38.111 Y8.182
X38.124 Y8.244
X38.126 Y8.251
X38.13 Y8.264
X38.135 Y8.278
X38.14 Y8.292
X38.146 Y8.305
X38.154 Y8.321
X38.159 Y8.329
X38.16 Y8.33
G3 X38.167 Y8.376 I-0.051 J0.031
G2 X38.204 Y8.447 I0.058 J0.014
G1 X38.398 Y8.519
G2 X38.473 Y8.49 I0.021 J-0.056
G3 X38.508 Y8.46 I0.054 J0.027
G1 X38.512 Y8.459
X38.527 Y8.453
X38.542 Y8.447
X38.558 Y8.439
X38.576 Y8.429
X38.587 Y8.422
X38.598 Y8.414
X38.62 Y8.395
X39.184 Y7.887
X39.185 Y7.889
X39.3 Y8.614
X39.305 Y8.645
X39.308 Y8.66
X39.312 Y8.676
X39.317 Y8.691
X39.323 Y8.706
X39.329 Y8.722
X39.333 Y8.729
X39.335 Y8.733
G3 X39.339 Y8.779 I-0.053 J0.027
G2 X39.373 Y8.853 I0.057 J0.018
G1 X39.582 Y8.938
G2 X39.658 Y8.909 I0.023 J-0.056
G3 X39.693 Y8.88 I0.054 J0.027
G1 X39.695 Y8.879
X39.699 Y8.878
X39.714 Y8.872
X39.73 Y8.865
X39.739 Y8.861
X39.752 Y8.853
X39.765 Y8.845
X39.778 Y8.836
X39.791 Y8.826
X40.381 Y8.348
X40.384 Y8.35
X40.463 Y9.107
X40.466 Y9.126
X40.47 Y9.145
X40.477 Y9.169
X40.482 Y9.184
X40.489 Y9.2
X40.493 Y9.207
X40.495 Y9.211
Y9.213
G3 X40.499 Y9.259 I-0.053 J0.027
G2 X40.533 Y9.333 I0.057 J0.018
G1 X40.74 Y9.419
G2 X40.817 Y9.391 I0.023 J-0.055
G3 X40.852 Y9.361 I0.053 J0.027
G1 X40.856 Y9.36
X40.872 Y9.354
X40.887 Y9.348
X40.902 Y9.34
X40.917 Y9.332
X40.932 Y9.322
X40.963 Y9.299
X41.554 Y8.87
X41.556 Y8.872
X41.596 Y9.632
X41.597 Y9.647
X41.599 Y9.662
X41.602 Y9.678
X41.606 Y9.693
X41.61 Y9.709
X41.616 Y9.724
X41.621 Y9.737
X41.627 Y9.75
X41.634 Y9.763
X41.635 Y9.764
G3 X41.641 Y9.81 I-0.052 J0.03
G2 X41.677 Y9.882 I0.058 J0.016
G1 X41.879 Y9.96
G2 X41.954 Y9.931 I0.022 J-0.056
G3 X41.989 Y9.901 I0.054 J0.027
G1 X41.992 Y9.9
X41.999 Y9.898
X42.012 Y9.892
X42.027 Y9.886
X42.043 Y9.877
X42.073 Y9.858
X42.698 Y9.453
X42.7 Y9.454
Y10.156
Y10.218
X42.701 Y10.233
X42.702 Y10.248
X42.704 Y10.264
X42.707 Y10.279
X42.711 Y10.295
X42.715 Y10.31
X42.717 Y10.314
G3 X42.714 Y10.36 I-0.057 J0.019
G2 X42.74 Y10.44 I0.054 J0.027
G1 X42.976 Y10.559
G2 X43.057 Y10.532 I0.027 J-0.054
G3 X43.091 Y10.501 I0.054 J0.026
G1 X43.107 Y10.496
X43.122 Y10.489
X43.134 Y10.484
X43.146 Y10.478
X43.169 Y10.464
X43.81 Y10.094
X43.812
X43.773 Y10.834
X43.771 Y10.865
Y10.881
X43.772 Y10.896
X43.774 Y10.911
X43.776 Y10.927
X43.778 Y10.935
G3 X43.769 Y10.98 I-0.059 J0.012
G2 X43.787 Y11.064 I0.05 J0.033
G1 X44.026 Y11.211
G2 X44.109 Y11.19 I0.032 J-0.051
G3 X44.145 Y11.163 I0.052 J0.03
G1 X44.147 Y11.162
X44.155 Y11.16
X44.171 Y11.155
X44.185 Y11.149
X44.2 Y11.143
X44.232 Y11.127
X44.886 Y10.793
X44.888 Y10.795
X44.813 Y11.513
X44.807 Y11.574
Y11.59
X44.808 Y11.605
Y11.613
Y11.615
G3 X44.795 Y11.659 I-0.06 J0.006
G2 X44.804 Y11.744 I0.047 J0.038
G1 X45.017 Y11.916
G2 X45.103 Y11.905 I0.038 J-0.047
G3 X45.143 Y11.881 I0.048 J0.036
G1 X45.157 Y11.879
X45.173 Y11.876
X45.188 Y11.872
X45.204 Y11.868
X45.219 Y11.862
X45.281 Y11.835
X45.925 Y11.548
X45.927 Y11.549
X45.815 Y12.253
X45.806 Y12.315
X45.804 Y12.33
Y12.345
Y12.361
Y12.369
X45.805 Y12.372
Y12.374
G3 X45.791 Y12.418 I-0.06 J0.005
G2 X45.795 Y12.5 I0.046 J0.039
G1 X45.972 Y12.668
G2 X46.056 Y12.666 I0.041 J-0.044
G3 X46.098 Y12.648 I0.043 J0.042
G1 X46.113
X46.129 Y12.647
X46.144 Y12.646
X46.16 Y12.643
X46.175 Y12.64
X46.19 Y12.636
X46.206 Y12.631
X46.226 Y12.623
X46.922 Y12.356
X46.924 Y12.358
X46.776 Y13.055
X46.763 Y13.116
X46.761 Y13.132
X46.759 Y13.155
Y13.178
X46.76 Y13.188
Y13.193
G3 X46.747 Y13.236 I-0.06 J0.005
G2 X46.745 Y13.311 I0.046 J0.039
G1 X46.834 Y13.428
G2 X46.906 Y13.446 I0.048 J-0.036
G3 X46.952 Y13.445 I0.025 J0.055
G1 X46.954
X46.961 Y13.448
X46.977 Y13.453
X46.992 Y13.457
X47.008 Y13.46
X47.023 Y13.462
X47.038 Y13.464
X47.054
X47.069
X47.085 Y13.463
X47.1 Y13.462
X47.116 Y13.459
X47.131 Y13.456
X47.193 Y13.437
X47.876 Y13.215
X47.878 Y13.216
X47.686 Y13.932
X47.68 Y13.956
X47.675 Y13.98
X47.672 Y13.995
X47.671 Y14.011
Y14.026
Y14.042
X47.672 Y14.057
Y14.061
G3 X47.659 Y14.105 I-0.06 J0.006
G2 X47.663 Y14.185 I0.046 J0.038
G1 X47.816 Y14.338
G2 X47.897 Y14.342 I0.042 J-0.042
G3 X47.941 Y14.328 I0.039 J0.046
G1 X47.948 Y14.329
X47.964
X47.979
X47.994 Y14.328
X48.01 Y14.327
X48.025 Y14.324
X48.056 Y14.317
X48.783 Y14.122
X48.786 Y14.124
X48.552 Y14.844
X48.55 Y14.85
X48.546 Y14.864
X48.542 Y14.878
X48.54 Y14.891
X48.538 Y14.905
X48.536 Y14.921
Y14.936
Y14.951
X48.537 Y14.967
X48.538 Y14.982
X48.541 Y14.998
X48.544 Y15.013
X48.549 Y15.029
X48.55 Y15.032
X48.555 Y15.046
Y15.048
G3 X48.554 Y15.094 I-0.056 J0.021
G2 X48.572 Y15.166 I0.055 J0.025
G1 X48.689 Y15.255
G2 X48.764 Y15.253 I0.036 J-0.048
G3 X48.808 Y15.24 I0.039 J0.046
G1 X48.812
X48.827 Y15.241
X48.843
X48.858 Y15.24
X48.873 Y15.238
X48.889 Y15.236
X48.92 Y15.23
X49.643 Y15.076
X49.644 Y15.078
X49.379 Y15.769
X49.368 Y15.8
X49.363 Y15.815
X49.359 Y15.83
X49.356 Y15.846
X49.354 Y15.861
X49.352 Y15.877
Y15.892
Y15.9
Y15.902
G3 X49.335 Y15.944 I-0.06 J0.001
G2 X49.334 Y16.027 I0.043 J0.042
G1 X49.499 Y16.204
G2 X49.581 Y16.209 I0.044 J-0.041
G3 X49.625 Y16.195 I0.039 J0.046
G1 X49.629
X49.644 Y16.196
X49.66
X49.675 Y16.195
X49.691 Y16.194
X49.721 Y16.189
X50.45 Y16.074
X50.452 Y16.075
X50.149 Y16.756
X50.136 Y16.786
X50.131 Y16.802
X50.126 Y16.817
X50.123 Y16.833
X50.12 Y16.848
X50.119 Y16.856
Y16.858
G3 X50.096 Y16.898 I-0.06 J-0.007
G2 X50.086 Y16.982 I0.037 J0.047
G1 X50.255 Y17.196
G2 X50.34 Y17.205 I0.047 J-0.037
G3 X50.384 Y17.191 I0.038 J0.046
G1 X50.389 Y17.192
X50.4 Y17.193
X50.415
X50.431
X50.462 Y17.19
X51.205 Y17.112
X51.207 Y17.114
X50.886 Y17.742
X50.855 Y17.804
X50.849 Y17.82
X50.843 Y17.835
X50.838 Y17.85
X50.837 Y17.854
G3 X50.81 Y17.891 I-0.058 J-0.015
G2 X50.789 Y17.974 I0.03 J0.052
G1 X50.938 Y18.213
G2 X51.022 Y18.231 I0.051 J-0.032
G3 X51.067 Y18.222 I0.033 J0.05
G1 X51.071 Y18.223
X51.078 Y18.225
X51.094 Y18.227
X51.109 Y18.228
X51.125 Y18.229
X51.14 Y18.228
X51.202 Y18.225
X51.904 Y18.188
X51.906 Y18.19
X51.559 Y18.791
X51.523 Y18.853
X51.516 Y18.866
X51.51 Y18.879
X51.503 Y18.897
X51.5 Y18.906
X51.499 Y18.908
G3 X51.469 Y18.943 I-0.057 J-0.019
G2 X51.443 Y19.023 I0.027 J0.054
G1 X51.56 Y19.259
G2 X51.64 Y19.286 I0.054 J-0.027
G3 X51.686 Y19.283 I0.026 J0.054
G1 X51.689 Y19.284
X51.695 Y19.286
X51.711 Y19.291
X51.726 Y19.294
X51.741 Y19.297
X51.757 Y19.299
X51.772 Y19.3
X51.788
X52.546
X52.548 Y19.301
X52.158 Y19.901
X52.127 Y19.95
X52.12 Y19.963
X52.112 Y19.978
X52.105 Y19.994
X52.102 Y20.001
X52.101 Y20.005
X52.1 Y20.007
G3 X52.07 Y20.042 I-0.057 J-0.02
G2 X52.04 Y20.116 I0.026 J0.054
G1 X52.116 Y20.323
G2 X52.189 Y20.36 I0.056 J-0.021
G3 X52.235 Y20.365 I0.017 J0.057
G1 X52.25 Y20.373
X52.265 Y20.38
X52.28 Y20.385
X52.294 Y20.39
X52.309 Y20.395
X52.312
X52.327 Y20.399
X52.343 Y20.401
X52.374 Y20.404
X53.129 Y20.444
X53.131 Y20.445
X52.682 Y21.063
X52.675 Y21.073
X52.665 Y21.089
X52.657 Y21.104
X52.65 Y21.119
X52.643 Y21.135
X52.641 Y21.143
X52.64 Y21.146
X52.639 Y21.148
G3 X52.609 Y21.183 I-0.057 J-0.018
G2 X52.581 Y21.259 I0.028 J0.053
G1 X52.666 Y21.469
G2 X52.742 Y21.503 I0.056 J-0.023
G3 X52.788 Y21.505 I0.02 J0.057
G1 X52.805 Y21.513
X52.821 Y21.52
X52.836 Y21.525
X52.852 Y21.529
X52.867 Y21.533
X52.882 Y21.535
X52.898 Y21.537
X53.65 Y21.616
X53.652 Y21.619
X53.175 Y22.207
X53.161 Y22.226
X53.149 Y22.245
X53.14 Y22.261
X53.132 Y22.276
X53.126 Y22.291
X53.121 Y22.307
X53.12 Y22.308
G3 X53.09 Y22.343 I-0.057 J-0.018
G2 X53.062 Y22.42 I0.027 J0.053
G1 X53.147 Y22.626
G2 X53.221 Y22.661 I0.056 J-0.023
G3 X53.266 Y22.665 I0.018 J0.057
G1 X53.268 Y22.666
X53.272 Y22.667
X53.279 Y22.671
X53.292 Y22.677
X53.299 Y22.679
X53.314 Y22.685
X53.33 Y22.689
X53.345 Y22.693
X53.36 Y22.696
X54.111 Y22.815
X54.113 Y22.816
X53.607 Y23.378
X53.59 Y23.397
X53.576 Y23.417
X53.567 Y23.432
X53.559 Y23.446
X53.552 Y23.461
X53.545 Y23.476
X53.544 Y23.479
X53.542 Y23.486
X53.54 Y23.49
Y23.492
G3 X53.51 Y23.527 I-0.057 J-0.018
G2 X53.481 Y23.601 I0.027 J0.053
G1 X53.551 Y23.796
G2 X53.623 Y23.834 I0.056 J-0.02
G3 X53.669 Y23.839 I0.016 J0.058
G1 X53.685 Y23.849
X53.708 Y23.86
X53.73 Y23.868
X53.746 Y23.873
X53.761 Y23.877
X54.508 Y24.035
X54.51 Y24.037
X53.977 Y24.569
X53.958 Y24.589
X53.945 Y24.604
X53.934 Y24.62
X53.924 Y24.635
X53.916 Y24.651
X53.914 Y24.655
X53.913 Y24.657
G3 X53.878 Y24.687 I-0.054 J-0.026
G2 X53.841 Y24.763 I0.019 J0.057
G1 X53.93 Y25.022
G2 X54.008 Y25.059 I0.057 J-0.02
G3 X54.054 Y25.06 I0.022 J0.056
G1 X54.07 Y25.066
X54.085 Y25.072
X54.1 Y25.077
X54.12 Y25.082
X54.841 Y25.275
Y25.278
X54.286 Y25.778
X54.261 Y25.8
X54.251 Y25.811
X54.241 Y25.823
X54.232 Y25.835
X54.228 Y25.841
X54.227 Y25.842
G3 X54.188 Y25.868 I-0.05 J-0.034
G2 X54.141 Y25.939 I0.011 J0.059
G1 X54.201 Y26.214
G2 X54.275 Y26.26 I0.059 J-0.013
G3 X54.32 Y26.267 I0.014 J0.058
G1 X54.321
X54.324 Y26.269
X54.347 Y26.281
X54.363 Y26.288
X54.378 Y26.294
X54.409 Y26.304
X55.107 Y26.531
X55.109 Y26.532
X54.532 Y26.999
X54.502 Y27.024
X54.486 Y27.04
X54.472 Y27.056
X54.471 Y27.058
G3 X54.43 Y27.08 I-0.047 J-0.038
G2 X54.377 Y27.146 I0.006 J0.06
G1 X54.408 Y27.418
G2 X54.476 Y27.471 I0.06 J-0.007
G3 X54.521 Y27.483 I0.008 J0.059
G1 X54.528 Y27.488
X54.532 Y27.491
X54.548 Y27.501
X54.563 Y27.51
X54.578 Y27.518
X54.594 Y27.524
X54.659 Y27.55
X55.308 Y27.798
X55.309 Y27.8
X54.717 Y28.23
X54.686 Y28.253
X54.671 Y28.266
X54.656 Y28.28
X54.646 Y28.29
X54.64 Y28.297
X54.638 Y28.299
G3 X54.597 Y28.321 I-0.046 J-0.039
G2 X54.542 Y28.383 I0.005 J0.06
G1 X54.551 Y28.624
G2 X54.611 Y28.682 I0.06 J-0.002
G3 X54.653 Y28.7 I-0.001 J0.06
G1 X54.656 Y28.703
X54.666 Y28.713
X54.676 Y28.722
X54.697 Y28.737
X54.717 Y28.75
X54.733 Y28.759
X54.748 Y28.766
X55.444 Y29.076
X55.442 Y29.078
X54.81 Y29.488
X54.794 Y29.499
X54.779 Y29.51
X54.764 Y29.523
X54.75 Y29.537
X54.738 Y29.551
X54.732 Y29.557
X54.731 Y29.559
G3 X54.691 Y29.582 I-0.047 J-0.037
G2 X54.638 Y29.634 I0.007 J0.06
G1 X54.621 Y29.769
G2 X54.659 Y29.833 I0.06 J0.007
G3 X54.692 Y29.865 I-0.022 J0.056
G1 X54.693 Y29.866
X54.695 Y29.87
X54.699 Y29.878
X54.707 Y29.893
X54.717 Y29.91
X54.725 Y29.921
X54.734 Y29.933
X54.743 Y29.944
X54.754 Y29.955
X54.766 Y29.967
X54.779 Y29.978
X54.794 Y29.989
X54.81 Y29.999
X54.841 Y30.016
X55.509 Y30.357
X55.511 Y30.359
X54.902 Y30.71
X54.841 Y30.746
X54.824 Y30.757
X54.813 Y30.766
X54.802 Y30.775
X54.79 Y30.786
X54.779 Y30.797
X54.77 Y30.808
G3 X54.728 Y30.828 I-0.045 J-0.04
G2 X54.672 Y30.889 I0.004 J0.06
G1 X54.674 Y31.112
G2 X54.729 Y31.171 I0.06 J0.
G3 X54.77 Y31.192 I-0.005 J0.06
G1 X54.773 Y31.196
X54.779 Y31.203
X54.793 Y31.217
X54.807 Y31.23
X54.821 Y31.241
X54.835 Y31.25
X54.841 Y31.254
X54.902 Y31.29
X55.51 Y31.641
X55.511 Y31.642
X54.841 Y31.984
X54.827 Y31.991
X54.815 Y31.997
X54.803 Y32.005
X54.791 Y32.013
X54.779 Y32.022
X54.763 Y32.036
X54.747 Y32.052
X54.731 Y32.071
X54.717 Y32.09
X54.71 Y32.102
X54.703 Y32.114
X54.695 Y32.129
X54.693 Y32.133
Y32.135
G3 X54.659 Y32.167 I-0.055 J-0.024
G2 X54.621 Y32.23 I0.022 J0.056
G1 X54.638 Y32.367
G2 X54.691 Y32.419 I0.06 J-0.007
G3 X54.731 Y32.442 I-0.007 J0.06
G1 X54.734 Y32.445
X54.741 Y32.453
X54.756 Y32.47
X54.772 Y32.484
X54.779 Y32.49
X54.794 Y32.501
X54.81 Y32.512
X55.442 Y32.922
X55.444 Y32.924
X54.77 Y33.224
X54.744 Y33.236
X54.73 Y33.242
X54.717 Y33.25
X54.705 Y33.257
X54.692 Y33.266
X54.68 Y33.275
X54.668 Y33.286
X54.656 Y33.297
X54.653 Y33.3
G3 X54.61 Y33.319 I-0.043 J-0.042
G2 X54.551 Y33.376 I0.001 J0.06
G1 X54.542 Y33.617
G2 X54.597 Y33.679 I0.06 J0.002
G3 X54.638 Y33.7 I-0.005 J0.06
G1 X54.639 Y33.702
X54.653 Y33.718
X54.656 Y33.72
X54.671 Y33.734
X54.686 Y33.747
X54.717 Y33.77
X55.308 Y34.199
Y34.201
X54.64 Y34.458
X54.594 Y34.476
X54.578 Y34.482
X54.563 Y34.49
X54.548 Y34.499
X54.532 Y34.509
X54.525 Y34.514
X54.522 Y34.517
X54.52 Y34.518
G3 X54.476 Y34.53 I-0.037 J-0.047
G2 X54.408 Y34.582 I-0.008 J0.06
G1 X54.376 Y34.854
G2 X54.43 Y34.921 I0.06 J0.007
G3 X54.471 Y34.942 I-0.005 J0.06
G1 X54.478 Y34.951
X54.491 Y34.965
X54.505 Y34.979
X54.532 Y35.001
X55.109 Y35.468
X55.107 Y35.469
X54.409 Y35.696
X54.378 Y35.706
X54.363 Y35.712
X54.347 Y35.719
X54.333 Y35.726
X54.319 Y35.734
G3 X54.274 Y35.74 I-0.03 J-0.052
G2 X54.199 Y35.785 I-0.016 J0.058
G1 X54.141 Y36.063
G2 X54.189 Y36.134 I0.059 J0.012
G3 X54.228 Y36.159 I-0.011 J0.059
G1 X54.229 Y36.161
X54.235 Y36.169
X54.247 Y36.185
X54.257 Y36.195
X54.267 Y36.205
X54.286 Y36.222
X54.841 Y36.722
Y36.725
X54.162 Y36.906
X54.1 Y36.923
X54.094 Y36.925
X54.08 Y36.93
X54.066 Y36.935
X54.059 Y36.938
X54.056 Y36.939
X54.054 Y36.94
G3 X54.008 Y36.942 I-0.025 J-0.054
G2 X53.931 Y36.979 I-0.02 J0.056
G1 X53.841 Y37.237
G2 X53.878 Y37.314 I0.057 J0.02
G3 X53.913 Y37.344 I-0.019 J0.057
G1 X53.914 Y37.346
X53.915 Y37.349
X53.92 Y37.357
X53.929 Y37.372
X53.939 Y37.388
X53.951 Y37.403
X53.965 Y37.418
X53.977 Y37.431
X54.509 Y37.963
X54.507 Y37.965
X53.761 Y38.123
X53.746 Y38.127
X53.73 Y38.132
X53.716 Y38.137
X53.701 Y38.143
X53.687 Y38.15
X53.672 Y38.159
X53.669 Y38.161
G3 X53.623 Y38.167 I-0.031 J-0.051
G2 X53.553 Y38.205 I-0.014 J0.058
G1 X53.481 Y38.397
G2 X53.509 Y38.471 I0.056 J0.021
G3 X53.539 Y38.506 I-0.027 J0.053
G1 X53.54 Y38.51
X53.545 Y38.524
X53.547 Y38.529
X53.554 Y38.544
X53.562 Y38.559
X53.571 Y38.575
X53.581 Y38.59
X53.593 Y38.606
X53.607 Y38.622
X54.113 Y39.184
X54.111 Y39.185
X53.36 Y39.304
X53.345 Y39.307
X53.33 Y39.311
X53.314 Y39.315
X53.299 Y39.321
X53.276 Y39.33
X53.266 Y39.335
G3 X53.22 Y39.339 I-0.027 J-0.054
G2 X53.146 Y39.373 I-0.019 J0.057
G1 X53.061 Y39.582
G2 X53.09 Y39.658 I0.056 J0.023
G3 X53.12 Y39.693 I-0.027 J0.054
G1 X53.123 Y39.701
X53.129 Y39.716
X53.136 Y39.731
X53.144 Y39.747
X53.153 Y39.762
X53.163 Y39.778
X53.175 Y39.793
X53.652 Y40.382
X53.65 Y40.384
X52.898 Y40.463
X52.882 Y40.465
X52.867 Y40.467
X52.852 Y40.471
X52.836 Y40.475
X52.821 Y40.48
X52.805 Y40.487
X52.79 Y40.494
X52.788 Y40.495
G3 X52.742 Y40.499 I-0.027 J-0.053
G2 X52.668 Y40.532 I-0.019 J0.057
G1 X52.582 Y40.74
G2 X52.609 Y40.816 I0.055 J0.023
G3 X52.639 Y40.851 I-0.028 J0.053
G1 Y40.853
X52.641 Y40.857
X52.646 Y40.872
X52.653 Y40.888
X52.661 Y40.903
X52.669 Y40.919
X52.68 Y40.934
X52.682 Y40.937
X53.131 Y41.555
X53.128 Y41.556
X52.374 Y41.596
X52.343 Y41.599
X52.327 Y41.601
X52.312 Y41.605
X52.298 Y41.608
X52.285 Y41.613
X52.268 Y41.619
X52.25 Y41.627
X52.235 Y41.636
G3 X52.189 Y41.64 I-0.028 J-0.053
G2 X52.116 Y41.677 I-0.017 J0.057
G1 X52.04 Y41.879
G2 X52.069 Y41.954 I0.056 J0.021
G3 X52.099 Y41.988 I-0.027 J0.054
G1 Y41.99
X52.102 Y41.998
X52.108 Y42.014
X52.115 Y42.029
X52.124 Y42.044
X52.127 Y42.05
X52.163 Y42.106
X52.547 Y42.698
X52.545 Y42.7
X51.788
X51.772
X51.757 Y42.701
X51.741 Y42.703
X51.726 Y42.706
X51.711 Y42.709
X51.695 Y42.714
X51.689 Y42.716
X51.686 Y42.717
G3 X51.64 Y42.714 I-0.019 J-0.057
G2 X51.56 Y42.741 I-0.026 J0.054
G1 X51.441 Y42.978
G2 X51.469 Y43.059 I0.054 J0.027
G3 X51.499 Y43.093 I-0.026 J0.054
G1 X51.504 Y43.107
X51.51 Y43.121
X51.518 Y43.138
X51.527 Y43.155
X51.906 Y43.81
X51.904 Y43.812
X51.202 Y43.775
X51.14 Y43.772
X51.135 Y43.771
X51.121
X51.1 Y43.773
X51.078 Y43.775
X51.071 Y43.777
X51.067 Y43.778
G3 X51.022 Y43.769 I-0.012 J-0.059
G2 X50.937 Y43.787 I-0.033 J0.05
G1 X50.789 Y44.027
G2 X50.81 Y44.111 I0.051 J0.032
G3 X50.838 Y44.147 I-0.03 J0.052
G1 Y44.149
X50.841 Y44.157
X50.846 Y44.172
X50.852 Y44.188
X50.859 Y44.203
X50.893 Y44.271
X51.207 Y44.886
X51.205 Y44.888
X50.462 Y44.81
X50.431 Y44.807
X50.415
X50.4
X50.384 Y44.809
G3 X50.341 Y44.794 I-0.005 J-0.06
G2 X50.255 Y44.803 I-0.039 J0.046
G1 X50.084 Y45.019
G2 X50.095 Y45.104 I0.047 J0.037
G3 X50.119 Y45.144 I-0.036 J0.048
G1 X50.121 Y45.159
X50.124 Y45.175
X50.128 Y45.19
X50.133 Y45.205
X50.139 Y45.221
X50.153 Y45.252
X50.452 Y45.925
X50.45 Y45.926
X49.721 Y45.811
X49.695 Y45.807
X49.677 Y45.805
X49.66 Y45.804
X49.634
X49.627 Y45.805
X49.624
G3 X49.58 Y45.791 I-0.005 J-0.06
G2 X49.498 Y45.796 I-0.039 J0.046
G1 X49.334 Y45.973
G2 X49.335 Y46.055 I0.044 J0.041
G3 X49.352 Y46.098 I-0.043 J0.042
G1 Y46.1
Y46.115
X49.353 Y46.131
X49.355 Y46.146
X49.357 Y46.162
X49.361 Y46.177
X49.365 Y46.192
X49.37 Y46.208
X49.382 Y46.239
X49.644 Y46.922
X49.643 Y46.924
X48.92 Y46.77
X48.889 Y46.764
X48.873 Y46.762
X48.858 Y46.76
X48.843 Y46.759
X48.827
X48.812 Y46.76
X48.808
G3 X48.764 Y46.747 I-0.005 J-0.06
G2 X48.689 Y46.745 I-0.039 J0.046
G1 X48.573 Y46.833
G2 X48.555 Y46.905 I0.036 J0.048
G3 X48.556 Y46.951 I-0.055 J0.024
G1 X48.555 Y46.952
X48.554 Y46.955
X48.55 Y46.968
X48.546 Y46.979
X48.543 Y46.994
X48.54 Y47.01
X48.537 Y47.025
X48.536 Y47.04
X48.535 Y47.056
X48.536 Y47.071
X48.537 Y47.087
X48.539 Y47.102
X48.543 Y47.126
X48.55 Y47.15
X48.554 Y47.164
X48.785 Y47.875
X48.783 Y47.878
X48.056 Y47.683
X48.025 Y47.676
X48.01 Y47.673
X47.994 Y47.672
X47.979 Y47.671
X47.964
X47.948
X47.941 Y47.672
G3 X47.897 Y47.658 I-0.005 J-0.06
G2 X47.816 Y47.662 I-0.039 J0.046
G1 X47.662 Y47.816
G2 X47.659 Y47.897 I0.043 J0.042
G3 X47.672 Y47.941 I-0.046 J0.038
G1 Y47.943
X47.671 Y47.95
Y47.966
Y47.981
X47.672 Y47.997
X47.673 Y48.012
X47.676 Y48.027
X47.686 Y48.068
X47.878 Y48.784
X47.876 Y48.785
X47.193 Y48.563
X47.131 Y48.544
X47.116 Y48.541
X47.1 Y48.538
X47.085 Y48.537
X47.069 Y48.536
X47.054
X47.038
X47.023 Y48.538
X47.008 Y48.54
X46.992 Y48.543
X46.977 Y48.547
X46.961 Y48.552
X46.954 Y48.555
X46.952
G3 X46.906 Y48.554 I-0.021 J-0.056
G2 X46.833 Y48.572 I-0.025 J0.055
G1 X46.745 Y48.689
G2 X46.747 Y48.764 I0.048 J0.036
G3 X46.76 Y48.808 I-0.046 J0.038
G1 Y48.809
Y48.816
X46.759 Y48.829
Y48.849
X46.761 Y48.868
X46.764 Y48.891
X46.777 Y48.953
X46.924 Y49.643
X46.922 Y49.644
X46.245 Y49.384
X46.206 Y49.369
X46.19 Y49.364
X46.175 Y49.36
X46.16 Y49.357
X46.144 Y49.354
X46.129 Y49.353
X46.113 Y49.352
X46.098
G3 X46.056 Y49.334 I0. J-0.06
G2 X45.972 Y49.332 I-0.043 J0.042
G1 X45.795 Y49.499
G2 X45.791 Y49.581 I0.041 J0.044
G3 X45.805 Y49.625 I-0.046 J0.039
G1 Y49.627
X45.804 Y49.631
Y49.646
Y49.662
X45.805 Y49.677
X45.807 Y49.693
X45.816 Y49.754
X45.927 Y50.451
X45.925 Y50.452
X45.281 Y50.165
X45.219 Y50.138
X45.197 Y50.13
X45.176 Y50.124
X45.157 Y50.121
X45.15 Y50.119
X45.146
X45.144
G3 X45.104 Y50.096 I0.008 J-0.06
G2 X45.019 Y50.086 I-0.047 J0.037
G1 X44.805 Y50.256
G2 X44.795 Y50.341 I0.037 J0.047
G3 X44.809 Y50.385 I-0.047 J0.038
G1 X44.808 Y50.387
X44.807 Y50.402
Y50.417
Y50.433
X44.813 Y50.495
X44.888 Y51.205
X44.886 Y51.207
X44.215 Y50.865
X44.193 Y50.854
X44.171 Y50.845
X44.155 Y50.84
X44.147 Y50.838
X44.145 Y50.837
G3 X44.109 Y50.81 I0.015 J-0.058
G2 X44.025 Y50.789 I-0.052 J0.03
G1 X43.787 Y50.938
G2 X43.769 Y51.022 I0.032 J0.051
G3 X43.778 Y51.067 I-0.05 J0.033
G1 X43.777 Y51.069
X43.776 Y51.073
X43.775 Y51.081
X43.773 Y51.096
X43.772 Y51.111
X43.771 Y51.127
X43.772 Y51.142
X43.812 Y51.903
X43.81 Y51.906
X43.152 Y51.526
X43.137 Y51.518
X43.122 Y51.511
X43.107 Y51.504
X43.091 Y51.499
G3 X43.057 Y51.468 I0.02 J-0.057
G2 X42.976 Y51.441 I-0.054 J0.026
G1 X42.741 Y51.56
G2 X42.714 Y51.64 I0.027 J0.054
G3 X42.717 Y51.686 I-0.054 J0.026
G1 X42.715 Y51.69
X42.713 Y51.697
X42.709 Y51.713
X42.705 Y51.728
X42.703 Y51.744
X42.701 Y51.759
X42.7 Y51.79
Y52.546
X42.698 Y52.547
X42.073 Y52.142
X42.043 Y52.123
X42.027 Y52.114
X42.012 Y52.108
X41.999 Y52.103
X41.993 Y52.1
G3 X41.959 Y52.07 I0.02 J-0.057
G2 X41.883 Y52.039 I-0.054 J0.026
G1 X41.677 Y52.118
G2 X41.641 Y52.19 I0.021 J0.056
G3 X41.635 Y52.236 I-0.058 J0.016
G1 X41.633 Y52.239
X41.626 Y52.254
X41.619 Y52.269
X41.613 Y52.283
X41.608 Y52.299
X41.604 Y52.314
X41.601 Y52.33
X41.598 Y52.345
X41.594 Y52.407
X41.556 Y53.128
X41.554 Y53.13
X40.963 Y52.701
X40.932 Y52.678
X40.917 Y52.668
X40.902 Y52.66
X40.889 Y52.653
X40.877 Y52.648
X40.864 Y52.643
X40.852 Y52.639
G3 X40.818 Y52.609 I0.019 J-0.057
G2 X40.74 Y52.58 I-0.054 J0.027
G1 X40.532 Y52.668
G2 X40.498 Y52.742 I0.023 J0.055
G3 X40.495 Y52.788 I-0.057 J0.019
G1 X40.493 Y52.792
X40.486 Y52.808
X40.48 Y52.823
X40.474 Y52.838
X40.47 Y52.855
X40.465 Y52.878
X40.463 Y52.9
X40.384 Y53.651
X40.382 Y53.653
X39.791 Y53.174
X39.772 Y53.159
X39.752 Y53.147
X39.73 Y53.135
X39.714 Y53.128
X39.699 Y53.122
X39.695 Y53.121
X39.693 Y53.12
G3 X39.658 Y53.091 I0.019 J-0.057
G2 X39.582 Y53.062 I-0.054 J0.027
G1 X39.374 Y53.147
G2 X39.339 Y53.22 I0.023 J0.056
G3 X39.335 Y53.266 I-0.057 J0.018
G1 Y53.267
X39.333 Y53.27
X39.326 Y53.286
X39.32 Y53.301
X39.315 Y53.316
X39.31 Y53.332
X39.307 Y53.347
X39.304 Y53.363
X39.185 Y54.111
X39.184 Y54.112
X38.62 Y53.605
X38.603 Y53.591
X38.587 Y53.579
X38.572 Y53.569
X38.558 Y53.561
X38.542 Y53.553
X38.527 Y53.547
X38.512 Y53.541
X38.508 Y53.54
G3 X38.473 Y53.51 I0.019 J-0.057
G2 X38.398 Y53.481 I-0.054 J0.027
G1 X38.204 Y53.553
G2 X38.167 Y53.624 I0.021 J0.056
G3 X38.16 Y53.669 I-0.058 J0.014
G1 X38.159 Y53.671
X38.15 Y53.686
X38.143 Y53.702
X38.133 Y53.726
X38.126 Y53.749
X38.123 Y53.764
X37.965 Y54.508
X37.963 Y54.51
X37.424 Y53.97
X37.412 Y53.959
X37.4 Y53.949
X37.386 Y53.938
X37.371 Y53.928
X37.355 Y53.919
X37.347 Y53.915
X37.344 Y53.913
G3 X37.314 Y53.878 I0.027 J-0.054
G2 X37.237 Y53.841 I-0.057 J0.019
G1 X36.98 Y53.93
G2 X36.943 Y54.007 I0.02 J0.057
G3 X36.941 Y54.053 I-0.056 J0.02
G1 X36.94 Y54.056
X36.937 Y54.061
X36.933 Y54.072
X36.927 Y54.087
X36.922 Y54.103
X36.848 Y54.38
X36.725 Y54.841
X36.724 Y54.842
X36.214 Y54.276
X36.195 Y54.257
X36.185 Y54.247
X36.174 Y54.239
X36.163 Y54.231
X36.158 Y54.227
G3 X36.133 Y54.188 I0.034 J-0.049
G2 X36.061 Y54.141 I-0.059 J0.011
G1 X35.785 Y54.202
G2 X35.74 Y54.275 I0.013 J0.059
G3 X35.733 Y54.32 I-0.058 J0.015
G1 X35.732 Y54.322
X35.731 Y54.325
X35.727 Y54.331
X35.721 Y54.343
X35.712 Y54.362
X35.705 Y54.38
X35.685 Y54.442
X35.469 Y55.107
X35.468 Y55.109
X35.028 Y54.565
X34.981 Y54.507
X34.977 Y54.504
X34.963 Y54.489
X34.948 Y54.475
X34.945 Y54.472
X34.943 Y54.471
G3 X34.921 Y54.431 I0.038 J-0.047
G2 X34.854 Y54.377 I-0.06 J0.006
G1 X34.581 Y54.409
G2 X34.529 Y54.477 I0.007 J0.06
G3 X34.517 Y54.521 I-0.059 J0.008
G1 X34.516 Y54.523
X34.513 Y54.527
X34.507 Y54.535
X34.497 Y54.55
X34.489 Y54.565
X34.487 Y54.568
X34.48 Y54.583
X34.474 Y54.598
X34.202 Y55.307
X34.2 Y55.309
X33.794 Y54.75
X33.749 Y54.689
X33.747 Y54.686
X33.733 Y54.67
X33.717 Y54.653
X33.702 Y54.639
G3 X33.682 Y54.598 I0.04 J-0.045
G2 X33.62 Y54.541 I-0.06 J0.003
G1 X33.376 Y54.551
G2 X33.319 Y54.61 I0.003 J0.06
G3 X33.301 Y54.652 I-0.06 J-0.001
G1 X33.299 Y54.654
X33.296 Y54.657
X33.289 Y54.664
X33.278 Y54.676
X33.268 Y54.689
X33.261 Y54.7
X33.254 Y54.71
X33.242 Y54.73
X33.233 Y54.75
X32.924 Y55.443
X32.922 Y55.442
X32.513 Y54.812
X32.503 Y54.797
X32.492 Y54.781
X32.479 Y54.766
X32.464 Y54.75
X32.452 Y54.74
X32.444 Y54.733
X32.442 Y54.732
G3 X32.42 Y54.692 I0.037 J-0.047
G2 X32.368 Y54.639 I-0.06 J0.007
G1 X32.231 Y54.62
G2 X32.167 Y54.659 I-0.008 J0.059
G3 X32.136 Y54.692 I-0.056 J-0.021
G1 X32.128 Y54.696
X32.113 Y54.704
X32.097 Y54.713
X32.082 Y54.723
X32.065 Y54.736
X32.049 Y54.75
X32.033 Y54.766
X32.02 Y54.782
X32.009 Y54.797
X31.999 Y54.812
X31.967 Y54.874
X31.643 Y55.51
X31.642 Y55.511
X31.274 Y54.874
X31.256 Y54.843
X31.245 Y54.828
X31.234 Y54.812
X31.218 Y54.794
X31.205 Y54.781
X31.192 Y54.77
G3 X31.172 Y54.729 I0.04 J-0.045
G2 X31.112 Y54.672 I-0.06 J0.004
G1 X30.889 Y54.674
G2 X30.83 Y54.728 I0. J0.06
G3 X30.809 Y54.769 I-0.06 J-0.005
G1 X30.807 Y54.77
X30.804 Y54.773
X30.798 Y54.778
X30.787 Y54.789
X30.776 Y54.801
X30.766 Y54.812
X30.755 Y54.828
X30.744 Y54.843
X30.726 Y54.874
X30.359 Y55.511
X30.357 Y55.509
X30.033 Y54.874
X30.001 Y54.812
X29.993 Y54.8
X29.985 Y54.788
X29.97 Y54.769
X29.961 Y54.76
X29.951 Y54.75
X29.937 Y54.738
X29.923 Y54.727
X29.908 Y54.716
X29.892 Y54.706
X29.877 Y54.698
X29.869 Y54.694
X29.865 Y54.693
G3 X29.834 Y54.659 I0.025 J-0.055
G2 X29.77 Y54.621 I-0.056 J0.021
G1 X29.633 Y54.638
G2 X29.581 Y54.691 I0.008 J0.06
G3 X29.559 Y54.731 I-0.06 J-0.007
G1 X29.557 Y54.733
X29.553 Y54.736
X29.536 Y54.75
X29.523 Y54.764
X29.511 Y54.778
X29.501 Y54.791
X29.491 Y54.805
X29.078 Y55.442
X29.076 Y55.443
X28.767 Y54.75
X28.76 Y54.735
X28.751 Y54.719
X28.742 Y54.704
X28.732 Y54.689
X28.723 Y54.677
X28.713 Y54.666
X28.701 Y54.654
X28.7 Y54.653
G3 X28.682 Y54.611 I0.042 J-0.043
G2 X28.624 Y54.551 I-0.06 J0.001
G1 X28.382 Y54.54
G2 X28.319 Y54.597 I-0.003 J0.06
G3 X28.299 Y54.638 I-0.06 J-0.004
G1 X28.286 Y54.65
X28.271 Y54.665
X28.258 Y54.68
X28.251 Y54.689
X28.206 Y54.75
X27.8 Y55.309
X27.798 Y55.307
X27.537 Y54.627
X27.518 Y54.578
X27.511 Y54.565
X27.503 Y54.55
X27.493 Y54.535
X27.487 Y54.527
X27.484 Y54.523
X27.483 Y54.521
G3 X27.471 Y54.477 I0.048 J-0.036
G2 X27.419 Y54.409 I-0.059 J-0.008
G1 X27.146 Y54.377
G2 X27.079 Y54.431 I-0.007 J0.06
G3 X27.057 Y54.471 I-0.06 J-0.006
G1 X27.055 Y54.473
X27.04 Y54.486
X27.024 Y54.502
X27.023 Y54.504
X26.972 Y54.565
X26.533 Y55.108
X26.531
X26.315 Y54.442
X26.295 Y54.38
X26.29 Y54.367
X26.284 Y54.354
X26.276 Y54.336
X26.271 Y54.327
X26.268 Y54.323
X26.267 Y54.321
G3 X26.261 Y54.275 I0.052 J-0.031
G2 X26.215 Y54.202 I-0.058 J-0.015
G1 X25.939 Y54.141
G2 X25.867 Y54.189 I-0.013 J0.059
G3 X25.842 Y54.227 I-0.059 J-0.011
G1 X25.84 Y54.228
X25.829 Y54.237
X25.817 Y54.246
X25.805 Y54.257
X25.791 Y54.271
X25.748 Y54.319
X25.277 Y54.842
X25.275 Y54.84
X25.086 Y54.134
X25.078 Y54.103
X25.073 Y54.087
X25.067 Y54.072
X25.06 Y54.054
G3 X25.059 Y54.008 I0.055 J-0.024
G2 X25.023 Y53.93 I-0.056 J-0.022
G1 X24.762 Y53.841
G2 X24.686 Y53.879 I-0.019 J0.057
G3 X24.656 Y53.913 I-0.057 J-0.019
G1 X24.654 Y53.914
X24.65 Y53.916
X24.634 Y53.925
X24.619 Y53.935
X24.6 Y53.949
X24.589 Y53.958
X24.579 Y53.968
X24.557 Y53.989
X24.037 Y54.51
X24.035 Y54.508
X23.877 Y53.764
X23.873 Y53.748
X23.869 Y53.733
X23.863 Y53.717
X23.857 Y53.702
X23.85 Y53.686
X23.841 Y53.671
X23.84 Y53.669
G3 X23.833 Y53.624 I0.051 J-0.031
G2 X23.796 Y53.553 I-0.058 J-0.014
G1 X23.603 Y53.479
G2 X23.528 Y53.509 I-0.022 J0.056
G3 X23.493 Y53.539 I-0.054 J-0.026
G1 X23.478 Y53.545
X23.462 Y53.551
X23.447 Y53.558
X23.43 Y53.568
X23.413 Y53.579
X23.399 Y53.589
X23.385 Y53.6
X23.341 Y53.64
X22.816 Y54.113
X22.815 Y54.111
X22.696 Y53.363
X22.693 Y53.347
X22.69 Y53.332
X22.685 Y53.316
X22.68 Y53.301
X22.674 Y53.286
X22.667 Y53.27
X22.666 Y53.268
G3 X22.662 Y53.222 I0.053 J-0.027
G2 X22.628 Y53.148 I-0.057 J-0.018
G1 X22.419 Y53.062
G2 X22.343 Y53.09 I-0.023 J0.055
G3 X22.308 Y53.12 I-0.053 J-0.027
G1 X22.306 Y53.121
X22.291 Y53.126
X22.275 Y53.133
X22.262 Y53.139
X22.248 Y53.147
X22.231 Y53.158
X22.214 Y53.17
X22.166 Y53.208
X21.618 Y53.653
X21.616 Y53.651
X21.537 Y52.9
X21.535 Y52.881
X21.531 Y52.86
X21.526 Y52.838
X21.52 Y52.823
X21.514 Y52.808
X21.507 Y52.792
X21.505 Y52.788
G3 X21.502 Y52.742 I0.054 J-0.027
G2 X21.468 Y52.668 I-0.057 J-0.019
G1 X21.26 Y52.581
G2 X21.183 Y52.609 I-0.023 J0.055
G3 X21.148 Y52.639 I-0.053 J-0.027
G1 X21.145 Y52.64
X21.138 Y52.642
X21.125 Y52.647
X21.111 Y52.653
X21.103 Y52.657
X21.088 Y52.666
X21.073 Y52.675
X21.042 Y52.697
X20.446 Y53.13
X20.444 Y53.128
X20.406 Y52.407
X20.402 Y52.345
X20.399 Y52.33
X20.396 Y52.314
X20.392 Y52.299
X20.387 Y52.283
X20.382 Y52.271
X20.376 Y52.258
X20.37 Y52.245
X20.367 Y52.239
X20.365 Y52.236
G3 X20.36 Y52.19 I0.052 J-0.029
G2 X20.324 Y52.118 I-0.058 J-0.016
G1 X20.122 Y52.04
G2 X20.047 Y52.069 I-0.022 J0.056
G3 X20.012 Y52.099 I-0.053 J-0.027
G1 X20.011
X20.008 Y52.1
X20.003 Y52.102
X19.993 Y52.105
X19.978 Y52.112
X19.962 Y52.12
X19.931 Y52.139
X19.302 Y52.548
X19.3 Y52.546
Y51.79
X19.299 Y51.759
X19.297 Y51.744
X19.295 Y51.728
X19.291 Y51.713
X19.287 Y51.697
X19.285 Y51.69
X19.283 Y51.686
G3 X19.286 Y51.64 I0.057 J-0.019
G2 X19.259 Y51.56 I-0.054 J-0.026
G1 X19.023 Y51.443
G2 X18.943 Y51.469 I-0.027 J0.054
G3 X18.908 Y51.499 I-0.053 J-0.027
G1 X18.906 Y51.5
X18.898 Y51.502
X18.883 Y51.508
X18.868 Y51.515
X18.852 Y51.524
X18.818 Y51.543
X18.191 Y51.905
X18.188 Y51.904
X18.228 Y51.142
X18.229 Y51.127
X18.228 Y51.111
X18.227 Y51.096
X18.225 Y51.081
X18.222 Y51.065
G3 X18.231 Y51.02 I0.059 J-0.011
G2 X18.213 Y50.935 I-0.05 J-0.034
G1 X17.973 Y50.789
G2 X17.89 Y50.81 I-0.031 J0.051
G3 X17.854 Y50.838 I-0.052 J-0.03
G1 X17.85 Y50.839
X17.834 Y50.843
X17.822 Y50.848
X17.81 Y50.853
X17.785 Y50.865
X17.114 Y51.207
X17.112 Y51.205
X17.187 Y50.495
X17.193 Y50.433
Y50.417
Y50.402
X17.192 Y50.387
X17.191 Y50.385
G3 X17.205 Y50.341 I0.06 J-0.006
G2 X17.195 Y50.256 I-0.047 J-0.038
G1 X16.982 Y50.086
G2 X16.897 Y50.096 I-0.037 J0.047
G3 X16.857 Y50.119 I-0.047 J-0.037
G1 X16.855
X16.848 Y50.12
X16.824 Y50.124
X16.805 Y50.13
X16.786 Y50.136
X16.724 Y50.163
X16.075 Y50.452
X16.074 Y50.45
X16.184 Y49.754
X16.193 Y49.693
X16.195 Y49.677
X16.196 Y49.662
Y49.646
Y49.631
X16.195 Y49.627
Y49.625
G3 X16.209 Y49.581 I0.06 J-0.005
G2 X16.204 Y49.499 I-0.046 J-0.039
G1 X16.027 Y49.334
G2 X15.944 Y49.335 I-0.041 J0.044
G3 X15.901 Y49.352 I-0.042 J-0.043
G1 X15.899
X15.892
X15.876
X15.861 Y49.354
X15.845 Y49.356
X15.83 Y49.359
X15.815 Y49.363
X15.799 Y49.368
X15.755 Y49.384
X15.078 Y49.644
X15.076 Y49.643
X15.223 Y48.953
X15.236 Y48.891
X15.238 Y48.875
X15.24 Y48.86
X15.241 Y48.845
Y48.829
X15.24 Y48.814
Y48.81
Y48.808
G3 X15.253 Y48.764 I0.06 J-0.005
G2 X15.255 Y48.69 I-0.046 J-0.039
G1 X15.168 Y48.573
G2 X15.095 Y48.555 I-0.048 J0.036
G3 X15.049 Y48.556 I-0.024 J-0.055
G1 X15.047 Y48.555
X15.044 Y48.554
X15.028 Y48.548
X15.013 Y48.544
X14.997 Y48.541
X14.982 Y48.538
X14.966 Y48.537
X14.951 Y48.536
X14.936
X14.92
X14.905 Y48.538
X14.889 Y48.54
X14.874 Y48.543
X14.859 Y48.547
X14.843 Y48.552
X14.124 Y48.785
X14.122 Y48.784
X14.319 Y48.049
X14.324 Y48.027
X14.327 Y48.012
X14.328 Y47.997
X14.329 Y47.981
Y47.966
Y47.95
X14.328 Y47.943
Y47.941
G3 X14.341 Y47.897 I0.06 J-0.006
G2 X14.338 Y47.816 I-0.046 J-0.038
G1 X14.185 Y47.663
G2 X14.105 Y47.659 I-0.043 J0.042
G3 X14.061 Y47.672 I-0.038 J-0.046
G1 X14.057
X14.041 Y47.671
X14.026
X14.01
X13.995 Y47.673
X13.98 Y47.675
X13.964 Y47.678
X13.949 Y47.682
X13.217 Y47.878
X13.214 Y47.876
X13.446 Y47.164
X13.455 Y47.133
X13.459 Y47.117
X13.461 Y47.102
X13.463 Y47.087
X13.464 Y47.071
X13.465 Y47.056
X13.464 Y47.04
X13.463 Y47.027
X13.461 Y47.013
X13.459 Y46.999
X13.455 Y46.986
X13.454 Y46.979
X13.449 Y46.963
X13.446 Y46.956
X13.445 Y46.952
G3 X13.446 Y46.906 I0.056 J-0.021
G2 X13.428 Y46.834 I-0.055 J-0.025
G1 X13.313 Y46.744
